; generated by PrusaSlicer 2.4.2+x64 on 2022-06-26 at 01:20:57 UTC

; 

; external perimeters extrusion width = 0.45mm
; perimeters extrusion width = 0.45mm
; infill extrusion width = 0.45mm
; solid infill extrusion width = 0.45mm
; top infill extrusion width = 0.40mm
; first layer extrusion width = 0.42mm

M107
M190 S60 ; set bed temperature and wait for it to be reached
M104 S220 ; set temperature
;TYPE:Custom
G28 ; home all axes
G29 ; auto-level
G1 Z5 F5000 ; lift nozzle
M109 S220 ; set temperature and wait for it to be reached
G21 ; set units to millimeters
G90 ; use absolute coordinates
M82 ; use absolute distances for extrusion
G92 E0
; Filament gcode
M107
;LAYER_CHANGE
;Z:0.35
;HEIGHT:0.35
G1 Z.35 F7800
G1 E-2 F2400
G92 E0
G1 X91.14 Y92.155 F7800
G1 E2 F2400
;TYPE:Skirt/Brim
;WIDTH:0.42
G1 F1800
G1 X92.594 Y90.77 E2.10075
G1 X94.26 Y89.651 E2.20148
G1 X96.092 Y88.83 E2.30222
G1 X98.035 Y88.33 E2.40293
G1 X98.96 Y88.211 E2.44975
G1 X100.968 Y88.205 E2.55051
G1 X102.947 Y88.539 E2.65123
G1 X103.976 Y88.854 E2.70525
G1 X105.803 Y89.686 E2.80597
G1 X107.462 Y90.815 E2.90671
G1 X108.907 Y92.208 E3.00745
G1 X109.493 Y92.934 E3.05427
G1 X110.551 Y94.64 E3.155
G1 X111.305 Y96.5 E3.25573
G1 X111.576 Y97.542 E3.30974
G1 X111.823 Y99.51 E3.40931
G1 X111.734 Y101.539 E3.5112
G1 X111.305 Y103.5 E3.61194
G1 X110.551 Y105.36 E3.71267
G1 X109.493 Y107.066 E3.8134
G1 X108.907 Y107.792 E3.86022
G1 X107.462 Y109.185 E3.96096
G1 X105.803 Y110.314 E4.0617
G1 X103.976 Y111.146 E4.16242
G1 X102.947 Y111.461 E4.21644
G1 X100.968 Y111.795 E4.31716
G1 X98.96 Y111.789 E4.41792
G1 X98.035 Y111.67 E4.46474
G1 X96.092 Y111.17 E4.56545
G1 X94.26 Y110.349 E4.66619
G1 X92.594 Y109.23 E4.76692
G1 X91.14 Y107.845 E4.86767
G1 X89.942 Y106.235 E4.9684
G1 X89.417 Y105.296 E5.0224
G1 X88.674 Y103.431 E5.12314
G1 X88.439 Y102.528 E5.16996
G1 X88.178 Y100.538 E5.27069
G1 X88.257 Y98.532 E5.37143
G1 X88.674 Y96.569 E5.47216
G1 X89.033 Y95.554 E5.52617
G1 X89.942 Y93.765 E5.6269
G1 X91.104 Y92.203 E5.72462
G1 E3.72462 F2400
G92 E0
G1 X96.66 Y96.763 F7800
G1 E2 F2400
;TYPE:Perimeter
G1 F1800
G1 X96.707 Y96.707 E2.00365
G1 X97.412 Y96.127 E2.04947
G1 X98.218 Y95.697 E2.0953
G1 X99.091 Y95.432 E2.14112
G1 X99.985 Y95.344 E2.18619
G1 X100.908 Y95.432 E2.2327
G1 X101.782 Y95.697 E2.27857
G1 X102.588 Y96.127 E2.32439
G1 X103.293 Y96.707 E2.37022
G1 X103.873 Y97.412 E2.41604
G1 X104.303 Y98.218 E2.46186
G1 X104.568 Y99.091 E2.50768
G1 X104.658 Y100 E2.5535
G1 X104.568 Y100.909 E2.59932
G1 X104.303 Y101.782 E2.64515
G1 X103.873 Y102.588 E2.69097
G1 X103.293 Y103.293 E2.73679
G1 X102.588 Y103.873 E2.78261
G1 X101.782 Y104.303 E2.82843
G1 X100.909 Y104.568 E2.87426
G1 X100 Y104.658 E2.92008
G1 X99.091 Y104.568 E2.9659
G1 X98.218 Y104.303 E3.01172
G1 X97.412 Y103.873 E3.05754
G1 X96.707 Y103.293 E3.10337
G1 X96.127 Y102.588 E3.14919
G1 X95.697 Y101.782 E3.19501
G1 X95.432 Y100.909 E3.24083
G1 X95.342 Y100 E3.28666
G1 X95.432 Y99.091 E3.33248
G1 X95.697 Y98.218 E3.3783
G1 X96.127 Y97.412 E3.42412
G1 X96.622 Y96.809 E3.46328
G1 X96.927 Y96.982 F7800
;TYPE:External perimeter
G1 F1800
G1 X97.605 Y96.416 E3.5076
G1 X98.35 Y96.017 E3.55002
G1 X99.159 Y95.772 E3.59243
G1 X99.986 Y95.69 E3.63412
G1 X100.841 Y95.772 E3.67722
G1 X101.65 Y96.017 E3.71965
G1 X102.395 Y96.416 E3.76207
G1 X103.048 Y96.952 E3.80448
G1 X103.584 Y97.605 E3.84689
G1 X103.983 Y98.35 E3.8893
G1 X104.228 Y99.159 E3.93171
G1 X104.311 Y100 E3.97413
G1 X104.228 Y100.841 E4.01654
G1 X103.983 Y101.65 E4.05895
G1 X103.584 Y102.395 E4.10136
G1 X103.048 Y103.048 E4.14378
G1 X102.395 Y103.585 E4.18619
G1 X101.65 Y103.983 E4.2286
G1 X100.841 Y104.228 E4.27101
G1 X100 Y104.311 E4.31343
G1 X99.159 Y104.228 E4.35584
G1 X98.35 Y103.983 E4.39825
G1 X97.605 Y103.585 E4.44066
G1 X96.952 Y103.048 E4.48308
G1 X96.416 Y102.395 E4.52549
G1 X96.017 Y101.65 E4.5679
G1 X95.772 Y100.841 E4.61032
G1 X95.689 Y100 E4.65273
G1 X95.772 Y99.159 E4.69514
G1 X96.017 Y98.35 E4.73755
G1 X96.416 Y97.605 E4.77997
G1 X96.889 Y97.028 E4.81742
G1 X96.821 Y96.596 F7800
G1 X96.734 Y96.289
;TYPE:Perimeter
G1 F1800
G1 X97.408 Y95.791 E4.85949
G1 X98.157 Y95.413 E4.90157
G1 X98.958 Y95.168 E4.94362
G1 X99.801 Y95.062 E4.98623
G1 X100.628 Y95.097 E5.02779
G1 X101.447 Y95.274 E5.06987
G1 X102.225 Y95.586 E5.11194
G1 X102.939 Y96.026 E5.15402
G1 X103.569 Y96.58 E5.1961
G1 X104.095 Y97.232 E5.23815
G1 X104.508 Y97.974 E5.28076
G1 X104.784 Y98.754 E5.32232
G1 X104.925 Y99.581 E5.3644
G1 X104.925 Y100.419 E5.40647
G1 X104.784 Y101.246 E5.44855
G1 X104.504 Y102.036 E5.49062
G1 X104.095 Y102.768 E5.5327
G1 X103.569 Y103.42 E5.57477
G1 X102.939 Y103.974 E5.61685
G1 X102.225 Y104.414 E5.65893
G1 X101.447 Y104.726 E5.701
G1 X100.628 Y104.903 E5.74308
G1 X99.79 Y104.939 E5.78516
G1 X98.959 Y104.832 E5.82723
G1 X98.157 Y104.587 E5.86931
G1 X97.408 Y104.209 E5.91139
G1 X96.734 Y103.711 E5.95346
G1 X96.154 Y103.105 E5.99554
G1 X95.685 Y102.411 E6.03761
G1 X95.339 Y101.647 E6.07969
G1 X95.128 Y100.835 E6.12177
G1 X95.057 Y100 E6.16384
G1 X95.128 Y99.165 E6.20589
G1 X95.344 Y98.344 E6.24851
G1 X95.685 Y97.589 E6.29006
G1 X96.154 Y96.895 E6.33214
G1 X96.693 Y96.333 E6.37121
G1 X96.506 Y96.029 F7800
;TYPE:External perimeter
G1 F1800
G1 X97.227 Y95.496 E6.41623
G1 X98.028 Y95.092 E6.46125
G1 X98.885 Y94.83 E6.50626
G1 X99.786 Y94.716 E6.55182
G1 X100.672 Y94.754 E6.59631
G1 X101.549 Y94.943 E6.64133
G1 X102.381 Y95.277 E6.68636
G1 X103.145 Y95.747 E6.73138
G1 X103.819 Y96.34 E6.7764
G1 X104.382 Y97.038 E6.82142
G1 X104.823 Y97.831 E6.86698
G1 X105.119 Y98.667 E6.91146
G1 X105.27 Y99.551 E6.95649
G1 X105.27 Y100.449 E7.00151
G1 X105.119 Y101.333 E7.04653
G1 X104.82 Y102.179 E7.09155
G1 X104.382 Y102.962 E7.13657
G1 X103.819 Y103.66 E7.1816
G1 X103.145 Y104.253 E7.22662
G1 X102.381 Y104.723 E7.27164
G1 X101.549 Y105.057 E7.31667
G1 X100.672 Y105.246 E7.36169
G1 X99.776 Y105.284 E7.40671
G1 X98.886 Y105.17 E7.45173
G1 X98.028 Y104.908 E7.49676
G1 X97.227 Y104.504 E7.54178
G1 X96.506 Y103.971 E7.5868
G1 X95.885 Y103.323 E7.63183
G1 X95.382 Y102.58 E7.67685
G1 X95.013 Y101.762 E7.72187
G1 X94.787 Y100.894 E7.76689
G1 X94.711 Y100 E7.81192
G1 X94.787 Y99.106 E7.85693
G1 X95.017 Y98.228 E7.90249
G1 X95.382 Y97.42 E7.94698
G1 X95.885 Y96.677 E7.992
G1 X96.464 Y96.073 E8.03401
G1 X96.885 Y96.157 F7800
;LAYER_CHANGE
;Z:0.65
;HEIGHT:0.3
G1 Z.65 F7800
M104 S200 ; set temperature
G1 X96.915 Y96.972
;WIDTH:0.45
G1 F900
G1 X97.597 Y96.403 E8.0767
G1 X98.344 Y96.003 E8.11749
G1 X99.156 Y95.757 E8.15828
G1 X99.959 Y95.678 E8.19709
G1 X100.843 Y95.757 E8.23977
G1 X101.656 Y96.003 E8.28061
G1 X102.403 Y96.403 E8.3214
G1 X103.059 Y96.941 E8.36219
G1 X103.597 Y97.597 E8.40298
G1 X103.997 Y98.345 E8.44377
G1 X104.243 Y99.156 E8.48456
G1 X104.326 Y100 E8.52534
G1 X104.243 Y100.844 E8.56613
G1 X103.997 Y101.656 E8.60692
G1 X103.597 Y102.403 E8.64771
G1 X103.059 Y103.059 E8.6885
G1 X102.403 Y103.597 E8.72929
G1 X101.656 Y103.997 E8.77008
G1 X100.844 Y104.243 E8.81087
G1 X100 Y104.326 E8.85166
G1 X99.156 Y104.243 E8.89245
G1 X98.344 Y103.997 E8.93323
G1 X97.597 Y103.597 E8.97402
G1 X96.941 Y103.059 E9.01481
G1 X96.403 Y102.403 E9.0556
G1 X96.003 Y101.656 E9.09639
G1 X95.757 Y100.844 E9.13718
G1 X95.674 Y100 E9.17797
G1 X95.757 Y99.156 E9.21876
G1 X96.003 Y98.345 E9.25954
G1 X96.403 Y97.597 E9.30033
G1 X96.877 Y97.019 E9.3363
G1 X96.809 Y96.586 F7800
G1 X96.515 Y96.041
G1 F900
G1 X97.235 Y95.509 E9.37932
G1 X98.033 Y95.106 E9.42235
G1 X98.888 Y94.844 E9.46534
G1 X99.807 Y94.732 E9.50985
G1 X100.67 Y94.769 E9.5514
G1 X101.544 Y94.957 E9.59443
G1 X102.374 Y95.291 E9.63746
G1 X103.136 Y95.76 E9.68048
G1 X103.808 Y96.351 E9.72351
G1 X104.37 Y97.047 E9.76653
G1 X104.806 Y97.828 E9.80956
G1 X105.104 Y98.671 E9.85258
G1 X105.255 Y99.553 E9.89561
G1 X105.255 Y100.447 E9.93863
G1 X105.104 Y101.329 E9.98166
G1 X104.806 Y102.172 E10.02468
G1 X104.37 Y102.953 E10.06771
G1 X103.808 Y103.649 E10.11074
G1 X103.136 Y104.24 E10.15376
G1 X102.374 Y104.709 E10.19679
G1 X101.544 Y105.043 E10.23981
G1 X100.67 Y105.231 E10.28284
G1 X99.776 Y105.269 E10.32586
G1 X98.889 Y105.156 E10.36889
G1 X98.033 Y104.894 E10.41191
G1 X97.235 Y104.491 E10.45494
G1 X96.515 Y103.959 E10.49796
G1 X95.896 Y103.313 E10.54099
G1 X95.396 Y102.572 E10.58402
G1 X95.027 Y101.757 E10.62704
G1 X94.802 Y100.891 E10.67007
G1 X94.726 Y100 E10.71309
G1 X94.802 Y99.109 E10.75609
G1 X95.04 Y98.215 E10.80059
G1 X95.396 Y97.428 E10.84215
G1 X95.897 Y96.687 E10.88517
G1 X96.474 Y96.084 E10.92531
G1 X96.894 Y96.169 F7800
G1 X96.8 Y96.436
;TYPE:Gap fill
;WIDTH:0.643139
G1 F1200
G1 X96.835 Y96.404 E10.92876
;WIDTH:0.64314
G1 X97.315 Y96.03 E10.97267
;WIDTH:0.615034
G1 X97.359 Y95.999 E10.97637
;WIDTH:0.637056
G1 X97.487 Y95.918 E10.98716
;WIDTH:0.637056
G1 X98.139 Y95.579 E11.03969
;WIDTH:0.623544
G1 X98.189 Y95.557 E11.0435
;WIDTH:0.627598
G1 X98.211 Y95.548 E11.04516
;WIDTH:0.629705
G1 X98.988 Y95.311 E11.1024
;WIDTH:0.629705
G1 X99.037 Y95.301 E11.10599
;WIDTH:0.620912
G1 X99.091 Y95.292 E11.10977
;WIDTH:0.634461
G1 X99.826 Y95.211 E11.16231
;WIDTH:0.634462
G1 X99.931 Y95.208 E11.1698
;WIDTH:0.619676
G1 X99.983 Y95.209 E11.17338
;WIDTH:0.646293
G1 X100.608 Y95.25 E11.21889
;WIDTH:0.646294
G1 X100.904 Y95.295 E11.2406
;WIDTH:0.609385
G1 X100.959 Y95.306 E11.2444
;WIDTH:0.645912
G1 X101.402 Y95.421 E11.27763
;WIDTH:0.645913
G1 X101.809 Y95.564 E11.30887
;WIDTH:0.60878
G1 X101.858 Y95.584 E11.31249
;WIDTH:0.644572
G1 X102.156 Y95.723 E11.33631
;WIDTH:0.644574
G1 X102.64 Y96.001 E11.37667
;WIDTH:0.61258
G1 X102.685 Y96.03 E11.38033
;WIDTH:0.639898
G1 X102.849 Y96.147 E11.39483
;WIDTH:0.639899
G1 X103.371 Y96.591 E11.44397
;WIDTH:0.619741
G1 X103.411 Y96.628 E11.44774
;WIDTH:0.631794
G1 X103.462 Y96.681 E11.45301
;WIDTH:0.631794
G1 X103.975 Y97.311 E11.51046
;WIDTH:0.625304
G1 X103.976 Y97.313 E11.5106
;WIDTH:0.625294
G1 X104.004 Y97.358 E11.5143
;WIDTH:0.635426
G1 X104.369 Y98.025 E11.56849
;WIDTH:0.635424
G1 X104.419 Y98.14 E11.57743
;WIDTH:0.616447
G1 X104.439 Y98.191 E11.58115
;WIDTH:0.642155
G1 X104.636 Y98.793 E11.62682
;WIDTH:0.642155
G1 X104.694 Y99.039 E11.64505
;WIDTH:0.610634
G1 X104.704 Y99.092 E11.64869
;WIDTH:0.645519
G1 X104.772 Y99.594 E11.68544
;WIDTH:0.645521
G1 X104.79 Y99.973 E11.71297
;WIDTH:0.608247
G1 X104.79 Y100.027 E11.71658
;WIDTH:0.645521
G1 X104.772 Y100.406 E11.74412
;WIDTH:0.645522
G1 X104.704 Y100.908 E11.78086
;WIDTH:0.610634
G1 X104.694 Y100.961 E11.78451
;WIDTH:0.642148
G1 X104.636 Y101.207 E11.80273
;WIDTH:0.642149
G1 X104.439 Y101.809 E11.84841
;WIDTH:0.616425
G1 X104.419 Y101.86 E11.85212
;WIDTH:0.635398
G1 X104.369 Y101.975 E11.86107
;WIDTH:0.635398
G1 X104.004 Y102.642 E11.91525
;WIDTH:0.625297
G1 X103.976 Y102.687 E11.91895
;WIDTH:0.625307
G1 X103.975 Y102.689 E11.91909
;WIDTH:0.631756
G1 X103.462 Y103.319 E11.97653
;WIDTH:0.631757
G1 X103.411 Y103.372 E11.98181
;WIDTH:0.619694
G1 X103.371 Y103.409 E11.98557
;WIDTH:0.639849
G1 X102.849 Y103.853 E12.03471
;WIDTH:0.639849
G1 X102.685 Y103.97 E12.04921
;WIDTH:0.612525
G1 X102.64 Y103.999 E12.05288
;WIDTH:0.644556
G1 X102.156 Y104.277 E12.09323
;WIDTH:0.644554
G1 X101.858 Y104.416 E12.11705
;WIDTH:0.608779
G1 X101.809 Y104.436 E12.12067
;WIDTH:0.645912
G1 X101.402 Y104.579 E12.15191
;WIDTH:0.645912
G1 X100.961 Y104.693 E12.18499
;WIDTH:0.609243
G1 X100.908 Y104.704 E12.18862
;WIDTH:0.643874
G1 X100.608 Y104.751 E12.21057
;WIDTH:0.643873
G1 X100.027 Y104.792 E12.25271
;WIDTH:0.613679
G1 X99.973 Y104.793 E12.25639
;WIDTH:0.638492
G1 X99.797 Y104.788 E12.26903
;WIDTH:0.638493
G1 X99.091 Y104.708 E12.31988
;WIDTH:0.621519
G1 X99.037 Y104.7 E12.32366
;WIDTH:0.629708
G1 X98.989 Y104.689 E12.32712
;WIDTH:0.629709
G1 X98.211 Y104.452 E12.3845
;WIDTH:0.6276
G1 X98.189 Y104.443 E12.38615
;WIDTH:0.62355
G1 X98.14 Y104.421 E12.38996
;WIDTH:0.637011
G1 X97.487 Y104.082 E12.44248
;WIDTH:0.637013
G1 X97.359 Y104.001 E12.45327
;WIDTH:0.614986
G1 X97.315 Y103.97 E12.45697
;WIDTH:0.643091
G1 X96.835 Y103.596 E12.50089
;WIDTH:0.643094
G1 X96.631 Y103.407 E12.52098
;WIDTH:0.609874
G1 X96.594 Y103.369 E12.52461
;WIDTH:0.645779
G1 X96.274 Y103.009 E12.55953
;WIDTH:0.64578
G1 X96.032 Y102.684 E12.58892
;WIDTH:0.608444
G1 X96.002 Y102.639 E12.59254
;WIDTH:0.64511
G1 X95.819 Y102.336 E12.61822
;WIDTH:0.645109
G1 X95.584 Y101.858 E12.65677
;WIDTH:0.611514
G1 X95.562 Y101.809 E12.66043
;WIDTH:0.641075
G1 X95.482 Y101.596 E12.67679
;WIDTH:0.641073
G1 X95.304 Y100.962 E12.7242
;WIDTH:0.618012
G1 X95.292 Y100.909 E12.72794
;WIDTH:0.633664
G1 X95.274 Y100.81 E12.73505
;WIDTH:0.633665
G1 X95.202 Y100.027 E12.79088
;WIDTH:0.624219
G1 X95.2 Y100 E12.79279
;WIDTH:0.62422
G1 X95.202 Y99.973 E12.79471
;WIDTH:0.633639
G1 X95.274 Y99.192 E12.8504
;WIDTH:0.633639
G1 X95.292 Y99.091 E12.85764
;WIDTH:0.617124
G1 X95.304 Y99.039 E12.86137
;WIDTH:0.637314
G1 X95.493 Y98.377 E12.91055
;WIDTH:0.637313
G1 X95.562 Y98.191 E12.92472
;WIDTH:0.611543
G1 X95.584 Y98.142 E12.92837
;WIDTH:0.645122
G1 X95.819 Y97.664 E12.96693
;WIDTH:0.645121
G1 X96.002 Y97.361 E12.99261
;WIDTH:0.608443
G1 X96.032 Y97.316 E12.99623
;WIDTH:0.645797
G1 X96.274 Y96.992 E13.02562
;WIDTH:0.645795
G1 X96.594 Y96.631 E13.06054
;WIDTH:0.609917
G1 X96.631 Y96.593 E13.06417
;WIDTH:0.643139
G1 X96.756 Y96.477 E13.07649
;LAYER_CHANGE
;Z:0.95
;HEIGHT:0.3
G1 Z.95 F7800
G1 X96.915 Y96.972
;TYPE:External perimeter
;WIDTH:0.45
G1 F900
G1 X97.597 Y96.403 E13.11918
G1 X98.344 Y96.003 E13.15997
G1 X99.156 Y95.757 E13.20076
G1 X99.934 Y95.68 E13.23838
G1 X100.842 Y95.757 E13.28221
G1 X101.656 Y96.003 E13.32307
G1 X102.403 Y96.403 E13.36386
G1 X103.059 Y96.941 E13.40465
G1 X103.597 Y97.597 E13.44544
G1 X103.997 Y98.345 E13.48623
G1 X104.243 Y99.156 E13.52702
G1 X104.326 Y100 E13.56781
G1 X104.243 Y100.844 E13.60859
G1 X103.997 Y101.656 E13.64939
G1 X103.597 Y102.403 E13.69017
G1 X103.059 Y103.059 E13.73096
G1 X102.403 Y103.597 E13.77175
G1 X101.656 Y103.997 E13.81254
G1 X100.844 Y104.243 E13.85333
G1 X100 Y104.326 E13.89412
G1 X99.156 Y104.243 E13.93491
G1 X98.344 Y103.997 E13.9757
G1 X97.597 Y103.597 E14.01648
G1 X96.941 Y103.059 E14.05727
G1 X96.403 Y102.403 E14.09806
G1 X96.003 Y101.656 E14.13885
G1 X95.757 Y100.844 E14.17964
G1 X95.674 Y100 E14.22043
G1 X95.757 Y99.156 E14.26122
G1 X96.003 Y98.345 E14.30201
G1 X96.403 Y97.597 E14.3428
G1 X96.877 Y97.019 E14.37876
G1 X96.809 Y96.586 F7800
G1 X96.515 Y96.041
G1 F900
G1 X97.235 Y95.509 E14.42179
G1 X98.033 Y95.106 E14.46481
G1 X98.888 Y94.845 E14.50779
G1 X99.825 Y94.733 E14.55318
G1 X100.67 Y94.769 E14.59385
G1 X101.544 Y94.957 E14.63688
G1 X102.374 Y95.291 E14.67991
G1 X103.136 Y95.76 E14.72293
G1 X103.808 Y96.351 E14.76596
G1 X104.37 Y97.047 E14.80898
G1 X104.806 Y97.828 E14.85201
G1 X105.104 Y98.671 E14.89503
G1 X105.255 Y99.553 E14.93807
G1 X105.255 Y100.447 E14.98107
G1 X105.104 Y101.329 E15.02411
G1 X104.806 Y102.172 E15.06713
G1 X104.37 Y102.953 E15.11016
G1 X103.808 Y103.649 E15.15319
G1 X103.136 Y104.24 E15.19621
G1 X102.374 Y104.709 E15.23924
G1 X101.544 Y105.043 E15.28226
G1 X100.67 Y105.231 E15.32529
G1 X99.776 Y105.269 E15.36831
G1 X98.889 Y105.156 E15.41134
G1 X98.033 Y104.894 E15.45436
G1 X97.235 Y104.491 E15.49739
G1 X96.515 Y103.959 E15.54041
G1 X95.896 Y103.313 E15.58344
G1 X95.396 Y102.572 E15.62647
G1 X95.027 Y101.757 E15.66949
G1 X94.802 Y100.891 E15.71252
G1 X94.726 Y100 E15.75554
G1 X94.802 Y99.11 E15.79852
G1 X95.047 Y98.199 E15.84391
G1 X95.396 Y97.428 E15.88459
G1 X95.896 Y96.687 E15.92761
G1 X96.474 Y96.084 E15.96775
G1 X96.894 Y96.169 F7800
G1 X96.8 Y96.436
;TYPE:Gap fill
;WIDTH:0.643139
G1 F1200
G1 X96.835 Y96.404 E15.97119
;WIDTH:0.64314
G1 X97.315 Y96.03 E16.01511
;WIDTH:0.615034
G1 X97.359 Y95.999 E16.01881
;WIDTH:0.637057
G1 X97.487 Y95.918 E16.0296
;WIDTH:0.637057
G1 X98.139 Y95.579 E16.08213
;WIDTH:0.623546
G1 X98.189 Y95.557 E16.08594
;WIDTH:0.6276
G1 X98.211 Y95.548 E16.08759
;WIDTH:0.629704
G1 X98.986 Y95.312 E16.14476
;WIDTH:0.629703
G1 X99.037 Y95.301 E16.14843
;WIDTH:0.620554
G1 X99.091 Y95.292 E16.1522
;WIDTH:0.632001
G1 X99.843 Y95.21 E16.20576
;WIDTH:0.632
G1 X99.906 Y95.209 E16.21018
;WIDTH:0.623224
G1 X99.956 Y95.21 E16.21371
