; generated by PrusaSlicer 2.4.2+x64 on 2022-06-26 at 00:44:13 UTC

; 

; external perimeters extrusion width = 0.45mm
; perimeters extrusion width = 0.45mm
; infill extrusion width = 0.45mm
; solid infill extrusion width = 0.45mm
; top infill extrusion width = 0.40mm
; first layer extrusion width = 0.42mm

M107
M190 S60 ; set bed temperature and wait for it to be reached
M104 S220 ; set temperature
;TYPE:Custom
G28 ; home all axes
G29 ; auto-level
G1 Z5 F5000 ; lift nozzle
M109 S220 ; set temperature and wait for it to be reached
G21 ; set units to millimeters
G90 ; use absolute coordinates
M82 ; use absolute distances for extrusion
G92 E0
; Filament gcode
M107
;LAYER_CHANGE
;Z:0.35
;HEIGHT:0.35
G1 Z.35 F7800
G1 E-2 F2400
G92 E0
G1 X93.014 Y91.72 F7800
G1 E2 F2400
;TYPE:Skirt/Brim
;WIDTH:0.42
G1 F1800
G1 X94.654 Y90.577 E2.10034
G1 X96.476 Y89.755 E2.20066
G1 X97.603 Y89.435 E2.25943
G1 X99.585 Y89.174 E2.35976
G1 X101.581 Y89.282 E2.46009
G1 X103.524 Y89.755 E2.56042
G1 X104.298 Y90.055 E2.6021
G1 X106.052 Y91.014 E2.70242
G1 X107.6 Y92.279 E2.80276
G1 X108.889 Y93.807 E2.90308
G1 X109.876 Y95.546 E3.00343
G1 X110.526 Y97.437 E3.10376
G1 X110.818 Y99.415 E3.20409
G1 X110.741 Y101.412 E3.30442
G1 X110.299 Y103.362 E3.40475
G1 X109.506 Y105.197 E3.50509
G1 X108.389 Y106.855 E3.60542
G1 X107.6 Y107.721 E3.66418
G1 X106.052 Y108.985 E3.7645
G1 X104.298 Y109.945 E3.86484
G1 X102.397 Y110.565 E3.96517
G1 X100.415 Y110.826 E4.06551
G1 X98.419 Y110.718 E4.16584
G1 X96.476 Y110.245 E4.26617
G1 X94.654 Y109.423 E4.36651
G1 X93.948 Y108.985 E4.40819
G1 X92.4 Y107.721 E4.50851
G1 X91.111 Y106.193 E4.60883
G1 X90.124 Y104.454 E4.70917
G1 X89.474 Y102.563 E4.8095
G1 X89.182 Y100.585 E4.90984
G1 X89.259 Y98.588 E5.01017
G1 X89.701 Y96.638 E5.1105
G1 X90.494 Y94.803 E5.21083
G1 X91.611 Y93.145 E5.31117
G1 X92.972 Y91.763 E5.40848
G1 E3.40848 F2400
G92 E0
G1 X97.814 Y97.197 F7800
G1 E2 F2400
;TYPE:Perimeter
G1 F1800
G1 X98.456 Y96.794 E2.03804
G1 X99.208 Y96.531 E2.07803
G1 X99.991 Y96.443 E2.11759
G1 X100.791 Y96.531 E2.15796
G1 X101.544 Y96.794 E2.19799
G1 X102.219 Y97.218 E2.23798
G1 X102.782 Y97.781 E2.27797
G1 X103.206 Y98.456 E2.31796
G1 X103.469 Y99.208 E2.35795
G1 X103.558 Y100 E2.39794
G1 X103.469 Y100.792 E2.43793
G1 X103.206 Y101.544 E2.47792
G1 X102.782 Y102.219 E2.51791
G1 X102.225 Y102.776 E2.55747
G1 X101.545 Y103.206 E2.59784
G1 X100.792 Y103.469 E2.63787
G1 X100 Y103.558 E2.67785
G1 X99.208 Y103.469 E2.71784
G1 X98.464 Y103.209 E2.7574
G1 X97.782 Y102.783 E2.79778
G1 X97.218 Y102.219 E2.8378
G1 X96.794 Y101.544 E2.87779
G1 X96.531 Y100.792 E2.91778
G1 X96.442 Y100 E2.95777
G1 X96.531 Y99.208 E2.99776
G1 X96.794 Y98.456 E3.03775
G1 X97.218 Y97.781 E3.07774
G1 X97.766 Y97.233 E3.11667
G1 X97.998 Y97.489 F7800
;TYPE:External perimeter
G1 F1800
G1 X98.607 Y97.107 E3.15276
G1 X99.285 Y96.869 E3.18885
G1 X99.992 Y96.79 E3.22453
G1 X100.714 Y96.869 E3.261
G1 X101.393 Y97.107 E3.29711
G1 X102.002 Y97.489 E3.3332
G1 X102.511 Y97.998 E3.36928
G1 X102.893 Y98.607 E3.40537
G1 X103.131 Y99.285 E3.44146
G1 X103.211 Y100 E3.47755
G1 X103.131 Y100.715 E3.51364
G1 X102.893 Y101.393 E3.54973
G1 X102.511 Y102.002 E3.58582
G1 X102.008 Y102.505 E3.6215
G1 X101.394 Y102.893 E3.65797
G1 X100.715 Y103.131 E3.69408
G1 X100 Y103.211 E3.73017
G1 X99.285 Y103.131 E3.76626
G1 X98.614 Y102.896 E3.80194
G1 X97.998 Y102.511 E3.83841
G1 X97.489 Y102.002 E3.87451
G1 X97.107 Y101.393 E3.9106
G1 X96.869 Y100.715 E3.94669
G1 X96.789 Y100 E3.98278
G1 X96.869 Y99.285 E4.01887
G1 X97.107 Y98.607 E4.05496
G1 X97.489 Y97.998 E4.09105
G1 X97.955 Y97.532 E4.12413
G1 X97.938 Y97.094 F7800
G1 X97.624 Y96.854
;TYPE:Perimeter
G1 F1800
G1 X98.243 Y96.471 E4.16064
G1 X98.921 Y96.208 E4.19715
G1 X99.636 Y96.074 E4.23364
G1 X100.373 Y96.076 E4.27063
G1 X101.079 Y96.208 E4.30669
G1 X101.757 Y96.471 E4.3432
G1 X102.376 Y96.854 E4.37972
G1 X102.914 Y97.344 E4.41623
G1 X103.352 Y97.924 E4.45274
G1 X103.676 Y98.576 E4.48926
G1 X103.876 Y99.276 E4.52577
G1 X103.943 Y100 E4.56229
G1 X103.876 Y100.724 E4.5988
G1 X103.676 Y101.424 E4.63532
G1 X103.352 Y102.076 E4.67183
G1 X102.914 Y102.656 E4.70834
G1 X102.376 Y103.146 E4.74486
G1 X101.757 Y103.529 E4.78137
G1 X101.079 Y103.792 E4.81789
G1 X100.364 Y103.926 E4.8544
G1 X99.636 Y103.926 E4.89092
G1 X98.921 Y103.792 E4.92743
G1 X98.243 Y103.529 E4.96394
G1 X97.624 Y103.146 E5.00046
G1 X97.086 Y102.656 E5.03697
G1 X96.648 Y102.076 E5.07349
G1 X96.324 Y101.424 E5.11
G1 X96.124 Y100.724 E5.14651
G1 X96.057 Y100 E5.18303
G1 X96.124 Y99.276 E5.21954
G1 X96.324 Y98.576 E5.25606
G1 X96.648 Y97.924 E5.29257
G1 X97.086 Y97.344 E5.32909
G1 X97.58 Y96.894 E5.36259
G1 X97.415 Y96.577 F7800
;TYPE:External perimeter
G1 F1800
G1 X98.088 Y96.161 E5.40231
G1 X98.826 Y95.875 E5.44203
G1 X99.604 Y95.729 E5.48174
G1 X100.405 Y95.731 E5.52194
G1 X101.174 Y95.875 E5.56119
G1 X101.912 Y96.161 E5.60091
G1 X102.585 Y96.577 E5.64064
G1 X103.17 Y97.11 E5.68036
G1 X103.647 Y97.742 E5.72008
G1 X103.999 Y98.451 E5.7598
G1 X104.216 Y99.212 E5.79952
G1 X104.289 Y100 E5.83924
G1 X104.216 Y100.788 E5.87897
G1 X103.999 Y101.549 E5.91869
G1 X103.647 Y102.258 E5.95841
G1 X103.17 Y102.89 E5.99813
G1 X102.585 Y103.423 E6.03785
G1 X101.912 Y103.839 E6.07758
G1 X101.174 Y104.125 E6.1173
G1 X100.396 Y104.271 E6.15702
G1 X99.604 Y104.271 E6.19674
G1 X98.826 Y104.125 E6.23646
G1 X98.088 Y103.839 E6.27619
G1 X97.415 Y103.423 E6.31591
G1 X96.83 Y102.89 E6.35563
G1 X96.353 Y102.258 E6.39535
G1 X96.001 Y101.549 E6.43507
G1 X95.784 Y100.788 E6.4748
G1 X95.711 Y100 E6.51452
G1 X95.784 Y99.212 E6.55424
G1 X96.001 Y98.451 E6.59396
G1 X96.353 Y97.742 E6.63369
G1 X96.83 Y97.11 E6.67341
G1 X97.371 Y96.618 E6.71012
G1 X97.784 Y96.733 F7800
G1 X97.356 Y97.364
;TYPE:Gap fill
;WIDTH:0.132066
G1 F1800
G1 X97.235 Y97.48 E6.7115
;WIDTH:0.132067
G1 X97.188 Y97.534 E6.7121
G1 X96.905 Y97.91 F7800
;WIDTH:0.135987
G1 F1800
G1 X96.821 Y98.032 E6.71341
;WIDTH:0.135986
G1 X96.757 Y98.146 E6.71457
G1 X96.549 Y98.563 F7800
;WIDTH:0.134023
G1 F1800
G1 X96.513 Y98.649 E6.71537
;WIDTH:0.134023
G1 X96.462 Y98.81 E6.71681
G1 E4.71681 F2400
G92 E0
G1 X96.462 Y101.19 F7800
G1 E2 F2400
;WIDTH:0.134036
G1 F1800
G1 X96.513 Y101.351 E2.00145
;WIDTH:0.134037
G1 X96.549 Y101.437 E2.00225
G1 X96.757 Y101.854 F7800
;WIDTH:0.135988
G1 F1800
G1 X96.821 Y101.968 E2.00341
;WIDTH:0.135989
G1 X96.905 Y102.09 E2.00471
G1 X97.188 Y102.466 F7800
;WIDTH:0.132059
G1 F1800
G1 X97.235 Y102.52 E2.00531
;WIDTH:0.132059
G1 X97.356 Y102.635 E2.0067
G1 X98.839 Y103.549 F7800
;WIDTH:0.129482
G1 F1800
G1 X98.976 Y103.599 E2.00785
;WIDTH:0.129482
G1 X99.026 Y103.613 E2.00825
G1 X99.496 Y103.7 F7800
;WIDTH:0.135357
G1 F1800
G1 X99.655 Y103.723 E2.00966
;WIDTH:0.135356
G1 X99.768 Y103.73 E2.01065
G1 X100.232 Y103.73 F7800
;WIDTH:0.135355
G1 F1800
G1 X100.345 Y103.723 E2.01164
;WIDTH:0.135356
G1 X100.504 Y103.7 E2.01305
G1 X100.974 Y103.613 F7800
;WIDTH:0.129486
G1 F1800
G1 X101.024 Y103.599 E2.01346
;WIDTH:0.129485
G1 X101.161 Y103.549 E2.01461
G1 X102.644 Y102.635 F7800
;WIDTH:0.132059
G1 F1800
G1 X102.765 Y102.52 E2.016
;WIDTH:0.13206
G1 X102.812 Y102.466 E2.0166
G1 X103.095 Y102.09 F7800
;WIDTH:0.135987
G1 F1800
G1 X103.179 Y101.968 E2.0179
;WIDTH:0.135986
G1 X103.243 Y101.854 E2.01906
G1 X103.451 Y101.437 F7800
;WIDTH:0.134038
G1 F1800
G1 X103.487 Y101.351 E2.01986
;WIDTH:0.134038
G1 X103.538 Y101.19 E2.02131
G1 E.02131 F2400
G92 E0
G1 X103.538 Y98.81 F7800
G1 E2 F2400
;WIDTH:0.134028
G1 F1800
G1 X103.487 Y98.649 E2.00145
;WIDTH:0.134026
G1 X103.451 Y98.563 E2.00224
G1 X103.243 Y98.146 F7800
;WIDTH:0.135987
G1 F1800
G1 X103.179 Y98.032 E2.00341
;WIDTH:0.135988
G1 X103.095 Y97.91 E2.00471
G1 X102.812 Y97.534 F7800
;WIDTH:0.132066
G1 F1800
G1 X102.765 Y97.48 E2.00531
;WIDTH:0.132068
G1 X102.644 Y97.364 E2.0067
G1 X101.16 Y96.451 F7800
;WIDTH:0.129437
G1 F1800
G1 X101.024 Y96.401 E2.00784
;WIDTH:0.129435
G1 X100.975 Y96.387 E2.00824
G1 X100.512 Y96.302 F7800
;WIDTH:0.135677
G1 F1800
G1 X100.354 Y96.278 E2.00966
;WIDTH:0.135675
G1 X100.234 Y96.272 E2.01071
G1 X99.764 Y96.271 F7800
;WIDTH:0.135235
G1 F1800
G1 X99.654 Y96.277 E2.01168
;WIDTH:0.135233
G1 X99.497 Y96.3 E2.01307
G1 X99.025 Y96.387 F7800
;WIDTH:0.129437
G1 F1800
G1 X98.976 Y96.401 E2.01347
;WIDTH:0.129436
G1 X98.84 Y96.451 E2.01461
;LAYER_CHANGE
;Z:0.65
;HEIGHT:0.3
G1 Z.65 F7800
M104 S200 ; set temperature
G1 X97.715 Y97.206
;TYPE:Perimeter
;WIDTH:0.45
G1 F900
G1 X98.432 Y96.743 E2.05566
G1 X99.196 Y96.476 E2.09459
G1 X99.976 Y96.388 E2.13234
G1 X100.802 Y96.475 E2.17232
G1 X101.568 Y96.743 E2.21135
G1 X102.254 Y97.174 E2.25028
G1 X102.826 Y97.746 E2.28921
G1 X103.257 Y98.432 E2.32814
G1 X103.524 Y99.196 E2.36707
G1 X103.614 Y100 E2.40599
G1 X103.524 Y100.804 E2.44493
G1 X103.257 Y101.568 E2.48385
G1 X102.826 Y102.254 E2.52278
G1 X102.254 Y102.826 E2.56171
G1 X101.568 Y103.257 E2.60064
G1 X100.804 Y103.524 E2.63957
G1 X100 Y103.614 E2.6785
G1 X99.196 Y103.524 E2.71742
G1 X98.455 Y103.265 E2.75517
G1 X97.748 Y102.827 E2.79515
G1 X97.174 Y102.254 E2.83419
G1 X96.743 Y101.568 E2.87312
G1 X96.476 Y100.804 E2.91204
G1 X96.386 Y100 E2.95097
G1 X96.476 Y99.196 E2.9899
G1 X96.743 Y98.432 E3.02883
G1 X97.174 Y97.746 E3.06776
G1 X97.672 Y97.248 E3.10163
G1 X97.987 Y97.479 F7800
;TYPE:External perimeter
G1 F900
G1 X98.6 Y97.093 E3.13646
G1 X99.282 Y96.854 E3.17121
G1 X99.977 Y96.776 E3.20484
G1 X100.717 Y96.854 E3.24064
G1 X101.4 Y97.093 E3.27543
G1 X102.012 Y97.477 E3.31018
G1 X102.523 Y97.988 E3.34493
G1 X102.907 Y98.6 E3.37968
G1 X103.146 Y99.282 E3.41443
G1 X103.226 Y100 E3.44918
G1 X103.146 Y100.718 E3.48393
G1 X102.907 Y101.4 E3.51868
G1 X102.523 Y102.012 E3.55343
G1 X102.012 Y102.523 E3.58818
G1 X101.4 Y102.907 E3.62292
G1 X100.718 Y103.146 E3.65767
G1 X100 Y103.226 E3.69242
G1 X99.282 Y103.146 E3.72717
G1 X98.622 Y102.915 E3.76081
G1 X97.989 Y102.523 E3.79661
G1 X97.477 Y102.012 E3.83139
G1 X97.093 Y101.4 E3.86615
G1 X96.854 Y100.718 E3.90089
G1 X96.774 Y100 E3.93564
G1 X96.854 Y99.282 E3.97039
G1 X97.093 Y98.6 E4.00514
G1 X97.477 Y97.988 E4.03989
G1 X97.945 Y97.521 E4.07167
G1 X97.927 Y97.083 F7800
G1 X97.658 Y96.898
;TYPE:Perimeter
G1 F900
G1 X98.268 Y96.521 E4.10617
G1 X98.936 Y96.262 E4.14067
G1 X99.64 Y96.13 E4.17508
G1 X100.384 Y96.135 E4.21088
G1 X101.064 Y96.262 E4.24414
G1 X101.732 Y96.521 E4.27863
G1 X102.342 Y96.898 E4.31313
G1 X102.872 Y97.381 E4.34763
G1 X103.305 Y97.954 E4.38212
G1 X103.624 Y98.596 E4.41662
G1 X103.821 Y99.286 E4.45112
G1 X103.887 Y100 E4.48562
G1 X103.821 Y100.714 E4.52012
G1 X103.624 Y101.404 E4.55461
G1 X103.305 Y102.046 E4.58911
G1 X102.872 Y102.618 E4.62361
G1 X102.342 Y103.102 E4.6581
G1 X101.732 Y103.479 E4.6926
G1 X101.064 Y103.738 E4.7271
G1 X100.359 Y103.87 E4.7616
G1 X99.641 Y103.87 E4.79609
G1 X98.936 Y103.738 E4.83059
G1 X98.268 Y103.479 E4.86509
G1 X97.658 Y103.102 E4.89959
G1 X97.128 Y102.618 E4.93408
G1 X96.695 Y102.046 E4.96858
G1 X96.376 Y101.404 E5.00308
G1 X96.179 Y100.714 E5.03757
G1 X96.113 Y100 E5.07207
G1 X96.179 Y99.286 E5.10657
G1 X96.376 Y98.596 E5.14107
G1 X96.695 Y97.954 E5.17557
G1 X97.128 Y97.381 E5.21006
G1 X97.613 Y96.939 E5.24167
G1 X97.424 Y96.589 F7800
;TYPE:External perimeter
G1 F900
G1 X98.095 Y96.174 E5.27961
G1 X98.83 Y95.889 E5.31754
G1 X99.605 Y95.744 E5.35544
G1 X100.421 Y95.749 E5.39469
G1 X101.17 Y95.889 E5.43132
G1 X101.905 Y96.174 E5.46926
G1 X102.576 Y96.589 E5.50719
G1 X103.159 Y97.121 E5.54513
G1 X103.634 Y97.75 E5.58306
G1 X103.985 Y98.456 E5.621
G1 X104.201 Y99.215 E5.65893
G1 X104.274 Y100 E5.69686
G1 X104.201 Y100.785 E5.7348
G1 X103.985 Y101.544 E5.77273
G1 X103.634 Y102.25 E5.81067
G1 X103.159 Y102.879 E5.8486
G1 X102.576 Y103.411 E5.88654
G1 X101.905 Y103.826 E5.92447
G1 X101.17 Y104.111 E5.96241
G1 X100.394 Y104.256 E6.00034
G1 X99.606 Y104.256 E6.03828
G1 X98.83 Y104.111 E6.07621
G1 X98.095 Y103.826 E6.11415
G1 X97.424 Y103.411 E6.15208
G1 X96.841 Y102.879 E6.19002
G1 X96.366 Y102.25 E6.22795
G1 X96.015 Y101.544 E6.26588
G1 X95.799 Y100.785 E6.30382
G1 X95.726 Y100 E6.34175
G1 X95.799 Y99.215 E6.37969
G1 X96.015 Y98.456 E6.41762
G1 X96.366 Y97.75 E6.45556
G1 X96.841 Y97.121 E6.49349
G1 X97.38 Y96.63 E6.52854
G1 X97.793 Y96.745 F7800
;LAYER_CHANGE
;Z:0.95
;HEIGHT:0.3
G1 Z.95 F7800
G1 X97.715 Y97.206
;TYPE:Perimeter
G1 F900
G1 X98.432 Y96.743 E6.56959
G1 X99.196 Y96.476 E6.60852
G1 X99.961 Y96.39 E6.64555
G1 X100.801 Y96.475 E6.68617
G1 X101.568 Y96.743 E6.72526
G1 X102.254 Y97.174 E6.76419
G1 X102.826 Y97.746 E6.80312
G1 X103.257 Y98.432 E6.84205
G1 X103.524 Y99.196 E6.88098
G1 X103.614 Y100 E6.91991
G1 X103.524 Y100.804 E6.95884
G1 X103.257 Y101.568 E6.99776
G1 X102.826 Y102.254 E7.03669
G1 X102.254 Y102.826 E7.07562
G1 X101.568 Y103.257 E7.11455
G1 X100.804 Y103.524 E7.15348
G1 X100 Y103.614 E7.19241
G1 X99.196 Y103.524 E7.23134
G1 X98.469 Y103.27 E7.26837
G1 X97.749 Y102.828 E7.30899
G1 X97.174 Y102.254 E7.34808
G1 X96.743 Y101.568 E7.38701
G1 X96.476 Y100.804 E7.42594
G1 X96.386 Y100 E7.46487
G1 X96.476 Y99.196 E7.5038
G1 X96.743 Y98.432 E7.54273
G1 X97.174 Y97.746 E7.58166
G1 X97.672 Y97.248 E7.61553
G1 X97.987 Y97.479 F7800
;TYPE:External perimeter
G1 F900
G1 X98.6 Y97.093 E7.65036
G1 X99.282 Y96.854 E7.68511
G1 X99.963 Y96.778 E7.71807
G1 X100.717 Y96.854 E7.7545
G1 X101.4 Y97.093 E7.78931
G1 X102.012 Y97.477 E7.82406
G1 X102.523 Y97.988 E7.85881
G1 X102.907 Y98.6 E7.89356
G1 X103.146 Y99.282 E7.92831
G1 X103.226 Y100 E7.96306
G1 X103.146 Y100.718 E7.99781
G1 X102.907 Y101.4 E8.03256
G1 X102.523 Y102.012 E8.06731
G1 X102.012 Y102.523 E8.10206
G1 X101.4 Y102.907 E8.13681
G1 X100.718 Y103.146 E8.17156
G1 X100 Y103.226 E8.2063
G1 X99.282 Y103.146 E8.24105
G1 X98.635 Y102.919 E8.27402
G1 X97.989 Y102.523 E8.31045
G1 X97.477 Y102.012 E8.34526
G1 X97.093 Y101.4 E8.38001
G1 X96.854 Y100.718 E8.41476
G1 X96.774 Y100 E8.44951
G1 X96.854 Y99.282 E8.48426
G1 X97.093 Y98.6 E8.51901
G1 X97.477 Y97.988 E8.55376
G1 X97.945 Y97.521 E8.58554
G1 X97.927 Y97.083 F7800
G1 X97.658 Y96.898
;TYPE:Perimeter
G1 F900
G1 X98.268 Y96.521 E8.62004
G1 X98.936 Y96.262 E8.65453
G1 X99.639 Y96.13 E8.68889
G1 X100.399 Y96.137 E8.72549
G1 X101.064 Y96.262 E8.75799
G1 X101.732 Y96.521 E8.79249
G1 X102.342 Y96.898 E8.82698
G1 X102.872 Y97.381 E8.86148
G1 X103.305 Y97.954 E8.89598
G1 X103.624 Y98.596 E8.93048
G1 X103.821 Y99.286 E8.96497
G1 X103.887 Y100 E8.99947
G1 X103.821 Y100.714 E9.03397
G1 X103.624 Y101.404 E9.06847
G1 X103.305 Y102.046 E9.10296
G1 X102.872 Y102.618 E9.13746
G1 X102.342 Y103.102 E9.17196
G1 X101.732 Y103.479 E9.20646
G1 X101.064 Y103.738 E9.24095
G1 X100.359 Y103.87 E9.27545
G1 X99.641 Y103.87 E9.30995
G1 X98.936 Y103.738 E9.34444
G1 X98.268 Y103.479 E9.37894
G1 X97.658 Y103.102 E9.41344
G1 X97.128 Y102.618 E9.44794
G1 X96.695 Y102.046 E9.48243
G1 X96.376 Y101.404 E9.51693
G1 X96.179 Y100.714 E9.55143
G1 X96.113 Y100 E9.58593
G1 X96.179 Y99.286 E9.62042
G1 X96.376 Y98.596 E9.65492
G1 X96.695 Y97.954 E9.68942
G1 X97.128 Y97.381 E9.72392
G1 X97.613 Y96.939 E9.75553
G1 X97.424 Y96.589 F7800
;TYPE:External perimeter
G1 F900
G1 X98.095 Y96.174 E9.79346
G1 X98.83 Y95.889 E9.8314
G1 X99.605 Y95.744 E9.86928
G1 X100.437 Y95.752 E9.90931
G1 X101.17 Y95.889 E9.94516
G1 X101.905 Y96.174 E9.9831
G1 X102.576 Y96.589 E10.02103
G1 X103.159 Y97.121 E10.05897
G1 X103.634 Y97.75 E10.0969
G1 X103.985 Y98.456 E10.13484
G1 X104.201 Y99.215 E10.17277
G1 X104.274 Y100 E10.21071
G1 X104.201 Y100.785 E10.24864
G1 X103.985 Y101.544 E10.28658
G1 X103.634 Y102.25 E10.32451
G1 X103.159 Y102.879 E10.36244
G1 X102.576 Y103.411 E10.40038
G1 X101.905 Y103.826 E10.43831
G1 X101.17 Y104.111 E10.47625
G1 X100.394 Y104.256 E10.51418
G1 X99.606 Y104.256 E10.55212
G1 X98.83 Y104.111 E10.59005
G1 X98.095 Y103.826 E10.62799
G1 X97.424 Y103.411 E10.66592
G1 X96.841 Y102.879 E10.70386
G1 X96.366 Y102.25 E10.74179
G1 X96.015 Y101.544 E10.77973
G1 X95.799 Y100.785 E10.81766
G1 X95.726 Y100 E10.8556
G1 X95.799 Y99.215 E10.89353
G1 X96.015 Y98.456 E10.93146
G1 X96.366 Y97.75 E10.9694
G1 X96.841 Y97.121 E11.00733
G1 X97.38 Y96.63 E11.04238
G1 X97.793 Y96.745 F7800
M106 S249.9
;LAYER_CHANGE
;Z:1.25
;HEIGHT:0.3
