; generated by PrusaSlicer 2.4.2+x64 on 2022-06-25 at 20:36:28 UTC

; 

; external perimeters extrusion width = 0.45mm
; perimeters extrusion width = 0.45mm
; infill extrusion width = 0.45mm
; solid infill extrusion width = 0.45mm
; top infill extrusion width = 0.40mm
; first layer extrusion width = 0.42mm

M107
M190 S60 ; set bed temperature and wait for it to be reached
M104 S220 ; set temperature
;TYPE:Custom
G28 ; home all axes
G29 ; auto-level
G1 Z5 F5000 ; lift nozzle
M109 S220 ; set temperature and wait for it to be reached
G21 ; set units to millimeters
G90 ; use absolute coordinates
M82 ; use absolute distances for extrusion
G92 E0
; Filament gcode
M107
;LAYER_CHANGE
;Z:0.35
;HEIGHT:0.35
G1 Z.35 F7800
G1 E-2 F2400
G92 E0
G1 X73.301 Y86.126 F7800
G1 E2 F2400
;TYPE:Skirt/Brim
;WIDTH:0.42
G1 F1800
G1 X75.044 Y84.796 E2.11003
G1 X77.457 Y83.349 E2.25124
G1 X79.452 Y82.44 E2.36127
G1 X81.526 Y81.73 E2.47129
G1 X83.66 Y81.227 E2.58131
G1 X85.833 Y80.935 E2.69133
G1 X88.11 Y80.863 E2.80569
G1 X90.212 Y80.996 E2.91136
G1 X91.765 Y81.227 E2.99016
G1 X94.263 Y81.833 E3.11918
G1 X174.619 Y107.144 E7.34722
G1 X176.606 Y108.186 E7.45984
G1 X178.107 Y109.855 E7.57246
G1 X178.932 Y111.941 E7.68509
G1 X179.058 Y113.196 E7.74834
G1 X179.058 Y163.196 E10.25764
G1 X178.661 Y165.404 E10.37026
G1 X177.52 Y167.337 E10.48288
G1 X175.778 Y168.751 E10.5955
G1 X172.713 Y169.541 E10.75434
G1 X97.713 Y169.541 E14.51828
G1 X95.504 Y169.144 E14.6309
G1 X93.572 Y168.003 E14.74352
G1 X91.948 Y165.847 E14.87895
G1 X67.166 Y111.97 E17.85514
G1 X66.428 Y109.978 E17.96178
G1 X65.865 Y107.859 E18.0718
G1 X65.452 Y105.075 E18.21302
G1 X65.375 Y102.884 E18.32304
G1 X65.526 Y100.611 E18.4374
G1 X65.865 Y98.533 E18.54307
G1 X66.247 Y97.009 E18.62187
G1 X66.957 Y94.935 E18.73189
G1 X67.866 Y92.941 E18.84192
G1 X68.967 Y91.045 E18.95194
G1 X70.248 Y89.266 E19.06196
G1 X71.698 Y87.621 E19.17198
G1 X73.257 Y86.167 E19.27899
G1 E17.27899 F2400
G92 E0
G1 X110.272 Y125.755 F7800
G1 E2 F2400
;TYPE:Perimeter
G1 F1800
G1 X110.987 Y125.207 E2.04521
G1 X111.819 Y124.862 E2.09043
G1 X112.678 Y124.749 E2.13389
G1 X113.594 Y124.857 E2.18015
G1 X114.438 Y125.207 E2.22604
G1 X115.153 Y125.755 E2.27125
G1 X115.701 Y126.47 E2.31646
G1 X116.046 Y127.302 E2.36168
G1 X116.164 Y128.196 E2.40689
G1 X116.046 Y129.089 E2.45211
G1 X115.701 Y129.921 E2.49732
G1 X115.153 Y130.636 E2.54253
G1 X114.438 Y131.184 E2.58775
G1 X113.606 Y131.529 E2.63296
G1 X112.713 Y131.647 E2.67818
G1 X111.819 Y131.529 E2.72339
G1 X110.987 Y131.184 E2.76861
G1 X110.272 Y130.636 E2.81382
G1 X109.724 Y129.921 E2.85903
G1 X109.379 Y129.089 E2.90425
G1 X109.262 Y128.196 E2.94946
G1 X109.379 Y127.302 E2.99467
G1 X109.724 Y126.47 E3.03989
G1 X110.236 Y125.803 E3.08209
G1 X110.518 Y126.001 F7800
G1 F1800
G1 X111.161 Y125.508 E3.12275
G1 X111.909 Y125.198 E3.1634
G1 X112.68 Y125.097 E3.20243
G1 X113.506 Y125.194 E3.24413
G1 X114.264 Y125.508 E3.28534
G1 X114.907 Y126.001 E3.326
G1 X115.4 Y126.644 E3.36665
G1 X115.71 Y127.393 E3.40731
G1 X115.816 Y128.196 E3.44796
G1 X115.71 Y128.999 E3.48862
G1 X115.4 Y129.747 E3.52928
G1 X114.907 Y130.39 E3.56993
G1 X114.264 Y130.883 E3.61059
G1 X113.516 Y131.193 E3.65125
G1 X112.713 Y131.299 E3.6919
G1 X111.909 Y131.193 E3.73256
G1 X111.161 Y130.883 E3.77322
G1 X110.518 Y130.39 E3.81387
G1 X110.025 Y129.747 E3.85453
G1 X109.715 Y128.999 E3.89519
G1 X109.609 Y128.196 E3.93584
G1 X109.715 Y127.393 E3.9765
G1 X110.025 Y126.644 E4.01716
G1 X110.482 Y126.049 E4.0548
G1 X110.764 Y126.247 F7800
G1 F1800
G1 X111.335 Y125.809 E4.0909
G1 X112 Y125.534 E4.127
G1 X112.683 Y125.444 E4.16158
G1 X113.418 Y125.531 E4.19873
G1 X114.09 Y125.809 E4.23526
G1 X114.661 Y126.247 E4.27136
G1 X115.099 Y126.818 E4.30746
G1 X115.374 Y127.483 E4.34356
G1 X115.468 Y128.196 E4.37966
G1 X115.374 Y128.909 E4.41576
G1 X115.099 Y129.573 E4.45186
G1 X114.661 Y130.144 E4.48796
G1 X114.09 Y130.582 E4.52405
G1 X113.426 Y130.857 E4.56015
G1 X112.713 Y130.951 E4.59625
G1 X112 Y130.857 E4.63235
G1 X111.335 Y130.582 E4.66845
G1 X110.764 Y130.144 E4.70455
G1 X110.326 Y129.573 E4.74065
G1 X110.051 Y128.909 E4.77675
G1 X109.957 Y128.196 E4.81285
G1 X110.051 Y127.483 E4.84894
G1 X110.326 Y126.818 E4.88505
G1 X110.728 Y126.295 E4.91813
G1 X111.01 Y126.493 F7800
G1 F1800
G1 X111.509 Y126.111 E4.94967
G1 X112.09 Y125.87 E4.98122
G1 X112.685 Y125.792 E5.01136
G1 X113.33 Y125.868 E5.04395
G1 X113.916 Y126.111 E5.07581
G1 X114.415 Y126.493 E5.10735
G1 X114.798 Y126.992 E5.13889
G1 X115.038 Y127.573 E5.17043
G1 X115.12 Y128.196 E5.20197
G1 X115.038 Y128.819 E5.23351
G1 X114.798 Y129.399 E5.26506
G1 X114.415 Y129.898 E5.2966
G1 X113.916 Y130.281 E5.32814
G1 X113.336 Y130.521 E5.35968
G1 X112.713 Y130.603 E5.39122
G1 X112.09 Y130.521 E5.42276
G1 X111.509 Y130.281 E5.45431
G1 X111.01 Y129.898 E5.48585
G1 X110.628 Y129.399 E5.51739
G1 X110.387 Y128.819 E5.54893
G1 X110.305 Y128.196 E5.58047
G1 X110.387 Y127.573 E5.61201
G1 X110.628 Y126.992 E5.64356
G1 X110.974 Y126.541 E5.67208
G1 X111.256 Y126.739 F7800
G1 F1800
G1 X111.683 Y126.412 E5.69907
G1 X112.18 Y126.206 E5.72605
G1 X112.687 Y126.139 E5.75176
G1 X113.242 Y126.205 E5.7798
G1 X113.743 Y126.412 E5.80697
G1 X114.169 Y126.739 E5.83396
G1 X114.496 Y127.166 E5.86094
G1 X114.702 Y127.663 E5.88792
G1 X114.772 Y128.196 E5.91491
G1 X114.702 Y128.729 E5.94189
G1 X114.496 Y129.225 E5.96888
G1 X114.169 Y129.652 E5.99586
G1 X113.742 Y129.979 E6.02284
G1 X113.246 Y130.185 E6.04983
G1 X112.713 Y130.255 E6.07681
G1 X112.18 Y130.185 E6.1038
G1 X111.683 Y129.979 E6.13078
G1 X111.256 Y129.652 E6.15777
G1 X110.929 Y129.226 E6.18475
G1 X110.723 Y128.729 E6.21173
G1 X110.653 Y128.196 E6.23872
G1 X110.723 Y127.663 E6.2657
G1 X110.929 Y127.166 E6.29269
G1 X111.22 Y126.787 E6.31666
G1 X111.502 Y126.985 F7800
;TYPE:External perimeter
G1 F1800
G1 X111.857 Y126.713 E6.33909
G1 X112.27 Y126.542 E6.36151
G1 X112.69 Y126.487 E6.38278
G1 X113.154 Y126.542 E6.40626
G1 X113.569 Y126.713 E6.42876
G1 X113.923 Y126.985 E6.45119
G1 X114.195 Y127.34 E6.47361
G1 X114.366 Y127.753 E6.49604
G1 X114.424 Y128.196 E6.51846
G1 X114.366 Y128.639 E6.54089
G1 X114.195 Y129.052 E6.56332
G1 X113.923 Y129.406 E6.58575
G1 X113.569 Y129.678 E6.60817
G1 X113.156 Y129.849 E6.6306
G1 X112.713 Y129.907 E6.65303
G1 X112.27 Y129.849 E6.67545
G1 X111.857 Y129.678 E6.69788
G1 X111.502 Y129.406 E6.72031
G1 X111.23 Y129.052 E6.74273
G1 X111.059 Y128.639 E6.76516
G1 X111.001 Y128.196 E6.78759
G1 X111.059 Y127.753 E6.81001
G1 X111.23 Y127.34 E6.83244
G1 X111.466 Y127.033 E6.85185
G1 X111.399 Y126.599 F7800
G1 E4.85185 F2400
G92 E0
G1 X112.678 Y144.749 F7800
G1 E2 F2400
;TYPE:Perimeter
G1 F1800
G1 X113.594 Y144.857 E2.04626
G1 X114.438 Y145.207 E2.09215
G1 X115.153 Y145.755 E2.13736
G1 X115.701 Y146.47 E2.18257
G1 X116.046 Y147.302 E2.22779
G1 X116.164 Y148.196 E2.273
G1 X116.046 Y149.089 E2.31822
G1 X115.701 Y149.921 E2.36343
G1 X115.153 Y150.636 E2.40864
G1 X114.438 Y151.184 E2.45386
G1 X113.606 Y151.529 E2.49907
G1 X112.713 Y151.647 E2.54429
G1 X111.819 Y151.529 E2.5895
G1 X110.987 Y151.184 E2.63472
G1 X110.272 Y150.636 E2.67993
G1 X109.724 Y149.921 E2.72514
G1 X109.379 Y149.089 E2.77035
G1 X109.262 Y148.196 E2.81557
G1 X109.379 Y147.302 E2.86078
G1 X109.724 Y146.47 E2.906
G1 X110.272 Y145.755 E2.95121
G1 X110.987 Y145.207 E2.99642
G1 X111.819 Y144.862 E3.04164
G1 X112.619 Y144.757 E3.08209
G1 X112.68 Y145.097 F7800
G1 F1800
G1 X113.506 Y145.194 E3.1238
G1 X114.264 Y145.508 E3.165
G1 X114.907 Y146.001 E3.20566
G1 X115.4 Y146.644 E3.24631
G1 X115.71 Y147.393 E3.28697
G1 X115.816 Y148.196 E3.32763
G1 X115.71 Y148.999 E3.36828
G1 X115.4 Y149.747 E3.40894
G1 X114.907 Y150.39 E3.4496
G1 X114.264 Y150.883 E3.49025
G1 X113.516 Y151.193 E3.53091
G1 X112.713 Y151.299 E3.57157
G1 X111.909 Y151.193 E3.61222
G1 X111.161 Y150.883 E3.65288
G1 X110.518 Y150.39 E3.69354
G1 X110.025 Y149.747 E3.73419
G1 X109.715 Y148.999 E3.77485
G1 X109.609 Y148.196 E3.81551
G1 X109.715 Y147.393 E3.85616
G1 X110.025 Y146.644 E3.89682
G1 X110.518 Y146.001 E3.93747
G1 X111.161 Y145.508 E3.97813
G1 X111.909 Y145.198 E4.01879
G1 X112.621 Y145.104 E4.0548
G1 X112.683 Y145.444 F7800
G1 F1800
G1 X113.418 Y145.531 E4.09195
G1 X114.09 Y145.809 E4.12848
G1 X114.661 Y146.247 E4.16458
G1 X115.099 Y146.818 E4.20068
G1 X115.374 Y147.483 E4.23678
G1 X115.468 Y148.196 E4.27287
G1 X115.374 Y148.909 E4.30897
G1 X115.099 Y149.573 E4.34507
G1 X114.661 Y150.144 E4.38117
G1 X114.09 Y150.582 E4.41727
G1 X113.426 Y150.857 E4.45337
G1 X112.713 Y150.951 E4.48947
G1 X112 Y150.857 E4.52557
G1 X111.335 Y150.582 E4.56167
G1 X110.764 Y150.144 E4.59777
G1 X110.326 Y149.573 E4.63387
G1 X110.051 Y148.909 E4.66996
G1 X109.957 Y148.196 E4.70606
G1 X110.051 Y147.483 E4.74216
G1 X110.326 Y146.818 E4.77826
G1 X110.764 Y146.247 E4.81436
G1 X111.335 Y145.809 E4.85046
G1 X112 Y145.534 E4.88656
G1 X112.623 Y145.452 E4.91813
G1 X112.685 Y145.792 F7800
G1 F1800
G1 X113.33 Y145.868 E4.95072
G1 X113.916 Y146.111 E4.98258
G1 X114.415 Y146.493 E5.01412
G1 X114.798 Y146.992 E5.04566
G1 X115.038 Y147.573 E5.0772
G1 X115.12 Y148.196 E5.10874
G1 X115.038 Y148.819 E5.14028
G1 X114.798 Y149.399 E5.17182
G1 X114.415 Y149.898 E5.20337
G1 X113.916 Y150.281 E5.23491
G1 X113.336 Y150.521 E5.26645
G1 X112.713 Y150.603 E5.29799
G1 X112.09 Y150.521 E5.32953
G1 X111.509 Y150.281 E5.36108
G1 X111.01 Y149.898 E5.39262
G1 X110.628 Y149.399 E5.42416
G1 X110.387 Y148.819 E5.4557
G1 X110.305 Y148.196 E5.48724
G1 X110.387 Y147.573 E5.51878
G1 X110.628 Y146.992 E5.55033
G1 X111.01 Y146.493 E5.58186
G1 X111.509 Y146.111 E5.61341
G1 X112.09 Y145.87 E5.64495
G1 X112.626 Y145.8 E5.67209
G1 X112.73 Y146.144 F7800
G1 F1800
G1 X113.242 Y146.205 E5.69796
G1 X113.742 Y146.412 E5.72513
G1 X114.169 Y146.739 E5.75212
G1 X114.496 Y147.166 E5.7791
G1 X114.702 Y147.663 E5.80609
G1 X114.772 Y148.196 E5.83307
G1 X114.702 Y148.729 E5.86006
G1 X114.496 Y149.225 E5.88704
G1 X114.169 Y149.652 E5.91402
G1 X113.742 Y149.979 E5.94101
G1 X113.246 Y150.185 E5.96799
G1 X112.713 Y150.255 E5.99498
G1 X112.18 Y150.185 E6.02196
G1 X111.683 Y149.979 E6.04895
G1 X111.256 Y149.652 E6.07593
G1 X110.929 Y149.226 E6.10291
G1 X110.723 Y148.729 E6.1299
G1 X110.653 Y148.196 E6.15688
G1 X110.723 Y147.663 E6.18386
G1 X110.929 Y147.166 E6.21085
G1 X111.256 Y146.739 E6.23783
G1 X111.683 Y146.412 E6.26482
G1 X112.18 Y146.206 E6.2918
G1 X112.671 Y146.142 E6.31666
G1 X112.69 Y146.487 F7800
;TYPE:External perimeter
G1 F1800
G1 X113.154 Y146.542 E6.34013
G1 X113.569 Y146.713 E6.36263
G1 X113.923 Y146.985 E6.38506
G1 X114.195 Y147.34 E6.40749
G1 X114.366 Y147.753 E6.42991
G1 X114.424 Y148.196 E6.45234
G1 X114.366 Y148.639 E6.47477
G1 X114.195 Y149.052 E6.49719
G1 X113.923 Y149.406 E6.51962
G1 X113.569 Y149.678 E6.54205
G1 X113.156 Y149.849 E6.56448
G1 X112.713 Y149.907 E6.5869
G1 X112.27 Y149.849 E6.60933
G1 X111.857 Y149.678 E6.63176
G1 X111.502 Y149.406 E6.65418
G1 X111.23 Y149.052 E6.67661
G1 X111.059 Y148.639 E6.69903
G1 X111.001 Y148.196 E6.72146
G1 X111.059 Y147.753 E6.74389
G1 X111.23 Y147.34 E6.76632
G1 X111.502 Y146.985 E6.78874
G1 X111.857 Y146.713 E6.81117
G1 X112.27 Y146.542 E6.8336
G1 X112.63 Y146.495 E6.85186
G1 X112.886 Y146.138 F7800
G1 E4.85186 F2400
G92 E0
G1 X90.507 Y117.99 F7800
G1 E2 F2400
;TYPE:Perimeter
G1 F1800
G1 X89.688 Y118.617 E2.05176
G1 X88.735 Y119.012 E2.10353
G1 X87.713 Y119.147 E2.15529
G1 X86.69 Y119.012 E2.20706
G1 X85.776 Y118.634 E2.25671
G1 X84.927 Y118 E2.30987
G1 X84.291 Y117.171 E2.36231
G1 X83.896 Y116.218 E2.41407
G1 X83.762 Y115.196 E2.46584
G1 X83.896 Y114.173 E2.5176
G1 X84.291 Y113.22 E2.56936
G1 X84.919 Y112.402 E2.62113
G1 X85.737 Y111.774 E2.67289
G1 X86.69 Y111.379 E2.72466
G1 X87.671 Y111.25 E2.77431
G1 X88.723 Y111.374 E2.82747
G1 X89.688 Y111.774 E2.87991
G1 X90.507 Y112.402 E2.93167
G1 X91.134 Y113.22 E2.98344
G1 X91.529 Y114.173 E3.0352
G1 X91.664 Y115.196 E3.08697
G1 X91.529 Y116.218 E3.13873
G1 X91.134 Y117.171 E3.19049
G1 X90.543 Y117.942 E3.23925
G1 X90.261 Y117.744 F7800
G1 F1800
G1 X89.514 Y118.316 E3.28645
G1 X88.645 Y118.676 E3.33366
G1 X87.713 Y118.799 E3.38087
G1 X86.78 Y118.676 E3.42807
G1 X85.948 Y118.331 E3.47329
G1 X85.171 Y117.752 E3.5219
G1 X84.592 Y116.997 E3.56965
G1 X84.232 Y116.128 E3.61686
G1 X84.109 Y115.196 E3.66407
G1 X84.232 Y114.263 E3.71127
G1 X84.592 Y113.394 E3.75848
G1 X85.165 Y112.648 E3.80569
G1 X85.911 Y112.075 E3.85289
G1 X86.78 Y111.715 E3.9001
G1 X87.673 Y111.598 E3.94531
G1 X88.635 Y111.711 E3.99392
G1 X89.514 Y112.075 E4.04168
G1 X90.261 Y112.648 E4.08888
G1 X90.833 Y113.394 E4.13609
G1 X91.193 Y114.263 E4.1833
G1 X91.316 Y115.196 E4.23051
G1 X91.193 Y116.128 E4.27771
G1 X90.833 Y116.997 E4.32492
G1 X90.297 Y117.696 E4.36912
G1 X90.015 Y117.498 F7800
G1 F1800
G1 X89.34 Y118.015 E4.41177
G1 X88.555 Y118.34 E4.45442
G1 X87.713 Y118.451 E4.49706
G1 X86.87 Y118.34 E4.53971
G1 X86.119 Y118.029 E4.58049
G1 X85.416 Y117.504 E4.62454
G1 X84.893 Y116.823 E4.66762
G1 X84.568 Y116.038 E4.71027
G1 X84.457 Y115.196 E4.75292
G1 X84.568 Y114.353 E4.79557
G1 X84.893 Y113.568 E4.83822
G1 X85.411 Y112.894 E4.88087
G1 X86.085 Y112.376 E4.92352
G1 X86.87 Y112.051 E4.96617
G1 X87.676 Y111.945 E5.00694
G1 X88.547 Y112.048 E5.05099
G1 X89.34 Y112.376 E5.09407
G1 X90.015 Y112.894 E5.13672
G1 X90.532 Y113.568 E5.17937
G1 X90.857 Y114.353 E5.22202
G1 X90.968 Y115.196 E5.26467
G1 X90.857 Y116.038 E5.30732
G1 X90.532 Y116.823 E5.34997
G1 X90.051 Y117.45 E5.3896
G1 X89.769 Y117.252 F7800
G1 F1800
G1 X89.166 Y117.714 E5.4277
G1 X88.465 Y118.004 E5.46579
G1 X87.713 Y118.103 E5.50388
G1 X86.96 Y118.004 E5.54197
G1 X86.291 Y117.727 E5.57831
G1 X85.66 Y117.257 E5.6178
G1 X85.195 Y116.649 E5.6562
G1 X84.904 Y115.948 E5.6943
G1 X84.805 Y115.196 E5.73239
G1 X84.904 Y114.443 E5.77048
G1 X85.195 Y113.742 E5.80857
G1 X85.657 Y113.14 E5.84666
G1 X86.259 Y112.678 E5.88476
G1 X86.96 Y112.387 E5.92285
G1 X87.678 Y112.293 E5.95919
G1 X88.459 Y112.385 E5.99868
G1 X89.166 Y112.678 E6.03708
G1 X89.769 Y113.14 E6.07517
G1 X90.231 Y113.742 E6.11326
G1 X90.521 Y114.443 E6.15136
G1 X90.62 Y115.196 E6.18945
G1 X90.521 Y115.948 E6.22754
G1 X90.231 Y116.649 E6.26563
G1 X89.805 Y117.204 E6.30071
G1 X89.487 Y117.033 F7800
G1 F1800
G1 X88.992 Y117.412 E6.33197
G1 X88.375 Y117.668 E6.36551
G1 X87.713 Y117.755 E6.39904
G1 X87.05 Y117.668 E6.43257
G1 X86.463 Y117.425 E6.46447
G1 X85.905 Y117.009 E6.49941
G1 X85.496 Y116.476 E6.53313
G1 X85.24 Y115.858 E6.56667
G1 X85.153 Y115.196 E6.6002
G1 X85.24 Y114.533 E6.63374
G1 X85.496 Y113.916 E6.66727
G1 X85.903 Y113.386 E6.70081
G1 X86.433 Y112.979 E6.73434
G1 X87.05 Y112.723 E6.76788
G1 X87.68 Y112.64 E6.79977
G1 X88.372 Y112.722 E6.83471
G1 X88.992 Y112.979 E6.86843
G1 X89.523 Y113.386 E6.90197
G1 X89.929 Y113.916 E6.9355
G1 X90.185 Y114.533 E6.96904
G1 X90.272 Y115.196 E7.00257
G1 X90.185 Y115.858 E7.03611
G1 X89.929 Y116.476 E7.06964
G1 X89.532 Y116.994 E7.10244
G1 X89.277 Y116.76 F7800
;TYPE:External perimeter
G1 F1800
G1 X88.819 Y117.111 E7.13142
G1 X88.285 Y117.332 E7.1604
G1 X87.713 Y117.407 E7.18938
G1 X87.14 Y117.332 E7.21835
G1 X86.635 Y117.123 E7.24581
G1 X86.15 Y116.761 E7.27619
G1 X85.797 Y116.302 E7.30524
G1 X85.576 Y115.768 E7.33422
G1 X85.501 Y115.196 E7.36319
G1 X85.576 Y114.623 E7.39217
G1 X85.797 Y114.09 E7.42115
G1 X86.149 Y113.632 E7.45013
G1 X86.607 Y113.28 E7.4791
G1 X87.14 Y113.059 E7.50808
G1 X87.683 Y112.988 E7.53554
G1 X88.284 Y113.059 E7.56592
G1 X88.819 Y113.28 E7.59497
G1 X89.277 Y113.632 E7.62394
G1 X89.628 Y114.09 E7.65292
G1 X89.849 Y114.623 E7.6819
G1 X89.924 Y115.196 E7.71088
G1 X89.849 Y115.768 E7.73985
G1 X89.628 Y116.302 E7.76883
G1 X89.313 Y116.712 E7.7948
G1 X89.38 Y117.146 F7800
G1 E5.7948 F2400
G92 E0
G1 X89.035 Y108.976 F7800
G1 E2 F2400
;TYPE:Perimeter
G1 F1800
G1 X88.872 Y109.025 E2.00853
G1 X87.713 Y109.139 E2.067
G1 X86.553 Y109.025 E2.12547
G1 X85.438 Y108.687 E2.18395
G1 X84.41 Y108.138 E2.24243
G1 X83.51 Y107.399 E2.30091
G1 X82.771 Y106.498 E2.35938
G1 X82.221 Y105.47 E2.41786
G1 X81.883 Y104.355 E2.47633
G1 X81.769 Y103.196 E2.53481
G1 X81.883 Y102.036 E2.59329
G1 X82.221 Y100.921 E2.65176
G1 X82.771 Y99.893 E2.71024
