; generated by PrusaSlicer 2.5.0+MacOS-x64 on 2022-11-20 at 02:41:45 UTC

; 

; external perimeters extrusion width = 0.45mm
; perimeters extrusion width = 0.45mm
; infill extrusion width = 0.45mm
; solid infill extrusion width = 0.45mm
; top infill extrusion width = 0.40mm
; first layer extrusion width = 0.42mm

M107
M190 S60 ; set bed temperature and wait for it to be reached
M104 S220 ; set temperature
;TYPE:Custom
G28 ; home all axes
G29 ; auto-level
G1 Z5 F5000 ; lift nozzle
M109 S220 ; set temperature and wait for it to be reached
G21 ; set units to millimeters
G90 ; use absolute coordinates
M82 ; use absolute distances for extrusion
G92 E0
; Filament gcode
M107
;LAYER_CHANGE
;Z:0.35
;HEIGHT:0.35
G1 Z.35 F7800
G1 E-2 F2400
G92 E0
G1 X83.259 Y31.826 F7800
G1 E2 F2400
;TYPE:Skirt/Brim
;WIDTH:0.42
G1 F1800
G1 X83.695 Y30.686 E2.06125
G1 X85.2 Y28.94 E2.17691
G1 X87.207 Y27.808 E2.29258
G1 X89.439 Y27.425 E2.4062
G1 X119.434 Y27.425 E3.91153
G1 X121.704 Y27.822 E4.0272
G1 X123.705 Y28.966 E4.14287
G1 X125.199 Y30.721 E4.25853
G1 X126.009 Y32.879 E4.3742
G1 X126.124 Y34.115 E4.43649
G1 X126.124 Y123.015 E8.89802
G1 X125.727 Y125.285 E9.01369
G1 X124.583 Y127.286 E9.12935
G1 X122.828 Y128.78 E9.24502
G1 X120.67 Y129.589 E9.36068
G1 X119.434 Y129.705 E9.42298
G1 X72.159 Y129.705 E11.79554
G1 X69.888 Y129.308 E11.91121
G1 X67.887 Y128.164 E12.02687
G1 X66.394 Y126.409 E12.14254
G1 X65.584 Y124.251 E12.25821
G1 X65.592 Y121.738 E12.38429
G1 X82.872 Y32.838 E16.92933
G1 X83.238 Y31.882 E16.98073
G1 X83.559 Y32.006 F7800
G1 F1800
G1 X84.022 Y30.812 E17.04501
G1 X85.51 Y29.133 E17.15763
G1 X87.49 Y28.077 E17.27025
G1 X89.439 Y27.77 E17.36925
G1 X119.434 Y27.77 E18.87458
G1 X121.643 Y28.167 E18.9872
G1 X123.575 Y29.308 E19.09982
G1 X124.99 Y31.05 E19.21244
G1 X125.779 Y34.115 E19.37127
G1 X125.779 Y123.015 E23.8328
G1 X125.382 Y125.224 E23.94542
G1 X124.241 Y127.156 E24.05805
G1 X122.499 Y128.57 E24.17067
G1 X119.434 Y129.36 E24.3295
G1 X72.159 Y129.36 E26.70206
G1 X69.95 Y128.963 E26.81469
G1 X68.017 Y127.822 E26.92731
G1 X66.603 Y126.08 E27.03993
G1 X65.884 Y123.954 E27.15255
G1 X65.93 Y121.804 E27.26047
G1 X83.211 Y32.904 E31.8055
G1 X83.537 Y32.062 E31.85084
G1 E29.85084 F2400
G92 E0
G1 X73.893 Y121.613 F7800
G1 E2 F2400
;TYPE:Perimeter
;WIDTH:0.460089
G1 F1800
G1 X74.007 Y121.684 E2.00752
;WIDTH:0.500178
G1 X74.14 Y121.766 E2.01721
;WIDTH:0.540267
G1 X74.273 Y121.849 E2.02782
;WIDTH:0.580356
G1 X74.406 Y121.932 E2.03934
;WIDTH:0.620445
G1 X74.539 Y122.015 E2.05178
G1 X74.358 Y122.035 E2.06627
;WIDTH:0.580356
G1 X74.176 Y122.055 E2.0797
;WIDTH:0.540267
G1 X73.994 Y122.075 E2.09207
;WIDTH:0.500178
G1 X73.813 Y122.095 E2.10337
;WIDTH:0.460089
G1 X73.631 Y122.115 E2.1136
;WIDTH:0.42
G1 X73.25 Y122.115 E2.13273
G1 X73.323 Y121.741 E2.15187
;WIDTH:0.463006
G1 X73.372 Y121.6 E2.16031
;WIDTH:0.506012
G1 X73.422 Y121.458 E2.16969
;WIDTH:0.549018
G1 X73.471 Y121.317 E2.18001
;WIDTH:0.592024
G1 X73.52 Y121.176 E2.19126
;WIDTH:0.635031
G1 X73.57 Y121.035 E2.20345
G1 X73.63 Y121.148 E2.21393
;WIDTH:0.592024
G1 X73.691 Y121.261 E2.2236
;WIDTH:0.549018
G1 X73.752 Y121.374 E2.23246
;WIDTH:0.506012
G1 X73.813 Y121.488 E2.24052
;WIDTH:0.463006
G1 X73.856 Y121.568 E2.24567
G1 X73.649 Y121.77 F7800
;WIDTH:0.358831
G1 F1800
G1 X73.596 Y121.801 E2.2482
G1 X73.649 Y121.831 E2.25074
G1 X73.667 Y121.801 E2.2522
G1 E.2522 F2400
G92 E0
G1 X117.472 Y122.015 F7800
G1 E2 F2400
;WIDTH:0.620445
G1 F1800
G1 X117.527 Y121.982 E2.00511
;WIDTH:0.577999
G1 X117.583 Y121.949 E2.00983
;WIDTH:0.535553
G1 X117.638 Y121.917 E2.01414
;WIDTH:0.493108
G1 X117.693 Y121.884 E2.01806
;WIDTH:0.450662
G1 X117.749 Y121.851 E2.02158
;WIDTH:0.408216
G1 X117.804 Y121.818 E2.0247
;WIDTH:0.414816
G1 X117.908 Y121.777 E2.0302
;WIDTH:0.463861
G1 X118.011 Y121.736 E2.03648
;WIDTH:0.512907
G1 X118.114 Y121.695 E2.04356
G1 X118.151 Y121.59 E2.05066
;WIDTH:0.478938
G1 X118.187 Y121.484 E2.05721
;WIDTH:0.44497
G1 X118.224 Y121.379 E2.0632
;WIDTH:0.446033
G1 X118.272 Y121.323 E2.06721
;WIDTH:0.481064
G1 X118.32 Y121.266 E2.0716
;WIDTH:0.516095
G1 X118.368 Y121.21 E2.07636
;WIDTH:0.550878
G1 X118.39 Y121.157 E2.0803
;WIDTH:0.585661
G1 X118.412 Y121.105 E2.08452
;WIDTH:0.620445
G1 X118.434 Y121.052 E2.08903
G1 X118.455 Y121.131 E2.09545
;WIDTH:0.578556
G1 X118.476 Y121.209 E2.10137
;WIDTH:0.536667
G1 X118.497 Y121.287 E2.10681
;WIDTH:0.494779
G1 X118.518 Y121.365 E2.11175
;WIDTH:0.45289
G1 X118.539 Y121.443 E2.1162
;WIDTH:0.44497
G1 X118.522 Y121.652 E2.12745
;WIDTH:0.478938
G1 X118.505 Y121.86 E2.13975
;WIDTH:0.512907
G1 X118.488 Y122.069 E2.15307
G1 X118.279 Y122.08 E2.16638
;WIDTH:0.463861
G1 X118.071 Y122.092 E2.17819
;WIDTH:0.414816
G1 X117.862 Y122.104 E2.18851
;WIDTH:0.408216
G1 X117.797 Y122.089 E2.19175
;WIDTH:0.450662
G1 X117.732 Y122.074 E2.1954
;WIDTH:0.493108
G1 X117.667 Y122.059 E2.19946
;WIDTH:0.535553
G1 X117.602 Y122.044 E2.20393
;WIDTH:0.577999
G1 X117.537 Y122.03 E2.20882
;WIDTH:0.620445
G1 X117.53 Y122.028 E2.20936
G1 E.20936 F2400
G92 E0
G1 X118.434 Y36.077 F7800
G1 E2 F2400
G1 F1800
G1 X118.327 Y35.863 E2.01899
;WIDTH:0.584599
G1 X118.221 Y35.649 E2.03672
;WIDTH:0.548753
G1 X118.114 Y35.435 E2.05321
G1 X117.9 Y35.328 E2.0697
;WIDTH:0.584599
G1 X117.686 Y35.221 E2.08744
;WIDTH:0.620445
G1 X117.472 Y35.115 E2.10643
G1 X117.81 Y35.097 E2.13334
;WIDTH:0.584599
G1 X118.149 Y35.079 E2.15849
;WIDTH:0.548753
G1 X118.488 Y35.061 E2.18187
;WIDTH:0.512907
G1 X118.488 Y35.28 E2.19582
;WIDTH:0.548753
G1 X118.47 Y35.546 E2.21418
;WIDTH:0.584599
G1 X118.452 Y35.812 E2.23392
;WIDTH:0.620445
G1 X118.438 Y36.017 E2.2503
G1 E.2503 F2400
G92 E0
G1 X90.112 Y35.894 F7800
G1 E2 F2400
G1 F1800
G1 X90.142 Y35.609 E2.02269
;WIDTH:0.570911
G1 X90.172 Y35.325 E2.04332
;WIDTH:0.521377
G1 X90.202 Y35.041 E2.06189
;WIDTH:0.471844
G1 X90.356 Y35.033 E2.0708
;WIDTH:0.438458
G1 X90.51 Y35.026 E2.07896
;WIDTH:0.405073
G1 X90.665 Y35.019 E2.08637
;WIDTH:0.421439
G1 X90.743 Y35.038 E2.09044
;WIDTH:0.47119
G1 X90.821 Y35.057 E2.09509
;WIDTH:0.520942
G1 X90.9 Y35.076 E2.10033
;WIDTH:0.570693
G1 X90.978 Y35.096 E2.10615
;WIDTH:0.620445
G1 X91.057 Y35.115 E2.11256
G1 X90.99 Y35.154 E2.11867
;WIDTH:0.570693
G1 X90.923 Y35.192 E2.12423
;WIDTH:0.520942
G1 X90.857 Y35.231 E2.12923
;WIDTH:0.47119
G1 X90.79 Y35.27 E2.13367
;WIDTH:0.421439
G1 X90.724 Y35.308 E2.13755
;WIDTH:0.405073
G1 X90.646 Y35.336 E2.1415
;WIDTH:0.438458
G1 X90.569 Y35.364 E2.14584
;WIDTH:0.471844
G1 X90.492 Y35.392 E2.15058
;WIDTH:0.521377
G1 X90.365 Y35.559 E2.1642
;WIDTH:0.570911
G1 X90.239 Y35.726 E2.17933
;WIDTH:0.620445
G1 X90.148 Y35.846 E2.19122
G1 E.19122 F2400
G92 E0
G1 X72.832 Y122.46 F7800
G1 E2 F2400
;WIDTH:0.42
G1 F1800
G1 X89.896 Y34.67 E6.48829
G1 X90.665 Y34.687 E6.52685
G1 X90.889 Y34.67 E6.53816
G1 X118.879 Y34.67 E7.94286
G1 X118.879 Y122.46 E12.34869
G1 X72.892 Y122.46 E14.65661
G1 X72.413 Y122.805 F7800
;TYPE:External perimeter
G1 F1800
G1 X89.612 Y34.325 E19.18016
G1 X119.224 Y34.325 E20.66627
G1 X119.224 Y122.805 E25.10671
G1 X72.473 Y122.805 E27.45294
G1 X72.528 Y122.422 F7800
G1 E25.45294 F2400
G92 E0
G1 X74.159 Y121.39 F7800
G1 E2 F2400
;TYPE:Perimeter
G1 F1800
G1 X74.14 Y121.381 E2.00106
G1 X74.022 Y121.043 E2.01905
G1 X74.031 Y120.954 E2.02356
G1 X90.549 Y35.979 E6.36792
G1 X90.728 Y35.678 E6.38547
G1 X90.967 Y35.568 E6.39871
G1 X91.057 Y35.56 E6.40321
G1 X117.472 Y35.56 E7.72887
G1 X117.837 Y35.711 E7.74874
G1 X117.989 Y36.077 E7.76861
G1 X117.989 Y121.052 E12.03316
G1 X117.925 Y121.249 E12.04356
G1 X117.837 Y121.418 E12.0531
G1 X117.678 Y121.527 E12.06279
G1 X117.472 Y121.57 E12.07336
G1 X74.539 Y121.57 E14.22796
G1 X74.213 Y121.416 E14.24604
G1 X74.406 Y121.162 F7800
;TYPE:External perimeter
G1 F1800
G1 X74.37 Y121.019 E14.25342
G1 X90.887 Y36.044 E18.59779
G1 X90.988 Y35.919 E18.60586
G1 X91.057 Y35.905 E18.60937
G1 X117.472 Y35.905 E19.93503
G1 X117.594 Y35.955 E19.94165
G1 X117.644 Y36.077 E19.94828
G1 X117.644 Y121.052 E24.21282
G1 X117.594 Y121.174 E24.21945
G1 X117.54 Y121.211 E24.22268
G1 X117.472 Y121.225 E24.2262
G1 X74.539 Y121.225 E26.3808
G1 X74.46 Y121.188 E26.38517
G1 X74.261 Y121.186 F7800
G1 E24.38517 F2400
G92 E0
G1 X118.434 Y121.052 F7800
G1 E2 F2400
;TYPE:Perimeter
;WIDTH:0.620445
G1 F1800
G1 X118.434 Y36.077 E8.74305
G1 X117.472 Y35.115 F7800
G1 F1800
G1 X91.057 Y35.115 E10.83916
G1 X90.112 Y35.894 F7800
G1 F1800
G1 X73.594 Y120.869 E17.70842
;WIDTH:0.635031
G1 X73.57 Y121.035 E17.72208
G1 X74.539 Y122.015 F7800
;WIDTH:0.620445
G1 F1800
G1 X117.472 Y122.015 E21.1289
;LAYER_CHANGE
;Z:0.65
;HEIGHT:0.3
G1 Z.65 F7800
M104 S200 ; set temperature
G1 X117.635 Y122.007
;WIDTH:0.472191
G1 F900
G1 X118.14 Y121.721 E21.15845
G1 X118.427 Y121.216 E21.188
G1 X118.449 Y122.03 E21.22945
;WIDTH:0.427003
G1 X118.268 Y122.03 E21.23765
;WIDTH:0.472191
G1 X117.695 Y122.01 E21.26683
G1 E19.26683 F2400
G92 E0
G1 X73.838 Y121.69 F7800
G1 E2 F2400
;WIDTH:0.476227
G1 F900
G1 X74.546 Y122.015 E2.04003
G1 X73.383 Y122.005 E2.09976
G1 X73.571 Y121.029 E2.15083
G1 X73.789 Y121.66 E2.18509
G1 E.18509 F2400
G92 E0
G1 X90.111 Y35.898 F7800
G1 E2 F2400
;WIDTH:0.457527
G1 F900
G1 X90.172 Y35.488 E2.02031
;WIDTH:0.421619
G1 X90.234 Y35.079 E2.03876
;WIDTH:0.385711
G1 X90.366 Y35.079 E2.04406
;WIDTH:0.428951
G1 X90.629 Y35.101 E2.05607
;WIDTH:0.472191
G1 X90.893 Y35.122 E2.06951
G1 X90.68 Y35.243 E2.08192
;WIDTH:0.428951
G1 X90.468 Y35.364 E2.09302
;WIDTH:0.421619
G1 X90.29 Y35.631 E2.10734
;WIDTH:0.457527
G1 X90.144 Y35.848 E2.12016
G1 E.12016 F2400
G92 E0
G1 X118.434 Y36.083 F7800
G1 E2 F2400
;WIDTH:0.457525
G1 F900
G1 X118.14 Y35.409 E2.03604
G1 X117.466 Y35.115 E2.07208
G1 X118.449 Y35.1 E2.12029
;WIDTH:0.427003
G1 X118.449 Y35.281 E2.1285
;WIDTH:0.457525
G1 X118.435 Y36.023 E2.16487
G1 E.16487 F2400
G92 E0
G1 X74.121 Y121.425 F7800
G1 E2 F2400
;WIDTH:0.45
G1 X74.099 Y121.415 E2.00114
G1 X73.967 Y121.036 E2.02042
G1 X73.978 Y120.937 E2.02524
G1 X90.493 Y35.972 E6.18822
G1 X90.693 Y35.636 E6.20702
G1 X90.961 Y35.513 E6.22121
G1 X91.061 Y35.504 E6.22604
G1 X117.466 Y35.504 E7.49603
G1 X117.875 Y35.674 E7.51732
G1 X118.045 Y36.083 E7.53862
G1 X118.036 Y121.147 E11.62991
G1 X117.875 Y121.456 E11.64667
G1 X117.566 Y121.617 E11.66342
G1 X117.466 Y121.625 E11.66825
G1 X74.546 Y121.625 E13.73258
G1 X74.175 Y121.451 E13.75229
G1 X74.397 Y121.17 F7800
;TYPE:External perimeter
G1 F1200
G1 X74.356 Y121.01 E13.7602
G1 X90.872 Y36.046 E17.92318
G1 X90.938 Y35.934 E17.92945
G1 X91.061 Y35.89 E17.93571
G1 X117.466 Y35.89 E19.20571
G1 X117.603 Y35.946 E19.21281
G1 X117.659 Y36.083 E19.2199
G1 X117.659 Y121.047 E23.3064
G1 X117.603 Y121.183 E23.31349
G1 X117.466 Y121.24 E23.32059
G1 X74.546 Y121.24 E25.38492
G1 X74.451 Y121.195 E25.38994
G1 X74.235 Y121.197 F7800
G1 E23.38994 F2400
G92 E0
G1 X90.111 Y35.898 F7800
G1 E2 F2400
;TYPE:Perimeter
;WIDTH:0.457527
G1 X73.596 Y120.862 E6.24424
;WIDTH:0.472191
G1 X73.571 Y121.029 E6.25281
G1 E4.25281
G92 E0
G1 X117.466 Y35.115 F7800
G1 E2 F2400
;WIDTH:0.457525
G1 X91.061 Y35.115 E3.29478
;WIDTH:0.472191
G1 X90.893 Y35.122 E3.30336
G1 E1.30336
G92 E0
G1 X118.427 Y121.216 F7800
G1 E2 F2400
G1 X118.434 Y121.047 E2.00858
;WIDTH:0.457525
G1 X118.434 Y36.083 E6.17481
G1 E4.17481
G92 E0
G1 X74.546 Y122.015 F7800
G1 E2 F2400
G1 X117.466 Y122.015 E4.10461
;WIDTH:0.472191
G1 X117.635 Y122.007 E4.11319
G1 E2.11319
G92 E0
G1 X72.899 Y122.404 F7800
G1 E2 F2400
;WIDTH:0.45
G1 X89.942 Y34.725 E6.29597
G1 X118.823 Y34.725 E7.68505
G1 X118.823 Y122.404 E11.9021
G1 X72.959 Y122.404 E14.108
G1 X72.431 Y122.79 F7800
;TYPE:External perimeter
G1 F1200
G1 X89.624 Y34.34 E18.44176
G1 X119.209 Y34.34 E19.86468
G1 X119.209 Y122.79 E24.11882
G1 X72.491 Y122.79 E26.36577
G1 X72.546 Y122.407 F7800
;LAYER_CHANGE
;Z:0.95
;HEIGHT:0.3
G1 Z.95 F7800
G1 E24.36577 F2400
G92 E0
G1 X117.635 Y122.007 F7800
G1 E2 F2400
;TYPE:Perimeter
;WIDTH:0.472191
G1 F900
G1 X118.14 Y121.721 E2.02955
G1 X118.427 Y121.216 E2.05909
G1 X118.449 Y122.03 E2.10054
;WIDTH:0.427003
G1 X118.268 Y122.03 E2.10874
;WIDTH:0.472191
G1 X117.695 Y122.01 E2.13792
G1 E.13792 F2400
G92 E0
G1 X73.838 Y121.69 F7800
G1 E2 F2400
;WIDTH:0.476227
G1 F900
G1 X74.546 Y122.015 E2.04003
G1 X73.383 Y122.005 E2.09976
G1 X73.571 Y121.029 E2.15083
G1 X73.789 Y121.66 E2.18509
G1 E.18509 F2400
G92 E0
G1 X90.111 Y35.898 F7800
G1 E2 F2400
;WIDTH:0.457527
G1 F900
G1 X90.172 Y35.488 E2.02031
;WIDTH:0.421619
G1 X90.234 Y35.079 E2.03876
;WIDTH:0.385711
G1 X90.366 Y35.079 E2.04406
;WIDTH:0.428951
G1 X90.629 Y35.101 E2.05607
;WIDTH:0.472191
G1 X90.893 Y35.122 E2.06951
G1 X90.68 Y35.243 E2.08192
;WIDTH:0.428951
G1 X90.468 Y35.364 E2.09302
;WIDTH:0.421619
G1 X90.29 Y35.631 E2.10734
;WIDTH:0.457527
G1 X90.144 Y35.848 E2.12016
G1 E.12016 F2400
G92 E0
G1 X118.434 Y36.083 F7800
G1 E2 F2400
;WIDTH:0.457525
G1 F900
G1 X118.14 Y35.409 E2.03604
G1 X117.466 Y35.115 E2.07208
G1 X118.449 Y35.1 E2.12029
;WIDTH:0.427003
G1 X118.449 Y35.281 E2.1285
;WIDTH:0.457525
G1 X118.435 Y36.023 E2.16487
G1 E.16487 F2400
G92 E0
G1 X74.121 Y121.425 F7800
G1 E2 F2400
;WIDTH:0.45
G1 X74.099 Y121.415 E2.00114
G1 X73.967 Y121.036 E2.02042
G1 X73.978 Y120.937 E2.02524
G1 X90.493 Y35.972 E6.18822
G1 X90.693 Y35.636 E6.20702
G1 X90.961 Y35.513 E6.22121
G1 X91.061 Y35.504 E6.22604
G1 X117.466 Y35.504 E7.49603
G1 X117.875 Y35.674 E7.51732
G1 X118.045 Y36.083 E7.53862
G1 X118.036 Y121.147 E11.62991
G1 X117.875 Y121.456 E11.64667
G1 X117.566 Y121.617 E11.66342
G1 X117.466 Y121.625 E11.66825
G1 X74.546 Y121.625 E13.73258
G1 X74.175 Y121.451 E13.75229
G1 X74.397 Y121.17 F7800
;TYPE:External perimeter
G1 F1200
G1 X74.356 Y121.01 E13.7602
G1 X90.872 Y36.046 E17.92318
G1 X90.938 Y35.934 E17.92945
G1 X91.061 Y35.89 E17.93571
G1 X117.466 Y35.89 E19.20571
G1 X117.603 Y35.946 E19.21281
G1 X117.659 Y36.083 E19.2199
G1 X117.659 Y121.047 E23.3064
G1 X117.603 Y121.183 E23.31349
G1 X117.466 Y121.24 E23.32059
G1 X74.546 Y121.24 E25.38492
G1 X74.451 Y121.195 E25.38994
G1 X74.235 Y121.197 F7800
G1 E23.38994 F2400
G92 E0
G1 X90.111 Y35.898 F7800
G1 E2 F2400
;TYPE:Perimeter
;WIDTH:0.457527
G1 X73.596 Y120.862 E6.24424
;WIDTH:0.472191
G1 X73.571 Y121.029 E6.25281
G1 E4.25281
G92 E0
G1 X117.466 Y35.115 F7800
G1 E2 F2400
;WIDTH:0.457525
G1 X91.061 Y35.115 E3.29478
;WIDTH:0.472191
G1 X90.893 Y35.122 E3.30336
G1 E1.30336
G92 E0
G1 X118.427 Y121.216 F7800
G1 E2 F2400
G1 X118.434 Y121.047 E2.00858
;WIDTH:0.457525
G1 X118.434 Y36.083 E6.17481
G1 E4.17481
G92 E0
G1 X74.546 Y122.015 F7800
G1 E2 F2400
G1 X117.466 Y122.015 E4.10461
;WIDTH:0.472191
G1 X117.635 Y122.007 E4.11319
G1 E2.11319
G92 E0
G1 X72.899 Y122.404 F7800
G1 E2 F2400
;WIDTH:0.45
G1 X89.942 Y34.725 E6.29597
G1 X118.823 Y34.725 E7.68505
G1 X118.823 Y122.404 E11.9021
G1 X72.959 Y122.404 E14.108
G1 X72.431 Y122.79 F7800
;TYPE:External perimeter
G1 F1200
G1 X89.624 Y34.34 E18.44176
G1 X119.209 Y34.34 E19.86468
G1 X119.209 Y122.79 E24.11882
G1 X72.491 Y122.79 E26.36577
G1 X72.546 Y122.407 F7800
M106 S117.3
;LAYER_CHANGE
;Z:1.25
;HEIGHT:0.3
G1 Z1.25 F7800
G1 E24.36577 F2400
G92 E0
G1 X117.635 Y122.007 F7800
G1 E2 F2400
;TYPE:Perimeter
;WIDTH:0.472191
G1 F900
G1 X118.14 Y121.721 E2.02955
G1 X118.427 Y121.216 E2.05909
G1 X118.449 Y122.03 E2.10054
;WIDTH:0.427003
G1 X118.268 Y122.03 E2.10874
;WIDTH:0.472191
G1 X117.695 Y122.01 E2.13792
G1 E.13792 F2400
G92 E0
G1 X73.838 Y121.69 F7800
G1 E2 F2400
;WIDTH:0.476227
G1 F900
G1 X74.546 Y122.015 E2.04003
G1 X73.383 Y122.005 E2.09976
G1 X73.571 Y121.029 E2.15083
G1 X73.789 Y121.66 E2.18509
G1 E.18509 F2400
G92 E0
G1 X90.111 Y35.898 F7800
G1 E2 F2400
;WIDTH:0.457527
G1 F900
G1 X90.172 Y35.488 E2.02031
;WIDTH:0.421619
G1 X90.234 Y35.079 E2.03876
;WIDTH:0.385711
G1 X90.366 Y35.079 E2.04406
;WIDTH:0.428951
G1 X90.629 Y35.101 E2.05607
;WIDTH:0.472191
G1 X90.893 Y35.122 E2.06951
G1 X90.68 Y35.243 E2.08192
;WIDTH:0.428951
G1 X90.468 Y35.364 E2.09302
;WIDTH:0.421619
G1 X90.29 Y35.631 E2.10734
;WIDTH:0.457527
G1 X90.144 Y35.848 E2.12016
G1 E.12016 F2400
G92 E0
G1 X118.434 Y36.083 F7800
G1 E2 F2400
;WIDTH:0.457525
G1 F900
G1 X118.14 Y35.409 E2.03604
G1 X117.466 Y35.115 E2.07208
G1 X118.449 Y35.1 E2.12029
;WIDTH:0.427003
