; generated by PrusaSlicer 2.5.0+MacOS-x64 on 2022-11-20 at 14:45:47 UTC

; 

; external perimeters extrusion width = 0.45mm
; perimeters extrusion width = 0.45mm
; infill extrusion width = 0.45mm
; solid infill extrusion width = 0.45mm
; top infill extrusion width = 0.40mm
; first layer extrusion width = 0.42mm

M107
M190 S60 ; set bed temperature and wait for it to be reached
M104 S220 ; set temperature
;TYPE:Custom
G28 ; home all axes
G29 ; auto-level
G1 Z5 F5000 ; lift nozzle
M109 S220 ; set temperature and wait for it to be reached
G21 ; set units to millimeters
G90 ; use absolute coordinates
M82 ; use absolute distances for extrusion
G92 E0
; Filament gcode
M107
;LAYER_CHANGE
;Z:0.35
;HEIGHT:0.35
G1 Z.35 F7800
G1 E-2 F2400
G92 E0
G1 X75.39 Y37.452 F7800
G1 E2 F2400
;TYPE:Skirt/Brim
;WIDTH:0.42
G1 F1800
G1 X76.879 Y35.772 E2.11262
G1 X78.859 Y34.716 E2.22524
G1 X80.807 Y34.41 E2.32423
G1 X110.802 Y34.41 E3.82956
G1 X113.011 Y34.807 E3.94219
G1 X114.944 Y35.947 E4.05481
G1 X116.358 Y37.69 E4.16743
G1 X117.147 Y40.755 E4.32626
G1 X117.147 Y129.655 E8.78779
G1 X116.75 Y131.863 E8.90041
G1 X115.61 Y133.796 E9.01303
G1 X113.867 Y135.21 E9.12566
G1 X110.802 Y136 E9.28449
G1 X63.527 Y136 E11.65705
G1 X61.318 Y135.603 E11.76967
G1 X59.386 Y134.462 E11.8823
G1 X57.971 Y132.72 E11.99492
G1 X57.252 Y130.594 E12.10754
G1 X57.299 Y128.444 E12.21546
G1 X74.579 Y39.544 E16.76049
G1 X75.368 Y37.507 E16.8701
G1 E14.8701 F2400
G92 E0
G1 X65.261 Y128.253 F7800
G1 E2 F2400
;TYPE:Perimeter
;WIDTH:0.460089
G1 F1800
G1 X65.375 Y128.323 E2.00752
;WIDTH:0.500178
G1 X65.508 Y128.406 E2.01721
;WIDTH:0.540267
G1 X65.641 Y128.489 E2.02782
;WIDTH:0.580356
G1 X65.774 Y128.572 E2.03934
;WIDTH:0.620445
G1 X65.908 Y128.655 E2.05178
G1 X65.726 Y128.675 E2.06627
;WIDTH:0.580356
G1 X65.544 Y128.695 E2.0797
;WIDTH:0.540267
G1 X65.363 Y128.715 E2.09207
;WIDTH:0.500178
G1 X65.181 Y128.735 E2.10337
;WIDTH:0.460089
G1 X65 Y128.755 E2.1136
;WIDTH:0.42
G1 X64.618 Y128.755 E2.13273
G1 X64.691 Y128.381 E2.15187
;WIDTH:0.463006
G1 X64.741 Y128.239 E2.16031
;WIDTH:0.506012
G1 X64.79 Y128.098 E2.16969
;WIDTH:0.549018
G1 X64.839 Y127.957 E2.18001
;WIDTH:0.592024
G1 X64.889 Y127.816 E2.19126
;WIDTH:0.635031
G1 X64.938 Y127.674 E2.20345
G1 X64.999 Y127.788 E2.21393
;WIDTH:0.592024
G1 X65.06 Y127.901 E2.2236
;WIDTH:0.549018
G1 X65.121 Y128.014 E2.23246
;WIDTH:0.506012
G1 X65.181 Y128.127 E2.24052
;WIDTH:0.463006
G1 X65.224 Y128.208 E2.24567
G1 X65.017 Y128.41 F7800
;WIDTH:0.358831
G1 F1800
G1 X64.964 Y128.441 E2.2482
G1 X65.017 Y128.471 E2.25074
G1 X65.035 Y128.441 E2.2522
G1 E.2522 F2400
G92 E0
G1 X108.84 Y128.655 F7800
G1 E2 F2400
;WIDTH:0.620445
G1 F1800
G1 X108.895 Y128.622 E2.00511
;WIDTH:0.577999
G1 X108.951 Y128.589 E2.00983
;WIDTH:0.535553
G1 X109.006 Y128.556 E2.01414
;WIDTH:0.493108
G1 X109.062 Y128.524 E2.01806
;WIDTH:0.450662
G1 X109.117 Y128.491 E2.02158
;WIDTH:0.408216
G1 X109.173 Y128.458 E2.0247
;WIDTH:0.414816
G1 X109.276 Y128.417 E2.0302
;WIDTH:0.463861
G1 X109.379 Y128.376 E2.03648
;WIDTH:0.512907
G1 X109.482 Y128.335 E2.04356
G1 X109.519 Y128.229 E2.05066
;WIDTH:0.478938
G1 X109.555 Y128.124 E2.05721
;WIDTH:0.44497
G1 X109.592 Y128.019 E2.0632
;WIDTH:0.446033
G1 X109.64 Y127.962 E2.06721
;WIDTH:0.481064
G1 X109.688 Y127.906 E2.0716
;WIDTH:0.516095
G1 X109.737 Y127.849 E2.07636
;WIDTH:0.550878
G1 X109.758 Y127.797 E2.0803
;WIDTH:0.585661
G1 X109.78 Y127.745 E2.08452
;WIDTH:0.620445
G1 X109.802 Y127.692 E2.08903
G1 X109.823 Y127.77 E2.09545
;WIDTH:0.578556
G1 X109.844 Y127.848 E2.10137
;WIDTH:0.536667
G1 X109.865 Y127.927 E2.10681
;WIDTH:0.494779
G1 X109.886 Y128.005 E2.11175
;WIDTH:0.45289
G1 X109.907 Y128.083 E2.1162
;WIDTH:0.44497
G1 X109.89 Y128.291 E2.12745
;WIDTH:0.478938
G1 X109.873 Y128.5 E2.13975
;WIDTH:0.512907
G1 X109.856 Y128.708 E2.15307
G1 X109.648 Y128.72 E2.16638
;WIDTH:0.463861
G1 X109.439 Y128.732 E2.17819
;WIDTH:0.414816
G1 X109.231 Y128.743 E2.18851
;WIDTH:0.408216
G1 X109.166 Y128.729 E2.19175
;WIDTH:0.450662
G1 X109.1 Y128.714 E2.1954
;WIDTH:0.493108
G1 X109.035 Y128.699 E2.19946
;WIDTH:0.535553
G1 X108.97 Y128.684 E2.20393
;WIDTH:0.577999
G1 X108.905 Y128.669 E2.20882
;WIDTH:0.620445
G1 X108.898 Y128.668 E2.20936
G1 E.20936 F2400
G92 E0
G1 X109.802 Y42.717 F7800
G1 E2 F2400
G1 F1800
G1 X109.696 Y42.503 E2.01899
;WIDTH:0.584599
G1 X109.589 Y42.289 E2.03672
;WIDTH:0.548753
G1 X109.482 Y42.075 E2.05321
G1 X109.268 Y41.968 E2.0697
;WIDTH:0.584599
G1 X109.054 Y41.861 E2.08744
;WIDTH:0.620445
G1 X108.84 Y41.755 E2.10643
G1 X109.179 Y41.737 E2.13334
;WIDTH:0.584599
G1 X109.517 Y41.719 E2.15849
;WIDTH:0.548753
G1 X109.856 Y41.701 E2.18187
;WIDTH:0.512907
G1 X109.856 Y41.92 E2.19582
;WIDTH:0.548753
G1 X109.838 Y42.186 E2.21418
;WIDTH:0.584599
G1 X109.82 Y42.451 E2.23392
;WIDTH:0.620445
G1 X109.806 Y42.657 E2.2503
G1 E.2503 F2400
G92 E0
G1 X81.48 Y42.533 F7800
G1 E2 F2400
G1 F1800
G1 X81.51 Y42.249 E2.02269
;WIDTH:0.570911
G1 X81.54 Y41.965 E2.04332
;WIDTH:0.521377
G1 X81.57 Y41.68 E2.06189
;WIDTH:0.471844
G1 X81.725 Y41.673 E2.0708
;WIDTH:0.438458
G1 X81.879 Y41.666 E2.07896
;WIDTH:0.405073
G1 X82.033 Y41.659 E2.08637
;WIDTH:0.421439
G1 X82.111 Y41.678 E2.09044
;WIDTH:0.47119
G1 X82.19 Y41.697 E2.09509
;WIDTH:0.520942
G1 X82.268 Y41.716 E2.10033
;WIDTH:0.570693
G1 X82.347 Y41.735 E2.10615
;WIDTH:0.620445
G1 X82.425 Y41.755 E2.11256
G1 X82.358 Y41.793 E2.11867
;WIDTH:0.570693
G1 X82.292 Y41.832 E2.12423
;WIDTH:0.520942
G1 X82.225 Y41.871 E2.12923
;WIDTH:0.47119
G1 X82.158 Y41.909 E2.13367
;WIDTH:0.421439
G1 X82.092 Y41.948 E2.13755
;WIDTH:0.405073
G1 X82.015 Y41.976 E2.1415
;WIDTH:0.438458
G1 X81.937 Y42.004 E2.14584
;WIDTH:0.471844
G1 X81.86 Y42.032 E2.15058
;WIDTH:0.521377
G1 X81.733 Y42.199 E2.1642
;WIDTH:0.570911
G1 X81.607 Y42.366 E2.17933
;WIDTH:0.620445
G1 X81.516 Y42.486 E2.19122
G1 E.19122 F2400
G92 E0
G1 X65.527 Y128.03 F7800
G1 E2 F2400
;WIDTH:0.42
G1 F1800
G1 X65.508 Y128.021 E2.00106
G1 X65.39 Y127.683 E2.01905
G1 X65.4 Y127.593 E2.02356
G1 X81.917 Y42.618 E6.36792
G1 X82.096 Y42.318 E6.38547
G1 X82.336 Y42.208 E6.39871
G1 X82.425 Y42.2 E6.40321
G1 X108.84 Y42.2 E7.72887
G1 X109.206 Y42.351 E7.74874
G1 X109.357 Y42.717 E7.76861
G1 X109.357 Y127.692 E12.03316
G1 X109.293 Y127.889 E12.04356
G1 X109.206 Y128.058 E12.0531
G1 X109.046 Y128.167 E12.06279
G1 X108.84 Y128.21 E12.07336
G1 X65.908 Y128.21 E14.22796
G1 X65.582 Y128.056 E14.24604
G1 X65.774 Y127.802 F7800
;TYPE:External perimeter
G1 F1800
G1 X65.738 Y127.659 E14.25342
G1 X82.256 Y42.684 E18.59779
G1 X82.356 Y42.559 E18.60586
G1 X82.425 Y42.545 E18.60937
G1 X108.84 Y42.545 E19.93503
G1 X108.962 Y42.595 E19.94165
G1 X109.012 Y42.717 E19.94828
G1 X109.012 Y127.692 E24.21282
G1 X108.962 Y127.814 E24.21945
G1 X108.909 Y127.85 E24.22268
G1 X108.84 Y127.865 E24.2262
G1 X65.908 Y127.865 E26.3808
G1 X65.829 Y127.827 E26.38517
G1 X65.629 Y127.826 F7800
G1 E24.38517 F2400
G92 E0
G1 X109.802 Y127.692 F7800
G1 E2 F2400
;TYPE:Perimeter
;WIDTH:0.620445
G1 F1800
G1 X109.802 Y42.717 E8.74305
G1 E6.74305 F2400
G92 E0
G1 X81.48 Y42.533 F7800
G1 E2 F2400
G1 F1800
G1 X64.963 Y127.509 E8.86926
;WIDTH:0.635031
G1 X64.938 Y127.674 E8.88292
G1 X64.2 Y129.1 F7800
;WIDTH:0.42
G1 F1800
G1 X81.265 Y41.31 E13.37121
G1 X110.247 Y41.31 E14.82574
G1 X110.247 Y129.1 E19.23157
G1 X109.231 Y129.076 E19.28261
G1 X109.007 Y129.1 E19.29387
G1 X64.26 Y129.1 E21.53956
G1 X63.782 Y129.445 F7800
;TYPE:External perimeter
G1 F1800
G1 X80.98 Y40.965 E26.06312
G1 X110.592 Y40.965 E27.54922
G1 X110.592 Y129.445 E31.98967
G1 X63.842 Y129.445 E34.33589
G1 X63.896 Y129.061 F7800
G1 E32.33589 F2400
G92 E0
G1 X65.908 Y128.655 F7800
G1 E2 F2400
;TYPE:Perimeter
;WIDTH:0.620445
G1 F1800
G1 X108.84 Y128.655 E5.40682
G1 E3.40682 F2400
G92 E0
G1 X108.84 Y41.755 F7800
G1 E2 F2400
G1 F1800
G1 X82.425 Y41.755 E4.09611
;LAYER_CHANGE
;Z:0.65
;HEIGHT:0.3
G1 Z.65 F7800
M104 S200 ; set temperature
G1 E2.09611 F2400
G92 E0
G1 X109.003 Y128.647 F7800
G1 E2 F2400
;WIDTH:0.472191
G1 F900
G1 X109.508 Y128.36 E2.02955
G1 X109.795 Y127.855 E2.05909
G1 X109.818 Y128.67 E2.10054
;WIDTH:0.427003
G1 X109.636 Y128.67 E2.10874
;WIDTH:0.472191
G1 X109.063 Y128.649 E2.13792
G1 E.13792 F2400
G92 E0
G1 X65.206 Y128.329 F7800
G1 E2 F2400
;WIDTH:0.476227
G1 F900
G1 X65.914 Y128.655 E2.04003
G1 X64.751 Y128.645 E2.09976
G1 X64.939 Y127.669 E2.15083
G1 X65.157 Y128.299 E2.18509
G1 E.18509 F2400
G92 E0
G1 X81.479 Y42.538 F7800
G1 E2 F2400
;WIDTH:0.457527
G1 F900
G1 X81.541 Y42.128 E2.02031
;WIDTH:0.421619
G1 X81.602 Y41.719 E2.03876
;WIDTH:0.385711
G1 X81.734 Y41.719 E2.04406
;WIDTH:0.428951
G1 X81.998 Y41.74 E2.05607
;WIDTH:0.472191
G1 X82.261 Y41.762 E2.06951
G1 X82.049 Y41.883 E2.08192
;WIDTH:0.428951
G1 X81.837 Y42.003 E2.09302
;WIDTH:0.421619
G1 X81.658 Y42.271 E2.10734
;WIDTH:0.457527
G1 X81.513 Y42.488 E2.12016
G1 E.12016 F2400
G92 E0
G1 X109.802 Y42.722 F7800
G1 E2 F2400
;WIDTH:0.457525
G1 F900
G1 X109.508 Y42.049 E2.03604
G1 X108.835 Y41.755 E2.07208
G1 X109.818 Y41.739 E2.12029
;WIDTH:0.427003
G1 X109.818 Y41.921 E2.1285
;WIDTH:0.457525
G1 X109.804 Y42.662 E2.16487
G1 E.16487 F2400
G92 E0
G1 X65.489 Y128.065 F7800
G1 E2 F2400
;WIDTH:0.45
G1 X65.468 Y128.055 E2.00114
G1 X65.336 Y127.676 E2.02042
G1 X65.346 Y127.576 E2.02524
G1 X81.862 Y42.612 E6.18822
G1 X82.062 Y42.276 E6.20702
G1 X82.33 Y42.153 E6.22121
G1 X82.429 Y42.144 E6.22604
G1 X108.835 Y42.144 E7.49603
G1 X109.244 Y42.313 E7.51732
G1 X109.413 Y42.722 E7.53862
G1 X109.404 Y127.787 E11.62991
G1 X109.244 Y128.096 E11.64667
G1 X108.935 Y128.257 E11.66342
G1 X108.835 Y128.265 E11.66825
G1 X65.914 Y128.265 E13.73258
G1 X65.543 Y128.09 E13.75229
G1 X65.765 Y127.809 F7800
;TYPE:External perimeter
G1 F1200
G1 X65.725 Y127.65 E13.7602
G1 X82.24 Y42.686 E17.92318
G1 X82.307 Y42.574 E17.92945
G1 X82.429 Y42.53 E17.93571
G1 X108.835 Y42.53 E19.20571
G1 X108.971 Y42.586 E19.21281
G1 X109.027 Y42.722 E19.2199
G1 X109.027 Y127.687 E23.3064
G1 X108.971 Y127.823 E23.31349
G1 X108.835 Y127.88 E23.32059
G1 X65.914 Y127.88 E25.38492
G1 X65.82 Y127.835 E25.38994
G1 X65.603 Y127.837 F7800
G1 E23.38994 F2400
G92 E0
G1 X81.479 Y42.538 F7800
G1 E2 F2400
;TYPE:Perimeter
;WIDTH:0.457527
G1 X64.964 Y127.502 E6.24424
;WIDTH:0.472191
G1 X64.939 Y127.669 E6.25281
G1 E4.25281
G92 E0
G1 X108.835 Y41.755 F7800
G1 E2 F2400
;WIDTH:0.457525
G1 X82.429 Y41.755 E3.29478
;WIDTH:0.472191
G1 X82.261 Y41.762 E3.30336
G1 E1.30336
G92 E0
G1 X109.795 Y127.855 F7800
G1 E2 F2400
G1 X109.802 Y127.687 E2.00858
;WIDTH:0.457525
G1 X109.802 Y42.722 E6.17481
G1 E4.17481
G92 E0
G1 X65.914 Y128.655 F7800
G1 E2 F2400
G1 X108.835 Y128.655 E4.10461
;WIDTH:0.472191
G1 X109.003 Y128.647 E4.11319
G1 E2.11319
G92 E0
G1 X64.268 Y129.044 F7800
G1 E2 F2400
;WIDTH:0.45
G1 X81.311 Y41.365 E6.29597
G1 X110.192 Y41.365 E7.68505
G1 X110.192 Y129.044 E11.9021
G1 X64.328 Y129.044 E14.108
G1 X63.8 Y129.43 F7800
;TYPE:External perimeter
G1 F1200
G1 X80.993 Y40.98 E18.44176
G1 X110.577 Y40.98 E19.86468
G1 X110.577 Y129.43 E24.11882
G1 X63.86 Y129.43 E26.36577
G1 X63.914 Y129.046 F7800
;LAYER_CHANGE
;Z:0.95
;HEIGHT:0.3
G1 Z.95 F7800
G1 E24.36577 F2400
G92 E0
G1 X109.003 Y128.647 F7800
G1 E2 F2400
;TYPE:Perimeter
;WIDTH:0.472191
G1 F900
G1 X109.508 Y128.36 E2.02955
G1 X109.795 Y127.855 E2.05909
G1 X109.818 Y128.67 E2.10054
;WIDTH:0.427003
G1 X109.636 Y128.67 E2.10874
;WIDTH:0.472191
G1 X109.063 Y128.649 E2.13792
G1 E.13792 F2400
G92 E0
G1 X65.206 Y128.329 F7800
G1 E2 F2400
;WIDTH:0.476227
G1 F900
G1 X65.914 Y128.655 E2.04003
G1 X64.751 Y128.645 E2.09976
G1 X64.939 Y127.669 E2.15083
G1 X65.157 Y128.299 E2.18509
G1 E.18509 F2400
G92 E0
G1 X81.479 Y42.538 F7800
G1 E2 F2400
;WIDTH:0.457527
G1 F900
G1 X81.541 Y42.128 E2.02031
;WIDTH:0.421619
G1 X81.602 Y41.719 E2.03876
;WIDTH:0.385711
G1 X81.734 Y41.719 E2.04406
;WIDTH:0.428951
G1 X81.998 Y41.74 E2.05607
;WIDTH:0.472191
G1 X82.261 Y41.762 E2.06951
G1 X82.049 Y41.883 E2.08192
;WIDTH:0.428951
G1 X81.837 Y42.003 E2.09302
;WIDTH:0.421619
G1 X81.658 Y42.271 E2.10734
;WIDTH:0.457527
G1 X81.513 Y42.488 E2.12016
G1 E.12016 F2400
G92 E0
G1 X109.802 Y42.722 F7800
G1 E2 F2400
;WIDTH:0.457525
G1 F900
G1 X109.508 Y42.049 E2.03604
G1 X108.835 Y41.755 E2.07208
G1 X109.818 Y41.739 E2.12029
;WIDTH:0.427003
G1 X109.818 Y41.921 E2.1285
;WIDTH:0.457525
G1 X109.804 Y42.662 E2.16487
G1 E.16487 F2400
G92 E0
G1 X65.489 Y128.065 F7800
G1 E2 F2400
;WIDTH:0.45
G1 X65.468 Y128.055 E2.00114
G1 X65.336 Y127.676 E2.02042
G1 X65.346 Y127.576 E2.02524
G1 X81.862 Y42.612 E6.18822
G1 X82.062 Y42.276 E6.20702
G1 X82.33 Y42.153 E6.22121
G1 X82.429 Y42.144 E6.22604
G1 X108.835 Y42.144 E7.49603
G1 X109.244 Y42.313 E7.51732
G1 X109.413 Y42.722 E7.53862
G1 X109.404 Y127.787 E11.62991
G1 X109.244 Y128.096 E11.64667
G1 X108.935 Y128.257 E11.66342
G1 X108.835 Y128.265 E11.66825
G1 X65.914 Y128.265 E13.73258
G1 X65.543 Y128.09 E13.75229
G1 X65.765 Y127.809 F7800
;TYPE:External perimeter
G1 F1200
G1 X65.725 Y127.65 E13.7602
G1 X82.24 Y42.686 E17.92318
G1 X82.307 Y42.574 E17.92945
G1 X82.429 Y42.53 E17.93571
G1 X108.835 Y42.53 E19.20571
G1 X108.971 Y42.586 E19.21281
G1 X109.027 Y42.722 E19.2199
G1 X109.027 Y127.687 E23.3064
G1 X108.971 Y127.823 E23.31349
G1 X108.835 Y127.88 E23.32059
G1 X65.914 Y127.88 E25.38492
G1 X65.82 Y127.835 E25.38994
G1 X65.603 Y127.837 F7800
G1 E23.38994 F2400
G92 E0
G1 X81.479 Y42.538 F7800
G1 E2 F2400
;TYPE:Perimeter
;WIDTH:0.457527
G1 X64.964 Y127.502 E6.24424
;WIDTH:0.472191
G1 X64.939 Y127.669 E6.25281
G1 E4.25281
G92 E0
G1 X108.835 Y41.755 F7800
G1 E2 F2400
;WIDTH:0.457525
G1 X82.429 Y41.755 E3.29478
;WIDTH:0.472191
G1 X82.261 Y41.762 E3.30336
G1 E1.30336
G92 E0
G1 X109.795 Y127.855 F7800
G1 E2 F2400
G1 X109.802 Y127.687 E2.00858
;WIDTH:0.457525
G1 X109.802 Y42.722 E6.17481
G1 E4.17481
G92 E0
G1 X65.914 Y128.655 F7800
G1 E2 F2400
G1 X108.835 Y128.655 E4.10461
;WIDTH:0.472191
G1 X109.003 Y128.647 E4.11319
G1 E2.11319
G92 E0
G1 X64.268 Y129.044 F7800
G1 E2 F2400
;WIDTH:0.45
G1 X81.311 Y41.365 E6.29597
G1 X110.192 Y41.365 E7.68505
G1 X110.192 Y129.044 E11.9021
G1 X64.328 Y129.044 E14.108
G1 X63.8 Y129.43 F7800
;TYPE:External perimeter
G1 F1200
G1 X80.993 Y40.98 E18.44176
G1 X110.577 Y40.98 E19.86468
G1 X110.577 Y129.43 E24.11882
G1 X63.86 Y129.43 E26.36577
G1 X63.914 Y129.046 F7800
M106 S117.3
;LAYER_CHANGE
;Z:1.25
;HEIGHT:0.3
G1 Z1.25 F7800
G1 E24.36577 F2400
G92 E0
G1 X109.003 Y128.647 F7800
G1 E2 F2400
;TYPE:Perimeter
;WIDTH:0.472191
G1 F900
G1 X109.508 Y128.36 E2.02955
G1 X109.795 Y127.855 E2.05909
G1 X109.818 Y128.67 E2.10054
;WIDTH:0.427003
G1 X109.636 Y128.67 E2.10874
;WIDTH:0.472191
G1 X109.063 Y128.649 E2.13792
G1 E.13792 F2400
G92 E0
G1 X65.252 Y128.351 F7800
G1 E2 F2400
;WIDTH:0.476227
G1 F900
G1 X65.914 Y128.655 E2.03741
G1 X64.751 Y128.645 E2.09713
G1 X64.939 Y127.669 E2.14821
G1 X65.16 Y128.308 E2.18296
G1 X65.198 Y128.326 E2.18509
G1 E.18509 F2400
G92 E0
G1 X81.479 Y42.538 F7800
G1 E2 F2400
;WIDTH:0.457527
G1 F900
G1 X81.541 Y42.128 E2.02031
;WIDTH:0.421619
G1 X81.602 Y41.719 E2.03876
;WIDTH:0.385711
G1 X81.734 Y41.719 E2.04406
;WIDTH:0.428951
G1 X81.998 Y41.74 E2.05607
;WIDTH:0.472191
G1 X82.261 Y41.762 E2.06951
G1 X82.049 Y41.883 E2.08192
;WIDTH:0.428951
G1 X81.837 Y42.003 E2.09302
;WIDTH:0.421619
G1 X81.658 Y42.271 E2.10734
;WIDTH:0.457527
G1 X81.513 Y42.488 E2.12016
G1 E.12016 F2400
G92 E0
G1 X109.802 Y42.722 F7800
G1 E2 F2400
;WIDTH:0.457525
G1 F900
G1 X109.508 Y42.049 E2.03604
G1 X108.835 Y41.755 E2.07208
G1 X109.818 Y41.739 E2.12029
;WIDTH:0.427003
G1 X109.818 Y41.921 E2.1285
;WIDTH:0.457525
G1 X109.804 Y42.662 E2.16487
G1 E.16487 F2400
G92 E0
G1 X65.512 Y128.075 F7800
G1 E2 F2400
;WIDTH:0.45
G1 X65.468 Y128.055 E2.00234
G1 X65.336 Y127.676 E2.02162
G1 X65.346 Y127.576 E2.02644
G1 X81.862 Y42.612 E6.18942
G1 X82.062 Y42.276 E6.20822
G1 X82.33 Y42.153 E6.22241
G1 X82.429 Y42.144 E6.22724
G1 X108.835 Y42.144 E7.49723
G1 X109.244 Y42.313 E7.51852
G1 X109.413 Y42.722 E7.53982
G1 X109.404 Y127.787 E11.63112
G1 X109.244 Y128.096 E11.64787
G1 X108.935 Y128.257 E11.66463
G1 X108.835 Y128.265 E11.66945
G1 X65.914 Y128.265 E13.73378
G1 X65.566 Y128.101 E13.75229
G1 X65.765 Y127.809 F7800
