; generated by PrusaSlicer 2.5.0+MacOS-x64 on 2022-11-21 at 17:27:53 UTC

; 

; external perimeters extrusion width = 0.45mm
; perimeters extrusion width = 0.45mm
; infill extrusion width = 0.45mm
; solid infill extrusion width = 0.45mm
; top infill extrusion width = 0.40mm
; first layer extrusion width = 0.42mm

M107
M190 S60 ; set bed temperature and wait for it to be reached
M104 S220 ; set temperature
;TYPE:Custom
G28 ; home all axes
G29 ; auto-level
G1 Z5 F5000 ; lift nozzle
M109 S220 ; set temperature and wait for it to be reached
G21 ; set units to millimeters
G90 ; use absolute coordinates
M82 ; use absolute distances for extrusion
G92 E0
; Filament gcode
M107
;LAYER_CHANGE
;Z:0.35
;HEIGHT:0.35
G1 Z.35 F7800
G1 E-2 F2400
G92 E0
G1 X86.906 Y32.069 F7800
G1 E2 F2400
;TYPE:Skirt/Brim
;WIDTH:0.42
G1 F1800
G1 X87.717 Y29.977 E2.11262
G1 X89.206 Y28.297 E2.22524
G1 X91.186 Y27.241 E2.33786
G1 X93.135 Y26.935 E2.43686
G1 X108.842 Y26.935 E3.22515
G1 X111.051 Y27.332 E3.33778
G1 X112.983 Y28.473 E3.4504
G1 X114.398 Y30.215 E3.56302
G1 X115.187 Y33.28 E3.72185
G1 X115.187 Y122.18 E8.18338
G1 X114.79 Y124.388 E8.296
G1 X113.649 Y126.321 E8.40862
G1 X112.435 Y127.409 E8.49046
G1 X76.714 Y151.95 E10.66544
G1 X74.669 Y152.874 E10.77806
G1 X71.916 Y152.95 E10.91629
G1 X69.952 Y152.57 E11.01666
G1 X67.859 Y151.76 E11.12928
G1 X66.179 Y150.273 E11.2419
G1 X65.121 Y148.294 E11.35452
G1 X64.93 Y145.13 E11.51361
G1 X86.895 Y32.128 E17.29085
G1 E15.29085 F2400
G92 E0
G1 X77.583 Y121.34 F7800
G1 E2 F2400
;TYPE:Perimeter
;WIDTH:0.460089
G1 F1800
G1 X77.496 Y121.361 E2.005
G1 X77.38 Y121.48 E2.01433
;WIDTH:0.500178
G1 X77.264 Y121.6 E2.02464
;WIDTH:0.540267
G1 X77.148 Y121.719 E2.03591
;WIDTH:0.580356
G1 X77.032 Y121.839 E2.04816
;WIDTH:0.620445
G1 X76.916 Y121.958 E2.06138
G1 X76.934 Y121.762 E2.07702
;WIDTH:0.580356
G1 X76.951 Y121.566 E2.09151
;WIDTH:0.540267
G1 X76.969 Y121.37 E2.10485
;WIDTH:0.500178
G1 X76.987 Y121.173 E2.11705
;WIDTH:0.460089
G1 X77.005 Y120.977 E2.12809
;WIDTH:0.463006
G1 X77.057 Y120.821 E2.13734
;WIDTH:0.506012
G1 X77.109 Y120.666 E2.14763
;WIDTH:0.549018
G1 X77.161 Y120.51 E2.15894
;WIDTH:0.592024
G1 X77.213 Y120.355 E2.17127
;WIDTH:0.635031
G1 X77.265 Y120.199 E2.18463
G1 X77.333 Y120.321 E2.19594
;WIDTH:0.592024
G1 X77.401 Y120.442 E2.20638
;WIDTH:0.549018
G1 X77.469 Y120.563 E2.21595
;WIDTH:0.506012
G1 X77.536 Y120.684 E2.22466
;WIDTH:0.463006
G1 X77.604 Y120.805 E2.23249
;WIDTH:0.42
G1 X77.731 Y120.917 E2.241
;WIDTH:0.460089
G1 X77.832 Y120.97 E2.24736
;WIDTH:0.500178
G1 X77.933 Y121.022 E2.25438
;WIDTH:0.540267
G1 X78.033 Y121.075 E2.26207
;WIDTH:0.580356
G1 X78.134 Y121.127 E2.27042
;WIDTH:0.620445
G1 X78.235 Y121.18 E2.27944
G1 X78.087 Y121.216 E2.29151
;WIDTH:0.580356
G1 X77.939 Y121.252 E2.30269
;WIDTH:0.540267
G1 X77.792 Y121.288 E2.31299
;WIDTH:0.500178
G1 X77.644 Y121.325 E2.3224
;WIDTH:0.460089
G1 X77.641 Y121.325 E2.32256
G1 X77.37 Y121.005 F7800
;WIDTH:0.430073
G1 F1800
G1 X77.304 Y121.044 E2.32653
G1 X77.37 Y121.082 E2.3305
G1 X77.392 Y121.044 E2.33279
G1 E.33279 F2400
G92 E0
G1 X107.842 Y120.217 F7800
G1 E2 F2400
;WIDTH:0.620445
G1 F1800
G1 X107.863 Y120.295 E2.00642
;WIDTH:0.578556
G1 X107.884 Y120.374 E2.01235
;WIDTH:0.536667
G1 X107.905 Y120.452 E2.01778
;WIDTH:0.494779
G1 X107.926 Y120.53 E2.02272
;WIDTH:0.45289
G1 X107.947 Y120.608 E2.02717
;WIDTH:0.44497
G1 X107.93 Y120.816 E2.03843
;WIDTH:0.478938
G1 X107.913 Y121.025 E2.05072
;WIDTH:0.512907
G1 X107.896 Y121.233 E2.06405
G1 X107.687 Y121.245 E2.07735
;WIDTH:0.463861
G1 X107.479 Y121.257 E2.08916
;WIDTH:0.414816
G1 X107.27 Y121.268 E2.09948
;WIDTH:0.408216
G1 X107.205 Y121.254 E2.10272
;WIDTH:0.450662
G1 X107.14 Y121.239 E2.10637
;WIDTH:0.493108
G1 X107.075 Y121.224 E2.11043
;WIDTH:0.535553
G1 X107.01 Y121.209 E2.11491
;WIDTH:0.577999
G1 X106.945 Y121.194 E2.11979
;WIDTH:0.620445
G1 X106.88 Y121.18 E2.12509
G1 X106.935 Y121.147 E2.1302
;WIDTH:0.577999
G1 X106.991 Y121.114 E2.13492
;WIDTH:0.535553
G1 X107.046 Y121.081 E2.13923
;WIDTH:0.493108
G1 X107.102 Y121.049 E2.14315
;WIDTH:0.450662
G1 X107.157 Y121.016 E2.14667
;WIDTH:0.408216
G1 X107.213 Y120.983 E2.14979
;WIDTH:0.414816
G1 X107.316 Y120.942 E2.15529
;WIDTH:0.463861
G1 X107.419 Y120.901 E2.16157
;WIDTH:0.512907
G1 X107.522 Y120.86 E2.16865
G1 X107.559 Y120.754 E2.17575
;WIDTH:0.478938
G1 X107.595 Y120.649 E2.1823
;WIDTH:0.44497
G1 X107.632 Y120.544 E2.18829
;WIDTH:0.446033
G1 X107.68 Y120.487 E2.1923
;WIDTH:0.481064
G1 X107.728 Y120.431 E2.19669
;WIDTH:0.516095
G1 X107.776 Y120.374 E2.20145
;WIDTH:0.550878
G1 X107.798 Y120.322 E2.20539
;WIDTH:0.585661
G1 X107.819 Y120.273 E2.20938
G1 E.20938 F2400
G92 E0
G1 X106.88 Y34.28 F7800
G1 E2 F2400
;WIDTH:0.620445
G1 F1800
G1 X107.218 Y34.262 E2.02692
;WIDTH:0.584599
G1 X107.557 Y34.244 E2.05207
;WIDTH:0.548753
G1 X107.896 Y34.226 E2.07544
;WIDTH:0.512907
G1 X107.896 Y34.445 E2.08939
;WIDTH:0.548753
G1 X107.878 Y34.711 E2.10775
;WIDTH:0.584599
G1 X107.86 Y34.976 E2.1275
;WIDTH:0.620445
G1 X107.842 Y35.242 E2.14863
G1 X107.736 Y35.028 E2.16762
;WIDTH:0.584599
G1 X107.629 Y34.814 E2.18536
;WIDTH:0.548753
G1 X107.522 Y34.6 E2.20185
G1 X107.308 Y34.493 E2.21834
;WIDTH:0.584599
G1 X107.094 Y34.386 E2.23608
;WIDTH:0.620445
G1 X106.933 Y34.306 E2.2503
G1 E.2503 F2400
G92 E0
G1 X93.978 Y34.834 F7800
G1 E2 F2400
;WIDTH:0.570911
G1 F1800
G1 X93.934 Y34.891 E2.00522
;WIDTH:0.620445
G1 X93.808 Y35.058 E2.02186
G1 X93.838 Y34.774 E2.04455
;WIDTH:0.570911
G1 X93.868 Y34.49 E2.06518
;WIDTH:0.521377
G1 X93.898 Y34.205 E2.08375
;WIDTH:0.471844
G1 X94.052 Y34.198 E2.09266
;WIDTH:0.438458
G1 X94.206 Y34.191 E2.10082
;WIDTH:0.405073
G1 X94.36 Y34.184 E2.10823
;WIDTH:0.421439
G1 X94.439 Y34.203 E2.1123
;WIDTH:0.47119
G1 X94.517 Y34.222 E2.11696
;WIDTH:0.520942
G1 X94.595 Y34.241 E2.12219
;WIDTH:0.570693
G1 X94.674 Y34.26 E2.12802
;WIDTH:0.620445
G1 X94.752 Y34.28 E2.13442
G1 X94.686 Y34.318 E2.14054
;WIDTH:0.570693
G1 X94.619 Y34.357 E2.14609
;WIDTH:0.520942
G1 X94.552 Y34.396 E2.15109
;WIDTH:0.47119
G1 X94.486 Y34.434 E2.15553
;WIDTH:0.421439
G1 X94.419 Y34.473 E2.15941
;WIDTH:0.405073
G1 X94.342 Y34.501 E2.16336
;WIDTH:0.438458
G1 X94.265 Y34.529 E2.1677
;WIDTH:0.471844
G1 X94.187 Y34.557 E2.17244
;WIDTH:0.521377
G1 X94.061 Y34.724 E2.18606
;WIDTH:0.570911
G1 X94.014 Y34.786 E2.19165
G1 E.19165 F2400
G92 E0
G1 X77.705 Y121.659 F7800
G1 E2 F2400
;WIDTH:0.42
G1 F1800
G1 X77.642 Y121.673 E2.00323
G1 X77.353 Y122.043 E2.0268
G1 X72.682 Y146.07 E3.25517
G1 X71.808 Y145.901 E3.29985
G1 X93.592 Y33.835 E9.02927
G1 X94.36 Y33.852 E9.06783
G1 X94.585 Y33.835 E9.07914
G1 X108.287 Y33.835 E9.76681
G1 X108.287 Y121.625 E14.17264
G1 X77.861 Y121.625 E15.69962
G1 X77.763 Y121.646 E15.70463
G1 X77.82 Y121.975 F7800
;TYPE:External perimeter
G1 F1800
G1 X77.691 Y122.109 E15.71396
G1 X72.955 Y146.474 E16.95963
G1 X71.404 Y146.174 E17.03892
G1 X93.308 Y33.49 E22.79994
G1 X108.632 Y33.49 E23.56901
G1 X108.632 Y121.97 E28.00945
G1 X77.88 Y121.974 E29.55279
G1 X77.635 Y121.957 F7800
G1 E27.55279 F2400
G92 E0
G1 X94.297 Y35.056 F7800
G1 E2 F2400
;TYPE:Perimeter
G1 F1800
G1 X94.423 Y34.843 E2.01243
G1 X94.663 Y34.733 E2.02567
G1 X94.752 Y34.725 E2.03017
G1 X106.88 Y34.725 E2.6388
G1 X107.246 Y34.876 E2.65867
G1 X107.397 Y35.242 E2.67854
G1 X107.397 Y120.217 E6.94309
G1 X107.333 Y120.414 E6.95348
G1 X107.246 Y120.583 E6.96303
G1 X107.086 Y120.692 E6.97272
G1 X106.88 Y120.735 E6.98329
G1 X78.235 Y120.735 E8.42086
G1 X77.933 Y120.637 E8.43679
G1 X77.856 Y120.57 E8.44189
G1 X77.718 Y120.208 E8.46136
G1 X77.727 Y120.119 E8.46586
G1 X94.244 Y35.143 E12.81023
G1 X94.266 Y35.107 E12.81234
G1 X94.583 Y35.209 F7800
;TYPE:External perimeter
G1 F1800
G1 X94.684 Y35.084 E12.82041
G1 X94.752 Y35.07 E12.82392
G1 X106.88 Y35.07 E13.43254
G1 X107.002 Y35.12 E13.43917
G1 X107.052 Y35.242 E13.44579
G1 X107.052 Y120.217 E17.71034
G1 X107.002 Y120.339 E17.71696
G1 X106.948 Y120.375 E17.72019
G1 X106.88 Y120.39 E17.72372
G1 X78.235 Y120.39 E19.16129
G1 X78.109 Y120.335 E19.16819
G1 X78.066 Y120.184 E19.17605
G1 X94.572 Y35.268 E23.5174
G1 X94.501 Y35.071 F7800
G1 E21.5174 F2400
G92 E0
G1 X107.842 Y120.217 F7800
G1 E2 F2400
;TYPE:Perimeter
;WIDTH:0.620445
G1 F1800
G1 X107.842 Y35.242 E8.74305
G1 X106.88 Y34.28 F7800
G1 F1800
G1 X94.752 Y34.28 E9.7054
G1 X93.808 Y35.058 F7800
G1 F1800
G1 X77.29 Y120.034 E16.57466
;WIDTH:0.635031
G1 X77.265 Y120.199 E16.58832
G1 X78.235 Y121.18 F7800
;WIDTH:0.620445
G1 F1800
G1 X106.88 Y121.18 E18.86139
G1 E16.86139 F2400
G92 E0
G1 X72.33 Y145.549 F7800
G1 E2 F2400
G1 F1800
G1 X76.916 Y121.958 E3.907
;LAYER_CHANGE
;Z:0.65
;HEIGHT:0.3
G1 Z.65 F7800
M104 S200 ; set temperature
G1 X77.556 Y121.221
;WIDTH:0.512047
G1 F900
G1 X77.444 Y121.246 E3.91337
G1 X77.18 Y121.604 E3.93825
;WIDTH:0.484786
G1 X76.915 Y121.963 E3.96162
G1 X77.023 Y121.481 E3.98748
;WIDTH:0.512047
G1 X77.13 Y121 E4.01501
G1 X77.266 Y120.194 E4.06067
G1 X77.513 Y120.89 E4.10192
G1 X77.869 Y121.133 E4.12597
;WIDTH:0.50905
G1 X78.055 Y121.156 E4.13637
;WIDTH:0.483287
G1 X78.241 Y121.18 E4.14617
G1 X78.053 Y121.167 E4.15602
;WIDTH:0.50905
G1 X77.865 Y121.154 E4.16648
;WIDTH:0.512047
G1 X77.614 Y121.209 E4.1808
G1 E2.1808 F2400
G92 E0
G1 X107.835 Y120.38 F7800
G1 E2 F2400
;WIDTH:0.472191
G1 F900
G1 X107.857 Y121.195 E2.04145
;WIDTH:0.427003
G1 X107.676 Y121.195 E2.04965
;WIDTH:0.472191
G1 X107.043 Y121.172 E2.08188
G1 X107.548 Y120.885 E2.11143
G1 X107.805 Y120.433 E2.13792
G1 E.13792 F2400
G92 E0
G1 X106.874 Y34.28 F7800
G1 E2 F2400
;WIDTH:0.457525
G1 F900
G1 X107.857 Y34.264 E2.04821
;WIDTH:0.427003
G1 X107.857 Y34.446 E2.05641
;WIDTH:0.457525
G1 X107.842 Y35.247 E2.09573
G1 X107.548 Y34.574 E2.13177
G1 X106.929 Y34.304 E2.16487
G1 E.16487 F2400
G92 E0
G1 X93.946 Y34.855 F7800
G1 E2 F2400
;WIDTH:0.457527
G1 F900
G1 X93.807 Y35.063 E2.01226
G1 X93.868 Y34.653 E2.03257
;WIDTH:0.421619
G1 X93.929 Y34.244 E2.05102
;WIDTH:0.385711
G1 X94.062 Y34.244 E2.05632
;WIDTH:0.428951
G1 X94.325 Y34.265 E2.06833
;WIDTH:0.472191
G1 X94.588 Y34.287 E2.08177
G1 X94.376 Y34.408 E2.09418
;WIDTH:0.428951
G1 X94.164 Y34.528 E2.10528
;WIDTH:0.421619
G1 X93.985 Y34.796 E2.1196
;WIDTH:0.457527
G1 X93.979 Y34.805 E2.12016
G1 X94.246 Y35.042 F7800
;WIDTH:0.45
G1 F2400
G1 X94.389 Y34.801 E2.13363
G1 X94.657 Y34.678 E2.14782
G1 X94.757 Y34.669 E2.15265
G1 X106.874 Y34.669 E2.73546
G1 X107.283 Y34.838 E2.75675
G1 X107.453 Y35.247 E2.77805
G1 X107.444 Y120.312 E6.86935
G1 X107.283 Y120.621 E6.8861
G1 X106.974 Y120.782 E6.90286
G1 X106.874 Y120.79 E6.90768
G1 X78.241 Y120.79 E8.28483
G1 X78.025 Y120.748 E8.29545
G1 X77.818 Y120.606 E8.3075
G1 X77.663 Y120.201 E8.32836
G1 X77.674 Y120.101 E8.33318
G1 X94.189 Y35.137 E12.49616
G1 X94.215 Y35.093 E12.4986
G1 X94.567 Y35.211 F7800
;TYPE:External perimeter
G1 F1200
G1 X94.634 Y35.099 E12.50487
G1 X94.757 Y35.055 E12.51114
G1 X106.874 Y35.055 E13.09395
G1 X107.011 Y35.111 E13.10105
G1 X107.067 Y35.247 E13.10815
G1 X107.067 Y120.212 E17.19464
G1 X107.011 Y120.348 E17.20174
G1 X106.874 Y120.405 E17.20884
G1 X78.241 Y120.405 E18.58598
G1 X78.1 Y120.343 E18.59338
G1 X78.052 Y120.175 E18.6018
G1 X94.556 Y35.27 E22.76189
G1 X94.491 Y35.105 F7800
G1 X93.807 Y35.063
;TYPE:Perimeter
;WIDTH:0.457527
G1 F2400
G1 X77.291 Y120.027 E27.00613
;WIDTH:0.472191
G1 X77.266 Y120.194 E27.01471
G1 E25.01471
G92 E0
G1 X106.874 Y34.28 F7800
G1 E2 F2400
;WIDTH:0.457525
G1 X94.757 Y34.28 E2.59419
;WIDTH:0.472191
G1 X94.588 Y34.287 E2.60277
G1 E.60277
G92 E0
G1 X107.835 Y120.38 F7800
G1 E2 F2400
G1 X107.842 Y120.212 E2.00858
;WIDTH:0.457525
G1 X107.842 Y35.247 E6.17481
G1 E4.17481
G92 E0
G1 X77.691 Y121.608 F7800
G1 E2 F2400
;WIDTH:0.45
G1 X77.62 Y121.623 E2.00346
G1 X77.297 Y122.037 E2.02871
G1 X72.638 Y146.005 E3.20306
G1 X71.874 Y145.857 E3.24051
G1 X93.638 Y33.89 E8.72652
G1 X108.232 Y33.89 E9.42842
G1 X108.232 Y121.569 E13.64546
G1 X77.865 Y121.569 E15.10598
G1 X77.749 Y121.595 E15.11169
G1 X77.819 Y121.96 F7800
;TYPE:External perimeter
G1 F1200
G1 X77.676 Y122.111 E15.12169
G1 X72.943 Y146.457 E16.31457
G1 X71.422 Y146.162 E16.38911
G1 X93.32 Y33.505 E21.90897
G1 X108.617 Y33.505 E22.6447
G1 X108.617 Y121.955 E26.89884
G1 X77.879 Y121.959 E28.37723
G1 X77.612 Y121.94 F7800
G1 E26.37723 F2400
G92 E0
G1 X72.33 Y145.549 F7800
G1 E2 F2400
;TYPE:Perimeter
;WIDTH:0.457527
G1 X76.915 Y121.963 E3.17819
G1 X78.241 Y121.18 F7800
;WIDTH:0.457525
G1 F2400
G1 X106.874 Y121.18 E4.58221
;WIDTH:0.472191
G1 X107.043 Y121.172 E4.59079
;LAYER_CHANGE
;Z:0.95
;HEIGHT:0.3
G1 Z.95 F7800
G1 E2.59079 F2400
G92 E0
G1 X77.556 Y121.221 F7800
G1 E2 F2400
;WIDTH:0.512047
G1 F900
G1 X77.444 Y121.246 E2.00637
G1 X77.18 Y121.604 E2.03126
;WIDTH:0.484786
G1 X76.915 Y121.963 E2.05462
G1 X77.023 Y121.481 E2.08048
;WIDTH:0.512047
G1 X77.13 Y121 E2.10801
G1 X77.266 Y120.194 E2.15367
G1 X77.513 Y120.89 E2.19492
G1 X77.869 Y121.133 E2.21897
;WIDTH:0.50905
G1 X78.055 Y121.156 E2.22937
;WIDTH:0.483287
G1 X78.241 Y121.18 E2.23917
G1 X78.053 Y121.167 E2.24902
;WIDTH:0.50905
G1 X77.865 Y121.154 E2.25948
;WIDTH:0.512047
G1 X77.614 Y121.209 E2.27381
G1 E.27381 F2400
G92 E0
G1 X107.835 Y120.38 F7800
G1 E2 F2400
;WIDTH:0.472191
G1 F900
G1 X107.857 Y121.195 E2.04145
;WIDTH:0.427003
G1 X107.676 Y121.195 E2.04965
;WIDTH:0.472191
G1 X107.043 Y121.172 E2.08188
G1 X107.548 Y120.885 E2.11143
G1 X107.805 Y120.433 E2.13792
G1 E.13792 F2400
G92 E0
G1 X106.874 Y34.28 F7800
G1 E2 F2400
;WIDTH:0.457525
G1 F900
G1 X107.857 Y34.264 E2.04821
;WIDTH:0.427003
G1 X107.857 Y34.446 E2.05641
;WIDTH:0.457525
G1 X107.842 Y35.247 E2.09573
G1 X107.548 Y34.574 E2.13177
G1 X106.929 Y34.304 E2.16487
G1 E.16487 F2400
G92 E0
G1 X93.946 Y34.855 F7800
G1 E2 F2400
;WIDTH:0.457527
G1 F900
G1 X93.807 Y35.063 E2.01226
G1 X93.868 Y34.653 E2.03257
;WIDTH:0.421619
G1 X93.929 Y34.244 E2.05102
;WIDTH:0.385711
G1 X94.062 Y34.244 E2.05632
;WIDTH:0.428951
G1 X94.325 Y34.265 E2.06833
;WIDTH:0.472191
G1 X94.588 Y34.287 E2.08177
G1 X94.376 Y34.408 E2.09418
;WIDTH:0.428951
G1 X94.164 Y34.528 E2.10528
;WIDTH:0.421619
G1 X93.985 Y34.796 E2.1196
;WIDTH:0.457527
G1 X93.979 Y34.805 E2.12016
G1 X94.246 Y35.042 F7800
;WIDTH:0.45
G1 F2400
G1 X94.389 Y34.801 E2.13363
G1 X94.657 Y34.678 E2.14782
G1 X94.757 Y34.669 E2.15265
G1 X106.874 Y34.669 E2.73546
G1 X107.283 Y34.838 E2.75675
G1 X107.453 Y35.247 E2.77805
G1 X107.444 Y120.312 E6.86935
G1 X107.283 Y120.621 E6.8861
G1 X106.974 Y120.782 E6.90286
G1 X106.874 Y120.79 E6.90768
G1 X78.241 Y120.79 E8.28483
G1 X78.025 Y120.748 E8.29545
G1 X77.818 Y120.606 E8.3075
G1 X77.663 Y120.201 E8.32836
G1 X77.674 Y120.101 E8.33318
G1 X94.189 Y35.137 E12.49616
G1 X94.215 Y35.093 E12.4986
G1 X94.567 Y35.211 F7800
;TYPE:External perimeter
G1 F1200
G1 X94.634 Y35.099 E12.50487
G1 X94.757 Y35.055 E12.51114
G1 X106.874 Y35.055 E13.09395
G1 X107.011 Y35.111 E13.10105
G1 X107.067 Y35.247 E13.10815
G1 X107.067 Y120.212 E17.19464
G1 X107.011 Y120.348 E17.20174
G1 X106.874 Y120.405 E17.20884
G1 X78.241 Y120.405 E18.58598
G1 X78.1 Y120.343 E18.59338
G1 X78.052 Y120.175 E18.6018
G1 X94.556 Y35.27 E22.76189
G1 X94.491 Y35.105 F7800
G1 X93.807 Y35.063
;TYPE:Perimeter
;WIDTH:0.457527
G1 F2400
G1 X77.291 Y120.027 E27.00613
;WIDTH:0.472191
G1 X77.266 Y120.194 E27.01471
G1 E25.01471
G92 E0
G1 X106.874 Y34.28 F7800
G1 E2 F2400
;WIDTH:0.457525
G1 X94.757 Y34.28 E2.59419
;WIDTH:0.472191
G1 X94.588 Y34.287 E2.60277
G1 E.60277
G92 E0
G1 X107.835 Y120.38 F7800
G1 E2 F2400
G1 X107.842 Y120.212 E2.00858
;WIDTH:0.457525
G1 X107.842 Y35.247 E6.17481
G1 E4.17481
G92 E0
G1 X77.691 Y121.608 F7800
G1 E2 F2400
;WIDTH:0.45
G1 X77.62 Y121.623 E2.00346
G1 X77.297 Y122.037 E2.02871
G1 X72.638 Y146.005 E3.20306
G1 X71.874 Y145.857 E3.24051
G1 X93.638 Y33.89 E8.72652
G1 X108.232 Y33.89 E9.42842
G1 X108.232 Y121.569 E13.64546
G1 X77.865 Y121.569 E15.10598
G1 X77.749 Y121.595 E15.11169
G1 X77.819 Y121.96 F7800
;TYPE:External perimeter
G1 F1200
G1 X77.676 Y122.111 E15.12169
G1 X72.943 Y146.457 E16.31457
G1 X71.422 Y146.162 E16.38911
G1 X93.32 Y33.505 E21.90897
G1 X108.617 Y33.505 E22.6447
G1 X108.617 Y121.955 E26.89884
G1 X77.879 Y121.959 E28.37723
G1 X77.612 Y121.94 F7800
G1 E26.37723 F2400
G92 E0
