; generated by PrusaSlicer 2.5.0+MacOS-x64 on 2022-11-21 at 15:38:43 UTC

; 

; external perimeters extrusion width = 0.45mm
; perimeters extrusion width = 0.45mm
; infill extrusion width = 0.45mm
; solid infill extrusion width = 0.45mm
; top infill extrusion width = 0.40mm
; first layer extrusion width = 0.42mm

M107
M190 S60 ; set bed temperature and wait for it to be reached
M104 S220 ; set temperature
;TYPE:Custom
G28 ; home all axes
G29 ; auto-level
G1 Z5 F5000 ; lift nozzle
M109 S220 ; set temperature and wait for it to be reached
G21 ; set units to millimeters
G90 ; use absolute coordinates
M82 ; use absolute distances for extrusion
G92 E0
; Filament gcode
M107
;LAYER_CHANGE
;Z:0.35
;HEIGHT:0.35
G1 Z.35 F7800
G1 E-2 F2400
G92 E0
G1 X85.369 Y42.247 F7800
G1 E2 F2400
;TYPE:Skirt/Brim
;WIDTH:0.42
G1 F1800
G1 X86.858 Y40.568 E2.11262
G1 X88.838 Y39.512 E2.22524
G1 X90.786 Y39.205 E2.32423
G1 X106.494 Y39.205 E3.11253
G1 X108.703 Y39.602 E3.22515
G1 X110.635 Y40.743 E3.33778
G1 X112.05 Y42.485 E3.4504
G1 X112.839 Y45.55 E3.60923
G1 X112.839 Y134.45 E8.07076
G1 X112.442 Y136.659 E8.18338
G1 X111.301 Y138.591 E8.296
G1 X109.559 Y140.006 E8.40862
G1 X106.494 Y140.795 E8.56746
G1 X73.506 Y140.795 E10.22299
G1 X71.297 Y140.398 E10.33561
G1 X69.365 Y139.257 E10.44823
G1 X67.95 Y137.515 E10.56085
G1 X67.231 Y135.389 E10.67348
G1 X67.278 Y133.239 E10.7814
G1 X84.558 Y44.339 E15.32643
G1 X85.347 Y42.303 E15.43604
G1 E13.43604 F2400
G92 E0
G1 X74.917 Y132.47 F7800
G1 E2 F2400
;TYPE:Perimeter
;WIDTH:0.635031
G1 F1800
G1 X74.978 Y132.583 E2.01047
;WIDTH:0.592024
G1 X75.039 Y132.696 E2.02014
;WIDTH:0.549018
G1 X75.1 Y132.81 E2.02901
;WIDTH:0.506012
G1 X75.16 Y132.923 E2.03707
;WIDTH:0.463006
G1 X75.221 Y133.036 E2.04433
;WIDTH:0.460089
G1 X75.354 Y133.119 E2.05311
;WIDTH:0.500178
G1 X75.487 Y133.202 E2.0628
;WIDTH:0.540267
G1 X75.621 Y133.284 E2.07341
;WIDTH:0.580356
G1 X75.754 Y133.367 E2.08493
;WIDTH:0.620445
G1 X75.887 Y133.45 E2.09737
G1 X75.705 Y133.47 E2.11186
;WIDTH:0.580356
G1 X75.524 Y133.49 E2.12529
;WIDTH:0.540267
G1 X75.342 Y133.51 E2.13766
;WIDTH:0.500178
G1 X75.16 Y133.53 E2.14895
;WIDTH:0.460089
G1 X74.979 Y133.55 E2.15919
;WIDTH:0.42
G1 X74.598 Y133.55 E2.17832
G1 X74.67 Y133.176 E2.19746
;WIDTH:0.463006
G1 X74.72 Y133.035 E2.2059
;WIDTH:0.506012
G1 X74.769 Y132.893 E2.21528
;WIDTH:0.549018
G1 X74.818 Y132.752 E2.2256
;WIDTH:0.592024
G1 X74.868 Y132.611 E2.23685
;WIDTH:0.635031
G1 X74.897 Y132.526 E2.24415
G1 X74.997 Y133.205 F7800
;WIDTH:0.358831
G1 F1800
G1 X74.943 Y133.236 E2.24669
G1 X74.997 Y133.267 E2.24923
G1 X75.014 Y133.236 E2.25069
G1 E.25069 F2400
G92 E0
G1 X105.494 Y132.488 F7800
G1 E2 F2400
;WIDTH:0.620445
G1 F1800
G1 X105.515 Y132.566 E2.00642
;WIDTH:0.578556
G1 X105.536 Y132.644 E2.01235
;WIDTH:0.536667
G1 X105.557 Y132.722 E2.01778
;WIDTH:0.494779
G1 X105.578 Y132.8 E2.02272
;WIDTH:0.45289
G1 X105.599 Y132.878 E2.02717
;WIDTH:0.44497
G1 X105.582 Y133.087 E2.03843
;WIDTH:0.478938
G1 X105.565 Y133.295 E2.05072
;WIDTH:0.512907
G1 X105.548 Y133.504 E2.06405
G1 X105.339 Y133.515 E2.07735
;WIDTH:0.463861
G1 X105.131 Y133.527 E2.08916
;WIDTH:0.414816
G1 X104.922 Y133.539 E2.09948
;WIDTH:0.408216
G1 X104.857 Y133.524 E2.10272
;WIDTH:0.450662
G1 X104.792 Y133.509 E2.10637
;WIDTH:0.493108
G1 X104.727 Y133.494 E2.11043
;WIDTH:0.535553
G1 X104.662 Y133.48 E2.11491
;WIDTH:0.577999
G1 X104.597 Y133.465 E2.11979
;WIDTH:0.620445
G1 X104.532 Y133.45 E2.12509
G1 X104.587 Y133.417 E2.1302
;WIDTH:0.577999
G1 X104.642 Y133.384 E2.13492
;WIDTH:0.535553
G1 X104.698 Y133.352 E2.13923
;WIDTH:0.493108
G1 X104.753 Y133.319 E2.14315
;WIDTH:0.450662
G1 X104.809 Y133.286 E2.14667
;WIDTH:0.408216
G1 X104.864 Y133.253 E2.14979
;WIDTH:0.414816
G1 X104.968 Y133.212 E2.15529
;WIDTH:0.463861
G1 X105.071 Y133.171 E2.16157
;WIDTH:0.512907
G1 X105.174 Y133.13 E2.16865
G1 X105.211 Y133.025 E2.17575
;WIDTH:0.478938
G1 X105.247 Y132.92 E2.1823
;WIDTH:0.44497
G1 X105.284 Y132.814 E2.18829
;WIDTH:0.446033
G1 X105.332 Y132.758 E2.1923
;WIDTH:0.481064
G1 X105.38 Y132.701 E2.19669
;WIDTH:0.516095
G1 X105.428 Y132.645 E2.20145
;WIDTH:0.550878
G1 X105.45 Y132.592 E2.20539
;WIDTH:0.585661
G1 X105.471 Y132.543 E2.20938
G1 E.20938 F2400
G92 E0
G1 X104.532 Y46.55 F7800
G1 E2 F2400
;WIDTH:0.620445
G1 F1800
G1 X104.87 Y46.532 E2.02692
;WIDTH:0.584599
G1 X105.209 Y46.514 E2.05207
;WIDTH:0.548753
G1 X105.548 Y46.496 E2.07544
;WIDTH:0.512907
G1 X105.548 Y46.715 E2.08939
;WIDTH:0.548753
G1 X105.53 Y46.981 E2.10775
;WIDTH:0.584599
G1 X105.512 Y47.247 E2.1275
;WIDTH:0.620445
G1 X105.494 Y47.512 E2.14863
G1 X105.387 Y47.298 E2.16762
;WIDTH:0.584599
G1 X105.281 Y47.084 E2.18536
;WIDTH:0.548753
G1 X105.174 Y46.87 E2.20185
G1 X104.96 Y46.763 E2.21834
;WIDTH:0.584599
G1 X104.746 Y46.657 E2.23608
;WIDTH:0.620445
G1 X104.585 Y46.577 E2.2503
G1 E.2503 F2400
G92 E0
G1 X91.63 Y47.104 F7800
G1 E2 F2400
;WIDTH:0.570911
G1 F1800
G1 X91.586 Y47.162 E2.00522
;WIDTH:0.620445
G1 X91.459 Y47.329 E2.02186
G1 X91.489 Y47.044 E2.04455
;WIDTH:0.570911
G1 X91.519 Y46.76 E2.06518
;WIDTH:0.521377
G1 X91.55 Y46.476 E2.08375
;WIDTH:0.471844
G1 X91.704 Y46.468 E2.09266
;WIDTH:0.438458
G1 X91.858 Y46.461 E2.10082
;WIDTH:0.405073
G1 X92.012 Y46.454 E2.10823
;WIDTH:0.421439
G1 X92.09 Y46.473 E2.1123
;WIDTH:0.47119
G1 X92.169 Y46.492 E2.11696
;WIDTH:0.520942
G1 X92.247 Y46.512 E2.12219
;WIDTH:0.570693
G1 X92.326 Y46.531 E2.12802
;WIDTH:0.620445
G1 X92.404 Y46.55 E2.13442
G1 X92.338 Y46.589 E2.14054
;WIDTH:0.570693
G1 X92.271 Y46.627 E2.14609
;WIDTH:0.520942
G1 X92.204 Y46.666 E2.15109
;WIDTH:0.47119
G1 X92.138 Y46.705 E2.15553
;WIDTH:0.421439
G1 X92.071 Y46.743 E2.15941
;WIDTH:0.405073
G1 X91.994 Y46.771 E2.16336
;WIDTH:0.438458
G1 X91.916 Y46.799 E2.1677
;WIDTH:0.471844
G1 X91.839 Y46.827 E2.17244
;WIDTH:0.521377
G1 X91.713 Y46.994 E2.18606
;WIDTH:0.570911
G1 X91.666 Y47.056 E2.19165
G1 X91.948 Y47.326 F7800
;WIDTH:0.42
G1 F1800
G1 X92.075 Y47.113 E2.20407
G1 X92.315 Y47.003 E2.21732
G1 X92.404 Y46.995 E2.22182
G1 X104.532 Y46.995 E2.83044
G1 X104.897 Y47.147 E2.85032
G1 X105.049 Y47.512 E2.87019
G1 X105.049 Y132.488 E7.13474
G1 X104.985 Y132.685 E7.14513
G1 X104.897 Y132.853 E7.15468
G1 X104.738 Y132.962 E7.16437
G1 X104.532 Y133.005 E7.17494
G1 X75.887 Y133.005 E8.6125
G1 X75.487 Y132.817 E8.63465
G1 X75.369 Y132.478 E8.65265
G1 X75.379 Y132.389 E8.65715
G1 X91.896 Y47.414 E13.00152
G1 X91.918 Y47.378 E13.00363
G1 X92.235 Y47.48 F7800
;TYPE:External perimeter
G1 F1800
G1 X92.336 Y47.354 E13.0117
G1 X92.404 Y47.34 E13.01521
G1 X104.532 Y47.34 E13.62383
G1 X104.653 Y47.391 E13.63046
G1 X104.704 Y47.512 E13.63708
G1 X104.704 Y132.488 E17.90163
G1 X104.653 Y132.609 E17.90825
G1 X104.6 Y132.646 E17.91149
G1 X104.532 Y132.66 E17.91501
G1 X75.887 Y132.66 E19.35258
G1 X75.754 Y132.597 E19.35996
G1 X75.717 Y132.455 E19.36734
G1 X92.223 Y47.538 E23.7087
G1 X92.153 Y47.341 F7800
G1 E21.7087 F2400
G92 E0
G1 X105.494 Y132.488 F7800
G1 E2 F2400
;TYPE:Perimeter
;WIDTH:0.620445
G1 F1800
G1 X105.494 Y47.512 E8.74305
G1 E6.74305 F2400
G92 E0
G1 X91.459 Y47.329 F7800
G1 E2 F2400
G1 F1800
G1 X74.942 Y132.304 E8.86926
;WIDTH:0.635031
G1 X74.917 Y132.47 E8.88292
G1 X74.179 Y133.895 F7800
;WIDTH:0.42
G1 F1800
G1 X91.244 Y46.105 E13.37121
G1 X105.939 Y46.105 E14.10871
G1 X105.939 Y133.895 E18.51453
G1 X104.922 Y133.871 E18.56558
G1 X104.699 Y133.895 E18.57684
G1 X74.239 Y133.895 E20.1055
G1 X73.761 Y134.24 F7800
;TYPE:External perimeter
G1 F1800
G1 X90.96 Y45.76 E24.62906
G1 X106.284 Y45.76 E25.39813
G1 X106.284 Y134.24 E29.83857
G1 X73.821 Y134.24 E31.46777
G1 X73.858 Y133.852 F7800
G1 E29.46777 F2400
G92 E0
G1 X75.887 Y133.45 F7800
G1 E2 F2400
;TYPE:Perimeter
;WIDTH:0.620445
G1 F1800
G1 X104.532 Y133.45 E4.27307
G1 E2.27307 F2400
G92 E0
G1 X104.532 Y46.55 F7800
G1 E2 F2400
G1 F1800
G1 X92.404 Y46.55 E2.96235
;LAYER_CHANGE
;Z:0.65
;HEIGHT:0.3
G1 Z.65 F7800
M104 S200 ; set temperature
G1 E.96235 F2400
G92 E0
G1 X105.487 Y132.651 F7800
G1 E2 F2400
;WIDTH:0.472191
G1 F900
G1 X105.509 Y133.465 E2.04145
;WIDTH:0.427003
G1 X105.328 Y133.465 E2.04965
;WIDTH:0.472191
G1 X104.695 Y133.443 E2.08188
G1 X105.2 Y133.156 E2.11143
G1 X105.457 Y132.703 E2.13792
G1 E.13792 F2400
G92 E0
G1 X74.918 Y132.464 F7800
G1 E2 F2400
;WIDTH:0.476228
G1 F900
G1 X75.139 Y133.104 E2.03475
G1 X75.893 Y133.45 E2.07737
G1 X74.73 Y133.441 E2.1371
G1 X74.907 Y132.523 E2.18509
G1 E.18509 F2400
G92 E0
G1 X91.597 Y47.125 F7800
G1 E2 F2400
;WIDTH:0.457527
G1 F900
G1 X91.459 Y47.333 E2.01226
G1 X91.52 Y46.924 E2.03257
;WIDTH:0.421619
G1 X91.581 Y46.514 E2.05102
;WIDTH:0.385711
G1 X91.714 Y46.514 E2.05632
;WIDTH:0.428951
G1 X91.977 Y46.536 E2.06833
;WIDTH:0.472191
G1 X92.24 Y46.557 E2.08177
G1 X92.028 Y46.678 E2.09418
;WIDTH:0.428951
G1 X91.816 Y46.799 E2.10528
;WIDTH:0.421619
G1 X91.637 Y47.066 E2.1196
;WIDTH:0.457527
G1 X91.631 Y47.075 E2.12016
G1 E.12016 F2400
G92 E0
G1 X104.526 Y46.55 F7800
G1 E2 F2400
;WIDTH:0.457525
G1 F900
G1 X105.509 Y46.535 E2.04821
;WIDTH:0.427003
G1 X105.509 Y46.716 E2.05641
;WIDTH:0.457525
G1 X105.494 Y47.518 E2.09573
G1 X105.2 Y46.844 E2.13177
G1 X104.581 Y46.574 E2.16487
G1 E.16487 F2400
G92 E0
G1 X91.897 Y47.312 F7800
G1 E2 F2400
;WIDTH:0.45
G1 X92.041 Y47.071 E2.01347
G1 X92.309 Y46.948 E2.02766
G1 X92.409 Y46.939 E2.03249
G1 X104.526 Y46.939 E2.6153
G1 X104.935 Y47.109 E2.63659
G1 X105.105 Y47.518 E2.65789
G1 X105.096 Y132.582 E6.74919
G1 X104.935 Y132.891 E6.76594
G1 X104.626 Y133.052 E6.78269
G1 X104.526 Y133.061 E6.78752
G1 X75.893 Y133.061 E8.16467
G1 X75.447 Y132.85 E8.1884
G1 X75.315 Y132.472 E8.20768
G1 X75.325 Y132.372 E8.21251
G1 X91.841 Y47.407 E12.37549
G1 X91.867 Y47.364 E12.37793
G1 X92.219 Y47.481 F7800
;TYPE:External perimeter
G1 F1200
G1 X92.286 Y47.369 E12.3842
G1 X92.409 Y47.325 E12.39047
G1 X104.526 Y47.325 E12.97328
G1 X104.663 Y47.381 E12.98038
G1 X104.719 Y47.518 E12.98748
G1 X104.719 Y132.482 E17.07397
G1 X104.663 Y132.619 E17.08107
G1 X104.526 Y132.675 E17.08816
G1 X75.893 Y132.675 E18.46531
G1 X75.744 Y132.605 E18.47322
G1 X75.704 Y132.445 E18.48114
G1 X92.208 Y47.54 E22.64123
G1 X92.143 Y47.375 F7800
G1 X91.459 Y47.333
;TYPE:Perimeter
;WIDTH:0.457527
G1 F2400
G1 X74.943 Y132.298 E26.88546
;WIDTH:0.472191
G1 X74.918 Y132.464 E26.89404
G1 E24.89404
G92 E0
G1 X104.526 Y46.55 F7800
G1 E2 F2400
;WIDTH:0.457525
G1 X92.409 Y46.55 E2.59419
;WIDTH:0.472191
G1 X92.24 Y46.557 E2.60277
G1 E.60277
G92 E0
G1 X105.487 Y132.651 F7800
G1 E2 F2400
G1 X105.494 Y132.482 E2.00858
;WIDTH:0.457525
G1 X105.494 Y47.518 E6.17481
G1 E4.17481
G92 E0
G1 X75.893 Y133.45 F7800
G1 E2 F2400
G1 X104.526 Y133.45 E3.40402
;WIDTH:0.472191
G1 X104.695 Y133.443 E3.4126
G1 E1.4126
G92 E0
G1 X74.247 Y133.839 F7800
G1 E2 F2400
;WIDTH:0.45
G1 X91.29 Y46.161 E6.29597
G1 X105.883 Y46.161 E6.99787
G1 X105.883 Y133.839 E11.21492
G1 X74.307 Y133.839 E12.73364
G1 X73.779 Y134.225 F7800
;TYPE:External perimeter
G1 F1200
G1 X90.972 Y45.775 E17.06741
G1 X106.269 Y45.775 E17.80314
G1 X106.269 Y134.225 E22.05728
G1 X73.839 Y134.225 E23.61705
G1 X73.876 Y133.837 F7800
;LAYER_CHANGE
;Z:0.95
;HEIGHT:0.3
G1 Z.95 F7800
G1 E21.61705 F2400
G92 E0
G1 X105.487 Y132.651 F7800
G1 E2 F2400
;TYPE:Perimeter
;WIDTH:0.472191
G1 F900
G1 X105.509 Y133.465 E2.04145
;WIDTH:0.427003
G1 X105.328 Y133.465 E2.04965
;WIDTH:0.472191
G1 X104.695 Y133.443 E2.08188
G1 X105.2 Y133.156 E2.11143
G1 X105.457 Y132.703 E2.13792
G1 E.13792 F2400
G92 E0
G1 X74.73 Y133.441 F7800
G1 E2 F2400
;WIDTH:0.476228
G1 F900
G1 X74.918 Y132.464 E2.05107
G1 X75.139 Y133.104 E2.08582
G1 X75.893 Y133.45 E2.12844
G1 X74.79 Y133.441 E2.18509
G1 E.18509 F2400
G92 E0
G1 X91.597 Y47.125 F7800
G1 E2 F2400
;WIDTH:0.457527
G1 F900
G1 X91.459 Y47.333 E2.01226
G1 X91.52 Y46.924 E2.03257
;WIDTH:0.421619
G1 X91.581 Y46.514 E2.05102
;WIDTH:0.385711
G1 X91.714 Y46.514 E2.05632
;WIDTH:0.428951
G1 X91.977 Y46.536 E2.06833
;WIDTH:0.472191
G1 X92.24 Y46.557 E2.08177
G1 X92.028 Y46.678 E2.09418
;WIDTH:0.428951
G1 X91.816 Y46.799 E2.10528
;WIDTH:0.421619
G1 X91.637 Y47.066 E2.1196
;WIDTH:0.457527
G1 X91.631 Y47.075 E2.12016
G1 E.12016 F2400
G92 E0
G1 X104.526 Y46.55 F7800
G1 E2 F2400
;WIDTH:0.457525
G1 F900
G1 X105.509 Y46.535 E2.04821
;WIDTH:0.427003
G1 X105.509 Y46.716 E2.05641
;WIDTH:0.457525
G1 X105.494 Y47.518 E2.09573
G1 X105.2 Y46.844 E2.13177
G1 X104.581 Y46.574 E2.16487
G1 E.16487 F2400
G92 E0
G1 X91.897 Y47.312 F7800
G1 E2 F2400
;WIDTH:0.45
G1 X92.041 Y47.071 E2.01347
G1 X92.309 Y46.948 E2.02766
G1 X92.409 Y46.939 E2.03249
G1 X104.526 Y46.939 E2.6153
G1 X104.935 Y47.109 E2.63659
G1 X105.105 Y47.518 E2.65789
G1 X105.096 Y132.582 E6.74919
G1 X104.935 Y132.891 E6.76594
G1 X104.626 Y133.052 E6.78269
G1 X104.526 Y133.061 E6.78752
G1 X75.893 Y133.061 E8.16467
G1 X75.447 Y132.85 E8.1884
G1 X75.315 Y132.472 E8.20768
G1 X75.325 Y132.372 E8.21251
G1 X91.841 Y47.407 E12.37549
G1 X91.867 Y47.364 E12.37793
G1 X92.219 Y47.481 F7800
;TYPE:External perimeter
G1 F1200
G1 X92.286 Y47.369 E12.3842
G1 X92.409 Y47.325 E12.39047
G1 X104.526 Y47.325 E12.97328
G1 X104.663 Y47.381 E12.98038
G1 X104.719 Y47.518 E12.98748
G1 X104.719 Y132.482 E17.07397
G1 X104.663 Y132.619 E17.08107
G1 X104.526 Y132.675 E17.08816
G1 X75.893 Y132.675 E18.46531
G1 X75.744 Y132.605 E18.47322
G1 X75.704 Y132.445 E18.48114
G1 X92.208 Y47.54 E22.64123
G1 X92.143 Y47.375 F7800
G1 X91.459 Y47.333
;TYPE:Perimeter
;WIDTH:0.457527
G1 F2400
G1 X74.943 Y132.298 E26.88546
;WIDTH:0.472191
G1 X74.918 Y132.464 E26.89404
G1 E24.89404
G92 E0
G1 X104.526 Y46.55 F7800
G1 E2 F2400
;WIDTH:0.457525
G1 X92.409 Y46.55 E2.59419
;WIDTH:0.472191
G1 X92.24 Y46.557 E2.60277
G1 E.60277
G92 E0
G1 X105.487 Y132.651 F7800
G1 E2 F2400
G1 X105.494 Y132.482 E2.00858
;WIDTH:0.457525
G1 X105.494 Y47.518 E6.17481
G1 E4.17481
G92 E0
G1 X75.893 Y133.45 F7800
G1 E2 F2400
G1 X104.526 Y133.45 E3.40402
;WIDTH:0.472191
G1 X104.695 Y133.443 E3.4126
G1 E1.4126
G92 E0
G1 X74.247 Y133.839 F7800
G1 E2 F2400
;WIDTH:0.45
G1 X91.29 Y46.161 E6.29597
G1 X105.883 Y46.161 E6.99787
G1 X105.883 Y133.839 E11.21492
G1 X74.307 Y133.839 E12.73364
G1 X73.779 Y134.225 F7800
;TYPE:External perimeter
G1 F1200
G1 X90.972 Y45.775 E17.06741
G1 X106.269 Y45.775 E17.80314
G1 X106.269 Y134.225 E22.05728
G1 X73.839 Y134.225 E23.61705
G1 X73.876 Y133.837 F7800
M106 S137.7
;LAYER_CHANGE
;Z:1.25
;HEIGHT:0.3
G1 Z1.25 F7800
G1 E21.61705 F2400
G92 E0
G1 X105.487 Y132.651 F7800
G1 E2 F2400
;TYPE:Perimeter
;WIDTH:0.472191
G1 F900
G1 X105.509 Y133.465 E2.04145
;WIDTH:0.427003
G1 X105.328 Y133.465 E2.04965
;WIDTH:0.472191
G1 X104.695 Y133.443 E2.08188
G1 X105.2 Y133.156 E2.11143
G1 X105.457 Y132.703 E2.13792
G1 E.13792 F2400
G92 E0
G1 X74.918 Y132.464 F7800
G1 E2 F2400
;WIDTH:0.476228
G1 F900
G1 X75.139 Y133.104 E2.03475
G1 X75.893 Y133.45 E2.07737
G1 X74.73 Y133.441 E2.1371
G1 X74.907 Y132.523 E2.18509
G1 E.18509 F2400
G92 E0
G1 X91.597 Y47.125 F7800
G1 E2 F2400
;WIDTH:0.457527
G1 F900
G1 X91.459 Y47.333 E2.01226
G1 X91.52 Y46.924 E2.03257
;WIDTH:0.421619
G1 X91.581 Y46.514 E2.05102
;WIDTH:0.385711
G1 X91.714 Y46.514 E2.05632
;WIDTH:0.428951
G1 X91.977 Y46.536 E2.06833
;WIDTH:0.472191
G1 X92.24 Y46.557 E2.08177
G1 X92.028 Y46.678 E2.09418
;WIDTH:0.428951
G1 X91.816 Y46.799 E2.10528
;WIDTH:0.421619
G1 X91.637 Y47.066 E2.1196
;WIDTH:0.457527
G1 X91.631 Y47.075 E2.12016
G1 E.12016 F2400
G92 E0
G1 X104.526 Y46.55 F7800
G1 E2 F2400
;WIDTH:0.457525
G1 F900
G1 X105.509 Y46.535 E2.04821
;WIDTH:0.427003
G1 X105.509 Y46.716 E2.05641
;WIDTH:0.457525
G1 X105.494 Y47.518 E2.09573
G1 X105.2 Y46.844 E2.13177
G1 X104.581 Y46.574 E2.16487
G1 E.16487 F2400
G92 E0
G1 X91.897 Y47.312 F7800
G1 E2 F2400
;WIDTH:0.45
G1 X92.041 Y47.071 E2.01347
G1 X92.309 Y46.948 E2.02766
G1 X92.409 Y46.939 E2.03249
G1 X104.526 Y46.939 E2.6153
G1 X104.935 Y47.109 E2.63659
G1 X105.105 Y47.518 E2.65789
G1 X105.096 Y132.582 E6.74919
G1 X104.935 Y132.891 E6.76594
G1 X104.626 Y133.052 E6.78269
G1 X104.526 Y133.061 E6.78752
G1 X75.893 Y133.061 E8.16467
G1 X75.447 Y132.85 E8.1884
G1 X75.315 Y132.472 E8.20768
G1 X75.325 Y132.372 E8.21251
G1 X91.841 Y47.407 E12.37549
G1 X91.867 Y47.364 E12.37793
G1 X92.219 Y47.481 F7800
;TYPE:External perimeter
G1 F1200
