; generated by PrusaSlicer 2.5.0+MacOS-x64 on 2022-11-20 at 04:07:48 UTC

; 

; external perimeters extrusion width = 0.45mm
; perimeters extrusion width = 0.45mm
; infill extrusion width = 0.45mm
; solid infill extrusion width = 0.45mm
; top infill extrusion width = 0.40mm
; first layer extrusion width = 0.42mm

; external perimeters extrusion width = 0.45mm
; perimeters extrusion width = 0.45mm
; infill extrusion width = 0.45mm
; solid infill extrusion width = 0.45mm
; top infill extrusion width = 0.40mm
; first layer extrusion width = 0.42mm

; external perimeters extrusion width = 0.45mm
; perimeters extrusion width = 0.45mm
; infill extrusion width = 0.45mm
; solid infill extrusion width = 0.45mm
; top infill extrusion width = 0.40mm
; first layer extrusion width = 0.42mm

; external perimeters extrusion width = 0.45mm
; perimeters extrusion width = 0.45mm
; infill extrusion width = 0.45mm
; solid infill extrusion width = 0.45mm
; top infill extrusion width = 0.40mm
; first layer extrusion width = 0.42mm

M107
M190 S60 ; set bed temperature and wait for it to be reached
M104 S220 ; set temperature
;TYPE:Custom
G28 ; home all axes
G29 ; auto-level
G1 Z5 F5000 ; lift nozzle
M109 S220 ; set temperature and wait for it to be reached
G21 ; set units to millimeters
G90 ; use absolute coordinates
M82 ; use absolute distances for extrusion
G92 E0
; Filament gcode
M107
;LAYER_CHANGE
;Z:0.35
;HEIGHT:0.35
G1 Z.35 F7800
G1 E-2 F2400
G92 E0
G1 X123.563 Y151.935 F7800
G1 E2 F2400
;TYPE:Perimeter
;WIDTH:0.460089
G1 F1800
G1 X123.677 Y152.006 E2.00752
;WIDTH:0.500178
G1 X123.81 Y152.089 E2.01721
;WIDTH:0.540267
G1 X123.943 Y152.171 E2.02782
;WIDTH:0.580356
G1 X124.076 Y152.254 E2.03934
;WIDTH:0.620445
G1 X124.209 Y152.337 E2.05178
G1 X124.028 Y152.357 E2.06627
;WIDTH:0.580356
G1 X123.846 Y152.377 E2.0797
;WIDTH:0.540267
G1 X123.664 Y152.397 E2.09207
;WIDTH:0.500178
G1 X123.483 Y152.417 E2.10337
;WIDTH:0.460089
G1 X123.301 Y152.437 E2.1136
;WIDTH:0.42
G1 X122.92 Y152.437 E2.13273
G1 X122.993 Y152.063 E2.15187
;WIDTH:0.463006
G1 X123.042 Y151.922 E2.16031
;WIDTH:0.506012
G1 X123.091 Y151.78 E2.16969
;WIDTH:0.549018
G1 X123.141 Y151.639 E2.18001
;WIDTH:0.592024
G1 X123.19 Y151.498 E2.19126
;WIDTH:0.635031
G1 X123.24 Y151.357 E2.20345
G1 X123.3 Y151.47 E2.21393
;WIDTH:0.592024
G1 X123.361 Y151.583 E2.2236
;WIDTH:0.549018
G1 X123.422 Y151.696 E2.23246
;WIDTH:0.506012
G1 X123.483 Y151.81 E2.24052
;WIDTH:0.463006
G1 X123.526 Y151.89 E2.24567
G1 X123.319 Y152.092 F7800
;WIDTH:0.358831
G1 F1800
G1 X123.266 Y152.123 E2.2482
G1 X123.319 Y152.154 E2.25074
G1 X123.337 Y152.123 E2.2522
G1 E.2522 F2400
G92 E0
G1 X167.142 Y152.337 F7800
G1 E2 F2400
;WIDTH:0.620445
G1 F1800
G1 X167.197 Y152.304 E2.00511
;WIDTH:0.577999
G1 X167.252 Y152.271 E2.00983
;WIDTH:0.535553
G1 X167.308 Y152.239 E2.01414
;WIDTH:0.493108
G1 X167.363 Y152.206 E2.01806
;WIDTH:0.450662
G1 X167.419 Y152.173 E2.02158
;WIDTH:0.408216
G1 X167.474 Y152.14 E2.0247
;WIDTH:0.414816
G1 X167.578 Y152.099 E2.0302
;WIDTH:0.463861
G1 X167.681 Y152.058 E2.03648
;WIDTH:0.512907
G1 X167.784 Y152.017 E2.04356
G1 X167.821 Y151.912 E2.05066
;WIDTH:0.478938
G1 X167.857 Y151.807 E2.05721
;WIDTH:0.44497
G1 X167.893 Y151.701 E2.0632
;WIDTH:0.446033
G1 X167.942 Y151.645 E2.06721
;WIDTH:0.481064
G1 X167.99 Y151.588 E2.0716
;WIDTH:0.516095
G1 X168.038 Y151.532 E2.07636
;WIDTH:0.550878
G1 X168.06 Y151.479 E2.0803
;WIDTH:0.585661
G1 X168.082 Y151.427 E2.08452
;WIDTH:0.620445
G1 X168.104 Y151.375 E2.08903
G1 X168.125 Y151.453 E2.09545
;WIDTH:0.578556
G1 X168.146 Y151.531 E2.10137
;WIDTH:0.536667
G1 X168.167 Y151.609 E2.10681
;WIDTH:0.494779
G1 X168.188 Y151.687 E2.11175
;WIDTH:0.45289
G1 X168.209 Y151.765 E2.1162
;WIDTH:0.44497
G1 X168.192 Y151.974 E2.12745
;WIDTH:0.478938
G1 X168.175 Y152.182 E2.13975
;WIDTH:0.512907
G1 X168.158 Y152.391 E2.15307
G1 X167.949 Y152.402 E2.16638
;WIDTH:0.463861
G1 X167.741 Y152.414 E2.17819
;WIDTH:0.414816
G1 X167.532 Y152.426 E2.18851
;WIDTH:0.408216
G1 X167.467 Y152.411 E2.19175
;WIDTH:0.450662
G1 X167.402 Y152.396 E2.1954
;WIDTH:0.493108
G1 X167.337 Y152.381 E2.19946
;WIDTH:0.535553
G1 X167.272 Y152.367 E2.20393
;WIDTH:0.577999
G1 X167.207 Y152.352 E2.20882
;WIDTH:0.620445
G1 X167.2 Y152.35 E2.20936
G1 E.20936 F2400
G92 E0
G1 X168.104 Y66.399 F7800
G1 E2 F2400
G1 F1800
G1 X167.997 Y66.185 E2.01899
;WIDTH:0.584599
G1 X167.891 Y65.971 E2.03672
;WIDTH:0.548753
G1 X167.784 Y65.757 E2.05321
G1 X167.57 Y65.65 E2.0697
;WIDTH:0.584599
G1 X167.356 Y65.544 E2.08744
;WIDTH:0.620445
G1 X167.142 Y65.437 E2.10643
G1 X167.48 Y65.419 E2.13334
;WIDTH:0.584599
G1 X167.819 Y65.401 E2.15849
;WIDTH:0.548753
G1 X168.158 Y65.383 E2.18187
;WIDTH:0.512907
G1 X168.158 Y65.602 E2.19582
;WIDTH:0.548753
G1 X168.14 Y65.868 E2.21418
;WIDTH:0.584599
G1 X168.122 Y66.134 E2.23392
;WIDTH:0.620445
G1 X168.108 Y66.34 E2.2503
G1 E.2503 F2400
G92 E0
G1 X139.782 Y66.216 F7800
G1 E2 F2400
G1 F1800
G1 X139.812 Y65.931 E2.02269
;WIDTH:0.570911
G1 X139.842 Y65.647 E2.04332
;WIDTH:0.521377
G1 X139.872 Y65.363 E2.06189
;WIDTH:0.471844
G1 X140.026 Y65.355 E2.0708
;WIDTH:0.438458
G1 X140.18 Y65.348 E2.07896
;WIDTH:0.405073
G1 X140.334 Y65.341 E2.08637
;WIDTH:0.421439
G1 X140.413 Y65.36 E2.09044
;WIDTH:0.47119
G1 X140.491 Y65.379 E2.09509
;WIDTH:0.520942
G1 X140.57 Y65.399 E2.10033
;WIDTH:0.570693
G1 X140.648 Y65.418 E2.10615
;WIDTH:0.620445
G1 X140.727 Y65.437 E2.11256
G1 X140.66 Y65.476 E2.11867
;WIDTH:0.570693
G1 X140.593 Y65.514 E2.12423
;WIDTH:0.520942
G1 X140.527 Y65.553 E2.12923
;WIDTH:0.47119
G1 X140.46 Y65.592 E2.13367
;WIDTH:0.421439
G1 X140.393 Y65.63 E2.13755
;WIDTH:0.405073
G1 X140.316 Y65.658 E2.1415
;WIDTH:0.438458
G1 X140.239 Y65.686 E2.14584
;WIDTH:0.471844
G1 X140.162 Y65.714 E2.15058
;WIDTH:0.521377
G1 X140.035 Y65.881 E2.1642
;WIDTH:0.570911
G1 X139.908 Y66.049 E2.17933
;WIDTH:0.620445
G1 X139.818 Y66.168 E2.19122
G1 E.19122 F2400
G92 E0
G1 X123.829 Y151.713 F7800
G1 E2 F2400
;WIDTH:0.42
G1 F1800
G1 X123.81 Y151.704 E2.00106
G1 X123.692 Y151.365 E2.01905
G1 X123.701 Y151.276 E2.02356
G1 X140.219 Y66.301 E6.36792
G1 X140.398 Y66 E6.38547
G1 X140.637 Y65.89 E6.39871
G1 X140.727 Y65.882 E6.40321
G1 X167.142 Y65.882 E7.72887
G1 X167.507 Y66.034 E7.74874
G1 X167.659 Y66.399 E7.76861
G1 X167.659 Y151.375 E12.03316
G1 X167.595 Y151.572 E12.04356
G1 X167.507 Y151.74 E12.0531
G1 X167.348 Y151.849 E12.06279
G1 X167.142 Y151.892 E12.07336
G1 X124.209 Y151.892 E14.22796
G1 X123.883 Y151.738 E14.24604
G1 X124.076 Y151.484 F7800
;TYPE:External perimeter
G1 F1800
G1 X124.04 Y151.342 E14.25342
G1 X140.557 Y66.367 E18.59779
G1 X140.658 Y66.241 E18.60586
G1 X140.727 Y66.227 E18.60937
G1 X167.142 Y66.227 E19.93503
G1 X167.263 Y66.277 E19.94165
G1 X167.314 Y66.399 E19.94828
G1 X167.314 Y151.375 E24.21282
G1 X167.263 Y151.496 E24.21945
G1 X167.21 Y151.533 E24.22268
G1 X167.142 Y151.547 E24.2262
G1 X124.209 Y151.547 E26.3808
G1 X124.13 Y151.51 E26.38517
G1 X123.931 Y151.508 F7800
G1 E24.38517 F2400
G92 E0
G1 X168.104 Y151.375 F7800
G1 E2 F2400
;TYPE:Perimeter
;WIDTH:0.620445
G1 F1800
G1 X168.104 Y66.399 E8.74305
G1 E6.74305 F2400
G92 E0
G1 X139.782 Y66.216 F7800
G1 E2 F2400
G1 F1800
G1 X123.264 Y151.191 E8.86926
;WIDTH:0.635031
G1 X123.24 Y151.357 E8.88292
G1 X122.502 Y152.782 F7800
;WIDTH:0.42
G1 F1800
G1 X139.566 Y64.992 E13.37121
G1 X168.549 Y64.992 E14.82574
G1 X168.549 Y152.782 E19.23157
G1 X167.532 Y152.758 E19.28261
G1 X167.309 Y152.782 E19.29387
G1 X122.562 Y152.782 E21.53956
G1 X122.083 Y153.127 F7800
;TYPE:External perimeter
G1 F1800
G1 X139.282 Y64.647 E26.06312
G1 X168.894 Y64.647 E27.54922
G1 X168.894 Y153.127 E31.98967
G1 X122.143 Y153.127 E34.33589
G1 X122.198 Y152.744 F7800
G1 E32.33589 F2400
G92 E0
G1 X124.209 Y152.337 F7800
G1 E2 F2400
;TYPE:Perimeter
;WIDTH:0.620445
G1 F1800
G1 X167.142 Y152.337 E5.40682
G1 E3.40682 F2400
G92 E0
G1 X167.142 Y65.437 F7800
G1 E2 F2400
G1 F1800
G1 X140.727 Y65.437 E4.09611
G1 E2.09611 F2400
G92 E0
G1 X141.41 Y15.553 F7800
G1 E2 F2400
;WIDTH:0.460089
G1 F1800
G1 X141.296 Y15.482 E2.00752
;WIDTH:0.500178
G1 X141.163 Y15.399 E2.01721
;WIDTH:0.540267
G1 X141.03 Y15.316 E2.02782
;WIDTH:0.580356
G1 X140.897 Y15.233 E2.03934
;WIDTH:0.620445
G1 X140.764 Y15.15 E2.05178
G1 X140.946 Y15.13 E2.06627
;WIDTH:0.580356
G1 X141.127 Y15.11 E2.0797
;WIDTH:0.540267
G1 X141.309 Y15.09 E2.09207
;WIDTH:0.500178
G1 X141.49 Y15.07 E2.10337
;WIDTH:0.460089
G1 X141.672 Y15.05 E2.1136
;WIDTH:0.42
G1 X142.053 Y15.05 E2.13273
G1 X141.98 Y15.425 E2.15187
;WIDTH:0.463006
G1 X141.931 Y15.566 E2.16031
;WIDTH:0.506012
G1 X141.882 Y15.707 E2.16969
;WIDTH:0.549018
G1 X141.832 Y15.848 E2.18001
;WIDTH:0.592024
G1 X141.783 Y15.989 E2.19126
;WIDTH:0.635031
G1 X141.734 Y16.131 E2.20345
G1 X141.673 Y16.017 E2.21393
;WIDTH:0.592024
G1 X141.612 Y15.904 E2.2236
;WIDTH:0.549018
G1 X141.551 Y15.791 E2.23246
;WIDTH:0.506012
G1 X141.49 Y15.678 E2.24052
;WIDTH:0.463006
G1 X141.447 Y15.598 E2.24567
G1 X141.69 Y15.334 F7800
;WIDTH:0.358831
G1 F1800
G1 X141.636 Y15.365 E2.2482
G1 X141.69 Y15.395 E2.25074
G1 X141.707 Y15.365 E2.2522
G1 E.2522 F2400
G92 E0
G1 X97.832 Y15.15 F7800
G1 E2 F2400
;WIDTH:0.620445
G1 F1800
G1 X97.776 Y15.183 E2.00511
;WIDTH:0.577999
G1 X97.721 Y15.216 E2.00983
;WIDTH:0.535553
G1 X97.665 Y15.249 E2.01414
;WIDTH:0.493108
G1 X97.61 Y15.282 E2.01806
;WIDTH:0.450662
G1 X97.554 Y15.314 E2.02158
;WIDTH:0.408216
G1 X97.499 Y15.347 E2.0247
;WIDTH:0.414816
G1 X97.396 Y15.388 E2.0302
;WIDTH:0.463862
G1 X97.292 Y15.429 E2.03648
;WIDTH:0.512908
G1 X97.189 Y15.47 E2.04356
;WIDTH:0.548753
G1 X97.083 Y15.685 E2.06005
;WIDTH:0.584599
G1 X96.976 Y15.899 E2.07779
;WIDTH:0.620445
G1 X96.869 Y16.113 E2.09678
G1 X96.851 Y15.774 E2.12369
;WIDTH:0.584599
G1 X96.833 Y15.435 E2.14884
;WIDTH:0.548753
G1 X96.815 Y15.097 E2.17222
;WIDTH:0.512908
G1 X97.024 Y15.085 E2.18552
;WIDTH:0.463862
G1 X97.232 Y15.073 E2.19734
;WIDTH:0.414816
G1 X97.441 Y15.062 E2.20766
;WIDTH:0.408216
G1 X97.506 Y15.076 E2.2109
;WIDTH:0.450662
G1 X97.571 Y15.091 E2.21454
;WIDTH:0.493108
G1 X97.636 Y15.106 E2.21861
;WIDTH:0.535553
G1 X97.701 Y15.121 E2.22308
;WIDTH:0.577999
G1 X97.767 Y15.136 E2.22797
;WIDTH:0.620445
G1 X97.773 Y15.137 E2.22851
G1 E.22851 F2400
G92 E0
G1 X96.869 Y101.088 F7800
G1 E2 F2400
G1 F1800
G1 X96.902 Y101.144 E2.00511
;WIDTH:0.577999
G1 X96.935 Y101.199 E2.00983
;WIDTH:0.535553
G1 X96.968 Y101.254 E2.01414
;WIDTH:0.493108
G1 X97 Y101.31 E2.01806
;WIDTH:0.450662
G1 X97.033 Y101.365 E2.02158
;WIDTH:0.408216
G1 X97.066 Y101.421 E2.0247
;WIDTH:0.414816
G1 X97.107 Y101.524 E2.0302
;WIDTH:0.463862
G1 X97.148 Y101.627 E2.03648
;WIDTH:0.512908
G1 X97.189 Y101.731 E2.04356
;WIDTH:0.548753
G1 X97.403 Y101.837 E2.06005
;WIDTH:0.584599
G1 X97.618 Y101.944 E2.07779
;WIDTH:0.620445
G1 X97.832 Y102.05 E2.09678
G1 X97.493 Y102.068 E2.12369
;WIDTH:0.584599
G1 X97.154 Y102.086 E2.14884
;WIDTH:0.548753
G1 X96.815 Y102.104 E2.17222
;WIDTH:0.512908
G1 X96.804 Y101.896 E2.18552
;WIDTH:0.463862
G1 X96.792 Y101.687 E2.19734
;WIDTH:0.414816
G1 X96.78 Y101.479 E2.20766
;WIDTH:0.408216
G1 X96.795 Y101.414 E2.2109
;WIDTH:0.450662
G1 X96.81 Y101.349 E2.21454
;WIDTH:0.493108
G1 X96.825 Y101.283 E2.21861
;WIDTH:0.535553
G1 X96.84 Y101.218 E2.22308
;WIDTH:0.577999
G1 X96.854 Y101.153 E2.22797
;WIDTH:0.620445
G1 X96.856 Y101.147 E2.22851
G1 E.22851 F2400
G92 E0
G1 X125.191 Y101.272 F7800
G1 E2 F2400
G1 F1800
G1 X125.198 Y101.353 E2.00645
;WIDTH:0.577386
G1 X125.204 Y101.434 E2.0124
;WIDTH:0.534328
G1 X125.21 Y101.515 E2.01783
;WIDTH:0.491269
G1 X125.216 Y101.596 E2.02276
;WIDTH:0.448211
G1 X125.222 Y101.677 E2.02717
;WIDTH:0.438498
G1 X125.162 Y101.901 E2.03943
;WIDTH:0.471844
G1 X125.101 Y102.125 E2.05282
G1 X124.947 Y102.132 E2.06173
;WIDTH:0.438458
G1 X124.793 Y102.139 E2.06989
;WIDTH:0.405073
G1 X124.639 Y102.146 E2.0773
;WIDTH:0.421439
G1 X124.56 Y102.127 E2.08137
;WIDTH:0.47119
G1 X124.482 Y102.108 E2.08602
;WIDTH:0.520942
G1 X124.403 Y102.089 E2.09126
;WIDTH:0.570693
G1 X124.325 Y102.07 E2.09708
;WIDTH:0.620445
G1 X124.247 Y102.05 E2.10349
G1 X124.313 Y102.012 E2.1096
;WIDTH:0.570693
G1 X124.38 Y101.973 E2.11516
;WIDTH:0.520942
G1 X124.447 Y101.934 E2.12015
;WIDTH:0.47119
G1 X124.513 Y101.896 E2.1246
;WIDTH:0.421439
G1 X124.58 Y101.857 E2.12848
;WIDTH:0.405073
G1 X124.657 Y101.829 E2.13242
;WIDTH:0.438458
G1 X124.734 Y101.801 E2.13676
;WIDTH:0.471844
G1 X124.812 Y101.773 E2.14151
G1 X124.87 Y101.664 E2.14865
;WIDTH:0.438498
G1 X124.929 Y101.555 E2.15519
;WIDTH:0.442133
G1 X124.985 Y101.508 E2.1591
;WIDTH:0.479114
G1 X125.041 Y101.461 E2.16342
;WIDTH:0.516095
G1 X125.097 Y101.414 E2.16812
;WIDTH:0.550878
G1 X125.128 Y101.366 E2.17206
;WIDTH:0.585661
G1 X125.158 Y101.322 E2.17604
G1 E.17604 F2400
G92 E0
G1 X141.144 Y15.775 F7800
G1 E2 F2400
;WIDTH:0.42
G1 F1800
G1 X141.163 Y15.784 E2.00106
G1 X141.281 Y16.122 E2.01905
G1 X141.272 Y16.212 E2.02356
G1 X124.754 Y101.187 E6.36792
G1 X124.576 Y101.487 E6.38547
G1 X124.336 Y101.598 E6.39871
G1 X124.247 Y101.605 E6.40321
G1 X97.832 Y101.605 E7.72887
G1 X97.466 Y101.454 E7.74874
G1 X97.357 Y101.294 E7.75843
G1 X97.314 Y101.088 E7.769
G1 X97.314 Y16.113 E12.03355
G1 X97.466 Y15.747 E12.05342
G1 X97.742 Y15.603 E12.06906
G1 X97.832 Y15.596 E12.07356
G1 X140.764 Y15.596 E14.22816
G1 X141.09 Y15.749 E14.24624
G1 X140.897 Y16.003 F7800
;TYPE:External perimeter
G1 F1800
G1 X140.933 Y16.146 E14.25362
G1 X124.416 Y101.121 E18.59799
G1 X124.315 Y101.246 E18.60606
G1 X124.247 Y101.26 E18.60957
G1 X97.832 Y101.26 E19.93523
G1 X97.674 Y101.157 E19.94472
G1 X97.659 Y101.088 E19.94824
G1 X97.659 Y16.113 E24.21279
G1 X97.763 Y15.955 E24.22228
G1 X97.832 Y15.94 E24.22581
G1 X140.764 Y15.94 E26.38041
G1 X140.843 Y15.978 E26.38478
G1 X141.042 Y15.979 F7800
G1 E24.38478 F2400
G92 E0
G1 X142.472 Y14.705 F7800
G1 E2 F2400
;TYPE:Perimeter
G1 F1800
G1 X125.407 Y102.496 E6.48829
G1 X96.424 Y102.496 E7.94282
G1 X96.448 Y101.479 E7.99386
G1 X96.424 Y101.256 E8.00512
G1 X96.424 Y14.705 E12.34872
G1 X142.412 Y14.705 E14.65664
G1 X142.89 Y14.36 F7800
;TYPE:External perimeter
G1 F1800
G1 X125.691 Y102.84 E19.1802
G1 X96.079 Y102.84 E20.6663
G1 X96.079 Y14.36 E25.10674
G1 X142.83 Y14.36 E27.45297
G1 X142.776 Y14.744 F7800
G1 E25.45297 F2400
G92 E0
G1 X97.832 Y102.05 F7800
G1 E2 F2400
;TYPE:Perimeter
;WIDTH:0.620445
G1 F1800
G1 X124.247 Y102.05 E4.09611
G1 X125.191 Y101.272 F7800
G1 F1800
G1 X141.709 Y16.297 E10.96537
;WIDTH:0.635031
G1 X141.734 Y16.131 E10.97903
G1 X140.764 Y15.15 F7800
;WIDTH:0.620445
G1 F1800
G1 X97.832 Y15.15 E14.38585
G1 X96.869 Y16.113 F7800
G1 F1800
G1 X96.869 Y101.088 E21.1289
G1 E19.1289 F2400
G92 E0
G1 X44.241 Y152.467 F7800
G1 E2 F2400
;WIDTH:0.460089
G1 F1800
G1 X44.355 Y152.538 E2.00752
;WIDTH:0.500178
G1 X44.488 Y152.62 E2.01721
;WIDTH:0.540267
G1 X44.621 Y152.703 E2.02782
;WIDTH:0.580356
G1 X44.754 Y152.786 E2.03934
;WIDTH:0.620445
G1 X44.887 Y152.869 E2.05178
G1 X44.706 Y152.889 E2.06627
;WIDTH:0.580356
G1 X44.524 Y152.909 E2.0797
;WIDTH:0.540267
G1 X44.343 Y152.929 E2.09207
;WIDTH:0.500178
G1 X44.161 Y152.949 E2.10337
;WIDTH:0.460089
G1 X43.979 Y152.969 E2.1136
;WIDTH:0.42
G1 X43.598 Y152.969 E2.13273
G1 X43.671 Y152.595 E2.15187
;WIDTH:0.463006
G1 X43.72 Y152.454 E2.16031
;WIDTH:0.506012
G1 X43.77 Y152.312 E2.16969
;WIDTH:0.549018
G1 X43.819 Y152.171 E2.18001
;WIDTH:0.592024
G1 X43.868 Y152.03 E2.19126
;WIDTH:0.635031
G1 X43.918 Y151.889 E2.20345
G1 X43.978 Y152.002 E2.21393
;WIDTH:0.592024
G1 X44.039 Y152.115 E2.2236
;WIDTH:0.549018
G1 X44.1 Y152.228 E2.23246
;WIDTH:0.506012
G1 X44.161 Y152.342 E2.24052
;WIDTH:0.463006
G1 X44.204 Y152.422 E2.24567
G1 X43.997 Y152.624 F7800
;WIDTH:0.358831
G1 F1800
G1 X43.944 Y152.655 E2.2482
G1 X43.997 Y152.685 E2.25074
G1 X44.015 Y152.655 E2.2522
G1 E.2522 F2400
G92 E0
G1 X87.82 Y152.869 F7800
G1 E2 F2400
;WIDTH:0.620445
G1 F1800
G1 X87.875 Y152.836 E2.00511
;WIDTH:0.577999
G1 X87.931 Y152.803 E2.00983
;WIDTH:0.535553
G1 X87.986 Y152.771 E2.01414
;WIDTH:0.493108
G1 X88.041 Y152.738 E2.01806
;WIDTH:0.450662
G1 X88.097 Y152.705 E2.02158
;WIDTH:0.408216
G1 X88.152 Y152.672 E2.0247
;WIDTH:0.414816
G1 X88.256 Y152.631 E2.0302
;WIDTH:0.463861
