; generated by PrusaSlicer 2.4.2+x64 on 2022-07-24 at 15:52:20 UTC

; 

; external perimeters extrusion width = 0.45mm
; perimeters extrusion width = 0.45mm
; infill extrusion width = 0.45mm
; solid infill extrusion width = 0.45mm
; top infill extrusion width = 0.40mm
; first layer extrusion width = 0.42mm

M107
M190 S60 ; set bed temperature and wait for it to be reached
M104 S220 ; set temperature
;TYPE:Custom
G28 ; home all axes
G29 ; auto-level
G1 Z5 F5000 ; lift nozzle
M109 S220 ; set temperature and wait for it to be reached
G21 ; set units to millimeters
G90 ; use absolute coordinates
M82 ; use absolute distances for extrusion
G92 E0
; Filament gcode
M107
;LAYER_CHANGE
;Z:0.35
;HEIGHT:0.35
G1 Z.35 F7800
G1 E-2 F2400
G92 E0
G1 X77.193 Y88.859 F7800
G1 E2 F2400
;TYPE:Skirt/Brim
;WIDTH:0.42
G1 F1800
G1 X78.935 Y87.444 E2.11262
G1 X82 Y86.655 E2.27146
G1 X118 Y86.655 E4.07815
G1 X120.209 Y87.052 E4.19077
G1 X122.141 Y88.193 E4.30339
G1 X123.556 Y89.935 E4.41601
G1 X124.345 Y93 E4.57485
G1 X124.345 Y105 E5.17708
G1 X123.948 Y107.209 E5.2897
G1 X122.807 Y109.141 E5.40232
G1 X121.065 Y110.556 E5.51494
G1 X118 Y111.345 E5.67378
G1 X82 Y111.345 E7.48047
G1 X79.791 Y110.948 E7.59309
G1 X77.859 Y109.807 E7.70571
G1 X76.444 Y108.065 E7.81833
G1 X75.655 Y105 E7.97717
G1 X75.655 Y93 E8.5794
G1 X76.052 Y90.791 E8.69202
G1 X77.162 Y88.911 E8.80163
G1 E6.80163 F2400
G92 E0
G1 X110.308 Y99 F7800
G1 E2 F2400
;TYPE:Perimeter
G1 F1800
G1 X110.364 Y99.641 E2.0323
G1 X110.531 Y100.263 E2.06459
G1 X110.803 Y100.846 E2.09689
G1 X111.172 Y101.373 E2.12918
G1 X111.627 Y101.828 E2.16148
G1 X112.154 Y102.197 E2.19378
G1 X112.737 Y102.469 E2.22607
G1 X113.359 Y102.636 E2.25837
G1 X114 Y102.692 E2.29066
G1 X114.641 Y102.636 E2.32296
G1 X115.263 Y102.469 E2.35526
G1 X115.846 Y102.197 E2.38755
G1 X116.066 Y102.043 E2.40101
G1 X116.066 Y103.066 E2.45231
G1 X83.934 Y103.066 E4.06484
G1 X83.934 Y102.043 E4.11613
G1 X84.154 Y102.197 E4.12959
G1 X84.737 Y102.469 E4.16188
G1 X85.359 Y102.636 E4.19418
G1 X86 Y102.692 E4.22648
G1 X86.641 Y102.636 E4.25877
G1 X87.263 Y102.469 E4.29107
G1 X87.846 Y102.197 E4.32337
G1 X88.373 Y101.828 E4.35566
G1 X88.828 Y101.373 E4.38796
G1 X89.197 Y100.846 E4.42025
G1 X89.469 Y100.263 E4.45255
G1 X89.636 Y99.641 E4.48485
G1 X89.692 Y99 E4.51714
G1 X89.636 Y98.359 E4.54944
G1 X89.469 Y97.737 E4.58173
G1 X89.197 Y97.154 E4.61403
G1 X88.828 Y96.627 E4.64633
G1 X88.373 Y96.172 E4.67862
G1 X87.846 Y95.803 E4.71092
G1 X87.263 Y95.531 E4.74321
G1 X86.635 Y95.363 E4.77583
G1 X85.982 Y95.31 E4.80872
G1 X85.359 Y95.364 E4.8401
G1 X84.737 Y95.531 E4.87239
G1 X84.154 Y95.803 E4.90469
G1 X83.934 Y95.957 E4.91814
G1 X83.934 Y94.934 E4.96944
G1 X91.066 Y94.934 E5.32732
G1 X91.066 Y100.934 E5.62844
G1 X108.934 Y100.934 E6.5252
G1 X108.934 Y94.934 E6.82632
G1 X116.066 Y94.934 E7.1842
G1 X116.066 Y95.957 E7.2355
G1 X115.846 Y95.803 E7.24895
G1 X115.263 Y95.531 E7.28125
G1 X114.635 Y95.363 E7.31387
G1 X113.982 Y95.31 E7.34676
G1 X113.359 Y95.364 E7.37813
G1 X112.737 Y95.531 E7.41043
G1 X112.154 Y95.803 E7.44272
G1 X111.627 Y96.172 E7.47502
G1 X111.172 Y96.627 E7.50731
G1 X110.803 Y97.154 E7.53961
G1 X110.531 Y97.737 E7.57191
G1 X110.364 Y98.359 E7.6042
G1 X110.313 Y98.94 E7.63349
G1 X110.654 Y99 F7800
G1 F1800
G1 X110.705 Y99.581 E7.66276
G1 X110.856 Y100.144 E7.69202
G1 X111.103 Y100.673 E7.72129
G1 X111.437 Y101.151 E7.75056
G1 X111.849 Y101.563 E7.77983
G1 X112.327 Y101.897 E7.80909
G1 X112.856 Y102.144 E7.83836
G1 X113.419 Y102.295 E7.86763
G1 X114 Y102.346 E7.8969
G1 X114.581 Y102.295 E7.92616
G1 X115.144 Y102.144 E7.95543
G1 X115.673 Y101.897 E7.9847
G1 X116.151 Y101.563 E8.01397
G1 X116.41 Y101.303 E8.03241
G1 X116.41 Y103.41 E8.13818
G1 X83.59 Y103.41 E9.78533
G1 X83.59 Y101.303 E9.89109
G1 X83.849 Y101.563 E9.90954
G1 X84.327 Y101.897 E9.93881
G1 X84.856 Y102.144 E9.96807
G1 X85.419 Y102.295 E9.99734
G1 X86 Y102.346 E10.02661
G1 X86.581 Y102.295 E10.05588
G1 X87.144 Y102.144 E10.08514
G1 X87.673 Y101.897 E10.11441
G1 X88.151 Y101.563 E10.14368
G1 X88.563 Y101.151 E10.17294
G1 X88.897 Y100.673 E10.20221
G1 X89.144 Y100.144 E10.23148
G1 X89.295 Y99.581 E10.26075
G1 X89.346 Y99 E10.29002
G1 X89.295 Y98.419 E10.31928
G1 X89.144 Y97.856 E10.34855
G1 X88.897 Y97.327 E10.37782
G1 X88.563 Y96.849 E10.40709
G1 X88.151 Y96.437 E10.43635
G1 X87.673 Y96.103 E10.46562
G1 X87.144 Y95.856 E10.49489
G1 X86.576 Y95.704 E10.52442
G1 X85.983 Y95.656 E10.55428
G1 X85.419 Y95.705 E10.58268
G1 X84.856 Y95.856 E10.61195
G1 X84.327 Y96.103 E10.64122
G1 X83.849 Y96.437 E10.67048
G1 X83.59 Y96.697 E10.68893
G1 X83.59 Y94.59 E10.7947
G1 X91.41 Y94.59 E11.1872
G1 X91.41 Y100.59 E11.48831
G1 X108.59 Y100.59 E12.35046
G1 X108.59 Y94.59 E12.65158
G1 X116.41 Y94.59 E13.04407
G1 X116.41 Y96.697 E13.14984
G1 X116.151 Y96.437 E13.16829
G1 X115.673 Y96.103 E13.19756
G1 X115.144 Y95.856 E13.22682
G1 X114.576 Y95.704 E13.25635
G1 X113.983 Y95.656 E13.28622
G1 X113.419 Y95.705 E13.31462
G1 X112.856 Y95.856 E13.34388
G1 X112.327 Y96.103 E13.37315
G1 X111.849 Y96.437 E13.40242
G1 X111.437 Y96.849 E13.43169
G1 X111.103 Y97.327 E13.46095
G1 X110.856 Y97.856 E13.49022
G1 X110.705 Y98.419 E13.51949
G1 X110.66 Y98.94 E13.54575
G1 E11.54575 F2400
G92 E0
G1 X91.755 Y100.245 F7800
G1 E2 F2400
G1 F1800
G1 X108.245 Y100.245 E2.82753
G1 X108.245 Y94.245 E3.12865
G1 X116.755 Y94.245 E3.55576
G1 X116.755 Y97.473 E3.7178
G1 X116.611 Y97.519 E3.72541
G1 X116.298 Y97.072 E3.75279
G1 X115.928 Y96.702 E3.77903
G1 X115.5 Y96.402 E3.80527
G1 X115.026 Y96.181 E3.83151
G1 X114.517 Y96.045 E3.85795
G1 X113.984 Y96.002 E3.88479
G1 X113.479 Y96.046 E3.91022
G1 X112.974 Y96.181 E3.93646
G1 X112.5 Y96.402 E3.96269
G1 X112.072 Y96.702 E3.98893
G1 X111.702 Y97.072 E4.01517
G1 X111.402 Y97.5 E4.04141
G1 X111.181 Y97.974 E4.06765
G1 X111.046 Y98.479 E4.09389
G1 X111.001 Y99 E4.12013
G1 X111.046 Y99.521 E4.14637
G1 X111.181 Y100.026 E4.1726
G1 X111.402 Y100.5 E4.19885
G1 X111.702 Y100.928 E4.22508
G1 X112.072 Y101.298 E4.25132
G1 X112.5 Y101.598 E4.27756
G1 X112.974 Y101.819 E4.3038
G1 X113.479 Y101.954 E4.33004
G1 X114 Y101.999 E4.35628
G1 X114.521 Y101.954 E4.38252
G1 X115.026 Y101.819 E4.40876
G1 X115.5 Y101.598 E4.43499
G1 X115.928 Y101.298 E4.46123
G1 X116.298 Y100.928 E4.48747
G1 X116.611 Y100.481 E4.51485
G1 X116.755 Y100.527 E4.52247
G1 X116.755 Y103.755 E4.6845
G1 X83.245 Y103.755 E6.36626
G1 X83.245 Y100.527 E6.5283
G1 X83.389 Y100.481 E6.53591
G1 X83.702 Y100.928 E6.56329
G1 X84.072 Y101.298 E6.58953
G1 X84.5 Y101.598 E6.61577
G1 X84.974 Y101.819 E6.64201
G1 X85.479 Y101.954 E6.66825
G1 X86 Y101.999 E6.69449
G1 X86.521 Y101.954 E6.72073
G1 X87.026 Y101.819 E6.74696
G1 X87.5 Y101.598 E6.7732
G1 X87.928 Y101.298 E6.79944
G1 X88.298 Y100.928 E6.82568
G1 X88.598 Y100.5 E6.85192
G1 X88.819 Y100.026 E6.87816
G1 X88.954 Y99.521 E6.9044
G1 X88.999 Y99 E6.93064
G1 X88.954 Y98.479 E6.95688
G1 X88.819 Y97.974 E6.98311
G1 X88.598 Y97.5 E7.00935
G1 X88.298 Y97.072 E7.03559
G1 X87.928 Y96.702 E7.06183
G1 X87.5 Y96.402 E7.08807
G1 X87.026 Y96.181 E7.11431
G1 X86.517 Y96.045 E7.14075
G1 X85.984 Y96.002 E7.16759
G1 X85.479 Y96.046 E7.19302
G1 X84.974 Y96.181 E7.21926
G1 X84.5 Y96.402 E7.2455
G1 X84.072 Y96.702 E7.27173
G1 X83.702 Y97.072 E7.29797
G1 X83.389 Y97.519 E7.32535
G1 X83.245 Y97.473 E7.33297
G1 X83.245 Y94.245 E7.495
G1 X91.755 Y94.245 E7.92212
G1 X91.755 Y100.185 E8.22022
G1 E6.22022 F2400
G92 E0
G1 X84.344 Y96.933 F7800
G1 E2 F2400
G1 F1800
G1 X84.673 Y96.702 E2.02018
G1 X85.093 Y96.507 E2.04339
G1 X85.539 Y96.387 E2.0666
G1 X85.985 Y96.348 E2.08906
G1 X86.458 Y96.386 E2.11286
G1 X86.907 Y96.507 E2.13622
G1 X87.327 Y96.702 E2.15943
G1 X87.705 Y96.968 E2.18264
G1 X88.032 Y97.295 E2.20586
G1 X88.298 Y97.673 E2.22906
G1 X88.493 Y98.093 E2.25228
G1 X88.613 Y98.539 E2.27549
G1 X88.653 Y99 E2.2987
G1 X88.613 Y99.461 E2.32191
G1 X88.493 Y99.907 E2.34512
G1 X88.298 Y100.327 E2.36833
G1 X88.032 Y100.705 E2.39154
G1 X87.705 Y101.032 E2.41475
G1 X87.327 Y101.298 E2.43796
G1 X86.907 Y101.493 E2.46117
G1 X86.461 Y101.613 E2.48438
G1 X86 Y101.653 E2.50759
G1 X85.539 Y101.613 E2.5308
G1 X85.093 Y101.493 E2.55401
G1 X84.673 Y101.298 E2.57722
G1 X84.295 Y101.032 E2.60043
G1 X83.968 Y100.705 E2.62364
G1 X83.702 Y100.327 E2.64685
G1 X83.507 Y99.907 E2.67006
G1 X83.387 Y99.461 E2.69327
G1 X83.347 Y99 E2.71648
G1 X83.387 Y98.539 E2.73969
G1 X83.507 Y98.093 E2.7629
G1 X83.702 Y97.673 E2.78611
G1 X83.968 Y97.295 E2.80932
G1 X84.295 Y96.967 E2.83255
G1 X84.542 Y97.215 F7800
G1 F1800
G1 X84.846 Y97.002 E2.85122
G1 X85.211 Y96.832 E2.8714
G1 X85.599 Y96.728 E2.89158
G1 X85.986 Y96.694 E2.91107
G1 X86.399 Y96.728 E2.93184
G1 X86.789 Y96.832 E2.95212
G1 X87.154 Y97.002 E2.9723
G1 X87.483 Y97.233 E2.99248
G1 X87.767 Y97.517 E3.01266
G1 X87.998 Y97.846 E3.03284
G1 X88.168 Y98.211 E3.05303
G1 X88.272 Y98.599 E3.07321
G1 X88.307 Y99 E3.09339
G1 X88.272 Y99.401 E3.11357
G1 X88.168 Y99.789 E3.13375
G1 X87.998 Y100.154 E3.15393
G1 X87.767 Y100.483 E3.17412
G1 X87.483 Y100.767 E3.1943
G1 X87.154 Y100.998 E3.21448
G1 X86.789 Y101.168 E3.23466
G1 X86.401 Y101.272 E3.25484
G1 X86 Y101.307 E3.27502
G1 X85.599 Y101.272 E3.2952
G1 X85.211 Y101.168 E3.31539
G1 X84.846 Y100.998 E3.33557
G1 X84.517 Y100.767 E3.35575
G1 X84.233 Y100.483 E3.37593
G1 X84.002 Y100.154 E3.39611
G1 X83.832 Y99.789 E3.4163
G1 X83.728 Y99.401 E3.43648
G1 X83.693 Y99 E3.45666
G1 X83.728 Y98.599 E3.47684
G1 X83.832 Y98.211 E3.49702
G1 X84.002 Y97.846 E3.5172
G1 X84.233 Y97.517 E3.53739
G1 X84.496 Y97.254 E3.55607
G1 X84.74 Y97.498 F7800
;TYPE:External perimeter
G1 F1800
G1 X85.02 Y97.302 E3.57322
G1 X85.329 Y97.157 E3.59038
G1 X85.66 Y97.069 E3.60753
G1 X85.987 Y97.04 E3.62404
G1 X86.34 Y97.069 E3.64179
G1 X86.671 Y97.157 E3.65898
G1 X86.98 Y97.302 E3.67613
G1 X87.26 Y97.498 E3.69329
G1 X87.502 Y97.74 E3.71044
G1 X87.698 Y98.02 E3.72759
G1 X87.843 Y98.329 E3.74474
G1 X87.931 Y98.66 E3.7619
G1 X87.961 Y99 E3.77905
G1 X87.931 Y99.34 E3.7962
G1 X87.843 Y99.671 E3.81336
G1 X87.698 Y99.98 E3.83051
G1 X87.502 Y100.26 E3.84766
G1 X87.26 Y100.502 E3.86482
G1 X86.98 Y100.698 E3.88197
G1 X86.671 Y100.843 E3.89912
G1 X86.34 Y100.931 E3.91627
G1 X86 Y100.961 E3.93343
G1 X85.66 Y100.931 E3.95058
G1 X85.329 Y100.843 E3.96773
G1 X85.02 Y100.698 E3.98489
G1 X84.74 Y100.502 E4.00204
G1 X84.498 Y100.26 E4.01919
G1 X84.302 Y99.98 E4.03635
G1 X84.157 Y99.671 E4.0535
G1 X84.069 Y99.34 E4.07065
G1 X84.039 Y99 E4.08781
G1 X84.069 Y98.66 E4.10496
G1 X84.157 Y98.329 E4.12211
G1 X84.302 Y98.02 E4.13927
G1 X84.498 Y97.74 E4.15642
G1 X84.697 Y97.54 E4.17056
G1 X84.68 Y97.161 F7800
G1 E2.17056 F2400
G92 E0
G1 X111.352 Y99.06 F7800
G1 E2 F2400
;TYPE:Perimeter
G1 F1800
G1 X111.387 Y98.539 E2.0262
G1 X111.507 Y98.093 E2.04941
G1 X111.702 Y97.673 E2.07262
G1 X111.968 Y97.295 E2.09583
G1 X112.295 Y96.968 E2.11904
G1 X112.673 Y96.702 E2.14225
G1 X113.093 Y96.507 E2.16546
G1 X113.539 Y96.387 E2.18867
G1 X113.985 Y96.348 E2.21113
G1 X114.458 Y96.386 E2.23493
G1 X114.907 Y96.507 E2.25829
G1 X115.327 Y96.702 E2.2815
G1 X115.705 Y96.968 E2.30471
G1 X116.032 Y97.295 E2.32792
G1 X116.298 Y97.673 E2.35113
G1 X116.493 Y98.093 E2.37434
G1 X116.613 Y98.539 E2.39755
G1 X116.653 Y99 E2.42076
G1 X116.613 Y99.461 E2.44397
G1 X116.493 Y99.907 E2.46718
G1 X116.298 Y100.327 E2.4904
G1 X116.032 Y100.705 E2.51361
G1 X115.705 Y101.032 E2.53682
G1 X115.327 Y101.298 E2.56003
G1 X114.907 Y101.493 E2.58324
G1 X114.461 Y101.613 E2.60645
G1 X114 Y101.653 E2.62966
G1 X113.539 Y101.613 E2.65287
G1 X113.093 Y101.493 E2.67608
G1 X112.673 Y101.298 E2.69929
G1 X112.295 Y101.032 E2.7225
G1 X111.968 Y100.705 E2.74571
G1 X111.702 Y100.327 E2.76892
G1 X111.507 Y99.907 E2.79213
G1 X111.387 Y99.461 E2.81534
G1 X111.357 Y99.12 E2.83251
G1 X111.696 Y99.03 F7800
G1 F1800
G1 X111.728 Y98.599 E2.85418
G1 X111.832 Y98.211 E2.87437
G1 X112.002 Y97.846 E2.89455
G1 X112.233 Y97.517 E2.91473
G1 X112.517 Y97.233 E2.93491
G1 X112.846 Y97.002 E2.95509
G1 X113.211 Y96.832 E2.97527
G1 X113.599 Y96.728 E2.99546
G1 X113.986 Y96.694 E3.01494
G1 X114.399 Y96.728 E3.03572
G1 X114.789 Y96.832 E3.05599
G1 X115.154 Y97.002 E3.07617
G1 X115.483 Y97.233 E3.09636
G1 X115.767 Y97.517 E3.11654
G1 X115.998 Y97.846 E3.13672
G1 X116.168 Y98.211 E3.1569
G1 X116.272 Y98.599 E3.17708
G1 X116.307 Y99 E3.19726
G1 X116.272 Y99.401 E3.21745
G1 X116.168 Y99.789 E3.23763
G1 X115.998 Y100.154 E3.25781
G1 X115.767 Y100.483 E3.27799
G1 X115.483 Y100.767 E3.29817
G1 X115.154 Y100.998 E3.31835
G1 X114.789 Y101.168 E3.33854
G1 X114.401 Y101.272 E3.35872
G1 X114 Y101.307 E3.3789
G1 X113.599 Y101.272 E3.39908
G1 X113.211 Y101.168 E3.41926
G1 X112.846 Y100.998 E3.43944
G1 X112.517 Y100.767 E3.45963
G1 X112.233 Y100.483 E3.47981
G1 X112.002 Y100.154 E3.49999
G1 X111.832 Y99.789 E3.52017
G1 X111.728 Y99.401 E3.54035
G1 X111.701 Y99.09 E3.55601
G1 X112.039 Y99 F7800
;TYPE:External perimeter
G1 F1800
G1 X112.069 Y98.66 E3.57316
G1 X112.157 Y98.329 E3.59031
G1 X112.302 Y98.02 E3.60747
G1 X112.498 Y97.74 E3.62462
G1 X112.74 Y97.498 E3.64177
G1 X113.02 Y97.302 E3.65893
G1 X113.329 Y97.157 E3.67608
G1 X113.66 Y97.069 E3.69323
G1 X113.987 Y97.04 E3.70975
G1 X114.34 Y97.069 E3.7275
G1 X114.671 Y97.157 E3.74468
G1 X114.98 Y97.302 E3.76184
G1 X115.26 Y97.498 E3.77899
G1 X115.502 Y97.74 E3.79614
G1 X115.698 Y98.02 E3.8133
G1 X115.843 Y98.329 E3.83045
G1 X115.931 Y98.66 E3.8476
G1 X115.961 Y99 E3.86475
G1 X115.931 Y99.34 E3.88191
G1 X115.843 Y99.671 E3.89906
G1 X115.698 Y99.98 E3.91621
G1 X115.502 Y100.26 E3.93337
G1 X115.26 Y100.502 E3.95052
G1 X114.98 Y100.698 E3.96767
G1 X114.671 Y100.843 E3.98483
G1 X114.34 Y100.931 E4.00198
G1 X114 Y100.961 E4.01913
G1 X113.66 Y100.931 E4.03629
G1 X113.329 Y100.843 E4.05344
G1 X113.02 Y100.698 E4.07059
G1 X112.74 Y100.502 E4.08774
G1 X112.498 Y100.26 E4.1049
G1 X112.302 Y99.98 E4.12205
G1 X112.157 Y99.671 E4.1392
G1 X112.069 Y99.34 E4.15636
G1 X112.044 Y99.06 E4.1705
G1 X111.743 Y98.829 F7800
G1 E2.1705 F2400
G92 E0
G1 X92.1 Y99.9 F7800
G1 E2 F2400
;TYPE:Perimeter
G1 F1800
G1 X107.9 Y99.9 E2.79292
G1 X107.9 Y93.9 E3.09403
G1 X117.1 Y93.9 E3.55576
G1 X117.1 Y104.1 E4.06768
G1 X82.9 Y104.1 E5.78406
G1 X82.9 Y93.9 E6.29598
G1 X92.1 Y93.9 E6.75771
G1 X92.1 Y99.84 E7.05582
G1 X92.445 Y99.555 F7800
G1 F1800
G1 X107.555 Y99.555 E7.81412
G1 X107.555 Y93.555 E8.11523
G1 X117.445 Y93.555 E8.61158
G1 X117.445 Y104.445 E9.15812
G1 X82.555 Y104.445 E10.90912
G1 X82.555 Y93.555 E11.45565
G1 X92.445 Y93.555 E11.952
G1 X92.445 Y99.495 E12.25011
G1 X92.79 Y99.21 F7800
;TYPE:External perimeter
G1 F1800
G1 X107.21 Y99.21 E12.97379
G1 X107.21 Y93.21 E13.2749
G1 X117.79 Y93.21 E13.80587
G1 X117.79 Y104.79 E14.38702
G1 X82.21 Y104.79 E16.17264
G1 X82.21 Y93.21 E16.75379
G1 X92.79 Y93.21 E17.28476
G1 X92.79 Y99.15 E17.58286
G1 X92.928 Y99.586 F7800
G1 E15.58286 F2400
G92 E0
G1 X87.74 Y102.692 F7800
G1 E2 F2400
;TYPE:Gap fill
;WIDTH:0.349211
G1 F1800
G1 X87.356 Y102.76 E2.01555
;WIDTH:0.340899
G1 X87.188 Y102.782 E2.02212
;WIDTH:0.296554
G1 X87.019 Y102.805 E2.02759
;WIDTH:0.252209
G1 X86.851 Y102.827 E2.03197
;WIDTH:0.207864
G1 X86.683 Y102.849 E2.03525
;WIDTH:0.163521
G1 X86.675 Y102.85 E2.03535
;WIDTH:0.162179
G1 X86.23 Y102.869 E2.041
G1 X85.77 Y102.869 F7800
;WIDTH:0.162172
G1 F1800
G1 X85.325 Y102.85 E2.04664
;WIDTH:0.163511
G1 X85.317 Y102.849 E2.04674
;WIDTH:0.207862
G1 X85.149 Y102.827 E2.05002
;WIDTH:0.252212
G1 X84.981 Y102.805 E2.0544
;WIDTH:0.296562
G1 X84.812 Y102.782 E2.05987
;WIDTH:0.340912
G1 X84.644 Y102.76 E2.06644
;WIDTH:0.349224
G1 X84.107 Y102.665 E2.08819
G1 E.08819 F2400
G92 E0
G1 X83.27 Y100.338 F7800
G1 E2 F2400
;WIDTH:0.360379
G1 F1800
G1 X83.211 Y100.002 E2.01414
;WIDTH:0.351727
G1 X83.189 Y99.838 E2.02081
;WIDTH:0.30849
G1 X83.167 Y99.674 E2.02643
;WIDTH:0.265253
G1 X83.146 Y99.51 E2.03102
;WIDTH:0.222017
G1 X83.145 Y99.497 E2.03129
;WIDTH:0.219789
G1 X83.123 Y99.004 E2.04167
;WIDTH:0.176769
G1 X83.123 Y98.996 E2.0418
;WIDTH:0.219785
G1 X83.145 Y98.503 E2.05218
;WIDTH:0.222014
G1 X83.146 Y98.49 E2.05246
;WIDTH:0.265253
G1 X83.167 Y98.326 E2.05704
;WIDTH:0.308494
G1 X83.189 Y98.162 E2.06266
;WIDTH:0.351734
