; generated by PrusaSlicer 2.6.0+MacOS-x64 on 2023-07-30 at 05:44:17 UTC


;
;

;
;
; 

; external perimeters extrusion width = 0.45mm
; perimeters extrusion width = 0.45mm
; infill extrusion width = 0.45mm
; solid infill extrusion width = 0.45mm
; top infill extrusion width = 0.40mm
; first layer extrusion width = 0.42mm

M73 P0 R1
M201 X2500 Y2500 Z400 E5000 ; sets maximum accelerations, mm/sec^2
M203 X180 Y180 Z12 E80 ; sets maximum feedrates, mm / sec
M204 P1250 R1250 T2500 ; sets acceleration (P, T) and retract acceleration (R), mm/sec^2
M205 X8.00 Y8.00 Z2.00 E10.00 ; sets the jerk limits, mm/sec
M205 S0 T0 ; sets the minimum extruding and travel feed rate, mm/sec
;TYPE:Custom
M862.3 P "MINI" ; printer model check
G90 ; use absolute coordinates
M83 ; extruder relative mode
M104 S170 ; set extruder temp for bed leveling
M140 S85 ; set bed temp
M109 R170 ; wait for bed leveling temp
M190 S85 ; wait for bed temp
M204 T1250 ; set travel acceleration
G28 ; home all without mesh bed level
G29 ; mesh bed leveling 
M204 T2500 ; restore travel acceleration
M104 S235 ; set extruder temp
G92 E0
G1 Y-2 X179 F2400
G1 Z3 F720
M109 S235 ; wait for extruder temp

; intro line
M73 P5 R1
G1 X170 F1000
G1 Z0.2 F720
G1 X110 E8 F900
M73 P6 R1
G1 X40 E10 F700
G92 E0

M221 S95 ; set flow
G21 ; set units to millimeters
G90 ; use absolute coordinates
M83 ; use relative distances for extrusion
; Filament gcode
M107
;LAYER_CHANGE
;Z:0.35
;HEIGHT:0.35
;BEFORE_LAYER_CHANGE
G92 E0.0
;0.35


M73 P10 R1
G1 E-3.2 F4200
M73 P17 R1
G1 Z.2 F7800
G1 Z.35
;AFTER_LAYER_CHANGE
;0.35
G1 Z.55
G1 X82.271 Y81.698
G1 Z.35
M73 P18 R1
G1 E3.2 F2400
;TYPE:Skirt/Brim
;WIDTH:0.42
G1 F1800
G1 X83.877 Y80.451 E.10204
G1 X85.061 Y79.789 E.06808
G1 X86.034 Y79.373 E.05311
G1 X87.995 Y78.835 E.10205
G1 X88.964 Y78.704 E.04907
G1 X90.32 Y78.661 E.06809
G1 X91.672 Y78.78 E.06811
G1 X92.71 Y78.985 E.0531
G1 X93.648 Y79.259 E.04904
M73 P19 R1
G1 X94.905 Y79.771 E.06812
G1 X96.652 Y80.811 E.10203
G1 X97.48 Y81.471 E.05314
G1 X98.444 Y82.424 E.06803
G1 X99.662 Y84.054 E.10212
G1 X100.302 Y85.25 E.06808
G1 X100.673 Y86.154 E.04904
G1 X100.985 Y87.166 E.05315
G1 X101.245 Y88.497 E.06806
G1 X101.332 Y90.529 E.10207
G1 X101.245 Y91.503 E.04908
G1 X100.985 Y92.834 E.06806
G1 X100.302 Y94.75 E.10208
G1 X99.662 Y95.946 E.06808
G1 X99.065 Y96.82 E.05312
G1 X97.702 Y98.329 E.10205
G1 X96.091 Y99.57 E.10206
G1 X95.244 Y100.059 E.04908
M73 P20 R1
G1 X94.006 Y100.613 E.06807
G1 X92.046 Y101.158 E.1021
G1 X90.998 Y101.3 E.05308
G1 X89.642 Y101.338 E.06808
G1 X87.623 Y101.092 E.10207
G1 X86.316 Y100.728 E.06809
G1 X85.406 Y100.371 E.04906
G1 X83.628 Y99.384 E.10206
G1 X82.553 Y98.556 E.0681
G1 X81.788 Y97.825 E.0531
G1 X80.913 Y96.788 E.06809
G1 X80.362 Y95.98 E.04908
G1 X79.449 Y94.163 E.10205
G1 X79.027 Y92.873 E.06812
G1 X78.807 Y91.838 E.0531
G1 X78.659 Y89.81 E.10205
G1 X78.763 Y88.457 E.0681
G1 X78.937 Y87.495 E.04906
G1 X79.219 Y86.475 E.05311
M73 P21 R1
G1 X79.717 Y85.213 E.06809
G1 X80.737 Y83.454 E.10205
G1 X81.335 Y82.681 E.04905
G1 X82.229 Y81.742 E.06507
G1 E-2.24 F4200
;WIPE_START
G1 F6240
G1 X83.411 Y80.816 E-.96
;WIPE_END
G1 Z.55 F7800
G1 X90.197 Y94.093
G1 Z.35
G1 E3.2 F2400
;TYPE:Perimeter
;WIDTH:0.42
G1 F1800
G1 X89.464 Y94.06 E.03682
G1 X88.957 Y93.96 E.02593
G1 X88.244 Y93.7 E.03809
G1 X87.745 Y93.408 E.02902
G1 X87.198 Y92.977 E.03495
G1 X86.705 Y92.428 E.03703
G1 X86.306 Y91.763 E.03892
G1 X86.089 Y91.22 E.02935
G1 X85.937 Y90.502 E.03683
G1 X85.904 Y89.979 E.0263
M73 P22 R1
G1 X85.94 Y89.467 E.02576
G1 X86.103 Y88.789 E.035
G1 X86.275 Y88.298 E.02611
G1 X86.519 Y87.844 E.02587
G1 X86.997 Y87.221 E.03941
G1 X87.436 Y86.804 E.03039
G1 X87.916 Y86.487 E.02887
G1 X88.492 Y86.19 E.03252
G1 X89.032 Y86.032 E.02824
G1 X89.682 Y85.915 E.03315
G1 X90.266 Y85.923 E.02931
G1 X90.772 Y85.981 E.02556
G1 X91.372 Y86.138 E.03113
G1 X92.024 Y86.44 E.03606
G1 X92.449 Y86.714 E.02538
G1 X93.005 Y87.214 E.03753
G1 X93.445 Y87.784 E.03614
G1 X93.678 Y88.194 E.02367
G1 X93.872 Y88.656 E.02515
G1 X94.01 Y89.148 E.02564
G1 X94.084 Y89.653 E.02561
G1 X94.098 Y90.11 E.02295
G1 X94.01 Y90.838 E.0368
G1 X93.883 Y91.313 E.02468
G1 X93.632 Y91.876 E.03094
G1 X93.324 Y92.399 E.03046
G1 X92.832 Y92.961 E.03749
G1 X92.269 Y93.41 E.03614
G1 X91.845 Y93.659 E.02468
G1 X91.163 Y93.927 E.03677
G1 X90.792 Y94.016 E.01915
G1 X90.257 Y94.085 E.02707
G1 X90.187 Y94.438 F7800
G1 F1800
G1 X89.397 Y94.402 E.03969
G1 X88.89 Y94.303 E.02592
G1 X88.126 Y94.029 E.04073
G1 X87.671 Y93.784 E.02593
G1 X87.028 Y93.301 E.04036
G1 X86.481 Y92.712 E.04034
G1 X86.186 Y92.28 E.02625
G1 X85.941 Y91.808 E.02669
G1 X85.757 Y91.317 E.02631
G1 X85.588 Y90.523 E.04074
G1 X85.557 Y90 E.02629
M73 P23 R1
G1 X85.589 Y89.469 E.0267
G1 X85.682 Y88.954 E.02626
G1 X85.945 Y88.186 E.04074
G1 X86.186 Y87.72 E.02633
G1 X86.485 Y87.282 E.02661
G1 X86.835 Y86.881 E.02671
G1 X87.225 Y86.53 E.02633
G1 X87.902 Y86.083 E.04071
G1 X88.371 Y85.866 E.02593
G1 X89.15 Y85.639 E.04072
G1 X89.662 Y85.569 E.02593
G1 X90.473 Y85.581 E.04071
G1 X90.99 Y85.667 E.0263
G1 X91.493 Y85.814 E.0263
G1 X92.23 Y86.156 E.04078
G1 X92.661 Y86.44 E.0259
G1 X93.212 Y86.936 E.03721
G1 X93.776 Y87.66 E.04606
G1 X94.021 Y88.11 E.02571
G1 X94.218 Y88.604 E.02669
G1 X94.354 Y89.118 E.02668
G1 X94.429 Y89.643 E.02662
G1 X94.443 Y90.126 E.02425
G1 X94.346 Y90.931 E.04069
G1 X94.209 Y91.429 E.02592
G1 X93.878 Y92.171 E.04078
G1 X93.6 Y92.606 E.02591
G1 X93.071 Y93.212 E.04037
G1 X92.443 Y93.713 E.04032
G1 X91.995 Y93.971 E.02595
G1 X91.24 Y94.268 E.04072
G1 X90.729 Y94.384 E.0263
G1 X90.247 Y94.435 E.02432
G1 X90.172 Y94.783 F7800
;TYPE:External perimeter
G1 F1800
G1 X89.356 Y94.746 E.04099
G1 X88.798 Y94.636 E.02854
G1 X87.985 Y94.345 E.04334
G1 X87.485 Y94.075 E.02852
G1 X86.796 Y93.559 E.0432
G1 X86.21 Y92.927 E.04325
G1 X85.89 Y92.457 E.02854
M73 P24 R1
G1 X85.626 Y91.948 E.02878
G1 X85.425 Y91.414 E.02863
G1 X85.246 Y90.569 E.04335
G1 X85.212 Y90 E.02861
G1 X85.246 Y89.428 E.02876
G1 X85.348 Y88.866 E.02867
G1 X85.627 Y88.05 E.04328
G1 X85.89 Y87.543 E.02866
G1 X86.212 Y87.07 E.02872
G1 X86.589 Y86.639 E.02874
G1 X87.013 Y86.257 E.02864
G1 X87.734 Y85.781 E.04336
G1 X88.249 Y85.542 E.02849
G1 X89.078 Y85.3 E.04334
G1 X89.641 Y85.224 E.02851
G1 X90.504 Y85.237 E.04332
G1 X91.067 Y85.33 E.02864
G1 X91.615 Y85.491 E.02866
G1 X92.398 Y85.853 E.04329
G1 X92.872 Y86.167 E.02853
G1 X93.443 Y86.68 E.03852
G1 X93.742 Y87.039 E.02345
G1 X94.077 Y87.492 E.02828
G1 X94.34 Y87.98 E.02782
G1 X94.55 Y88.512 E.0287
G1 X94.696 Y89.066 E.02875
G1 X94.773 Y89.632 E.02867
G1 X94.789 Y90.141 E.02556
G1 X94.685 Y90.998 E.04332
G1 X94.534 Y91.546 E.02853
G1 X94.183 Y92.335 E.04334
G1 X93.877 Y92.813 E.02848
G1 X93.31 Y93.462 E.04325
G1 X92.637 Y93.999 E.04321
G1 X92.145 Y94.283 E.02851
G1 X91.342 Y94.598 E.04329
G1 X90.786 Y94.725 E.02862
G1 X90.232 Y94.783 E.02795
G1 X89.964 Y94.441 F7800
G1 X90.199 Y93.383
;TYPE:Perimeter
G1 F1800
M73 P25 R1
G1 X90.072 Y93.397 E.00641
G1 X89.538 Y93.368 E.02684
G1 X88.838 Y93.189 E.03626
G1 X88.282 Y92.931 E.03076
G1 X87.812 Y92.598 E.02891
G1 X87.405 Y92.191 E.02889
G1 X87.098 Y91.73 E.0278
G1 X86.876 Y91.333 E.02283
G1 X86.702 Y90.819 E.02723
G1 X86.612 Y90.267 E.02807
G1 X86.61 Y90 E.0134
G1 X86.63 Y89.604 E.0199
G1 X86.765 Y88.973 E.03238
G1 X87 Y88.408 E.03071
G1 X87.332 Y87.927 E.02933
G1 X87.625 Y87.575 E.02298
G1 X88.112 Y87.18 E.03147
G1 X88.663 Y86.878 E.03153
G1 X89.214 Y86.695 E.02914
G1 X89.734 Y86.631 E.02629
G1 X90.217 Y86.609 E.02426
G1 X90.743 Y86.684 E.02666
G1 X91.31 Y86.863 E.02984
G1 X91.807 Y87.119 E.02806
G1 X92.255 Y87.454 E.02807
G1 X92.657 Y87.878 E.02932
G1 X93.048 Y88.502 E.03696
G1 X93.27 Y89.073 E.03075
G1 X93.379 Y89.639 E.02893
G1 X93.392 Y90.214 E.02886
G1 X93.303 Y90.72 E.02578
G1 X93.18 Y91.201 E.02492
G1 X92.964 Y91.667 E.02578
G1 X92.625 Y92.162 E.03011
G1 X92.216 Y92.579 E.02931
G1 X91.627 Y92.98 E.03576
G1 X90.914 Y93.263 E.0385
G1 X90.568 Y93.344 E.01783
G1 X90.259 Y93.377 E.0156
G1 X90.127 Y93.047 F7800
G1 F1800
G1 X89.658 Y93.034 E.02355
G1 X88.925 Y92.855 E.03787
G1 X88.438 Y92.623 E.02707
G1 X88.017 Y92.321 E.026
G1 X87.654 Y91.953 E.02594
G1 X87.248 Y91.317 E.03787
G1 X87.058 Y90.812 E.02708
G1 X86.964 Y90.312 E.02553
M73 P26 R1
G1 X86.955 Y90 E.01566
G1 X86.967 Y89.677 E.01622
G1 X87.103 Y89.046 E.03239
G1 X87.314 Y88.55 E.02705
G1 X87.609 Y88.132 E.02568
G1 X87.842 Y87.843 E.01863
G1 X88.329 Y87.448 E.03147
G1 X88.819 Y87.185 E.02791
G1 X89.315 Y87.025 E.02616
G1 X90.066 Y86.949 E.03788
G1 X90.582 Y87.003 E.02604
G1 X91.096 Y87.15 E.02683
G1 X91.565 Y87.377 E.02615
G1 X91.985 Y87.679 E.02596
G1 X92.348 Y88.047 E.02594
G1 X92.754 Y88.683 E.03787
G1 X92.945 Y89.188 E.0271
G1 X93.04 Y89.697 E.02599
G1 X93.047 Y90.214 E.02595
G1 X92.9 Y90.954 E.03786
G1 X92.688 Y91.451 E.02712
G1 X92.404 Y91.884 E.02599
G1 X92.052 Y92.262 E.02592
G1 X91.434 Y92.694 E.03784
G1 X90.798 Y92.938 E.03419
G1 X90.187 Y93.047 E.03115
G1 X90.12 Y92.706 F7800
;TYPE:External perimeter
G1 F1800
G1 X89.636 Y92.684 E.02432
G1 X89.012 Y92.522 E.03235
G1 X88.568 Y92.3 E.02491
G1 X88.2 Y92.024 E.02309
G1 X87.88 Y91.685 E.0234
G1 X87.542 Y91.136 E.03236
G1 X87.375 Y90.669 E.02489
G1 X87.3 Y90.215 E.02309
G1 X87.304 Y89.749 E.02339
G1 X87.44 Y89.118 E.03239
G1 X87.647 Y88.661 E.02518
G1 X88.03 Y88.142 E.03237
G1 X88.546 Y87.716 E.03358
G1 X88.992 Y87.485 E.02521
G1 X89.452 Y87.347 E.0241
G1 X90.095 Y87.293 E.03238
G1 X90.567 Y87.351 E.02387
G1 X91.025 Y87.491 E.02403
G1 X91.434 Y87.7 E.02305
G1 X91.802 Y87.976 E.02309
G1 X92.122 Y88.315 E.0234
M73 P27 R1
G1 X92.46 Y88.864 E.03236
G1 X92.638 Y89.398 E.02825
G1 X92.702 Y89.785 E.01969
G1 X92.698 Y90.251 E.02339
G1 X92.562 Y90.882 E.03239
G1 X92.359 Y91.334 E.02487
G1 X92.1 Y91.714 E.02308
G1 X91.775 Y92.047 E.02335
G1 X91.241 Y92.408 E.03235
G1 X90.682 Y92.613 E.02988
G1 X90.179 Y92.698 E.0256
G1 X89.94 Y93.063 F7800
G1 X90.108 Y93.741
;TYPE:Perimeter
;WIDTH:0.427461
G1 F1800
G1 X89.625 Y93.723 E.02478
;WIDTH:0.447841
G1 X89.078 Y93.622 E.03017
G1 X88.411 Y93.39 E.0383
;WIDTH:0.434883
G1 X87.952 Y93.132 E.02757
;WIDTH:0.426121
G1 X87.493 Y92.785 E.02939
G1 X87.144 Y92.415 E.02598
;WIDTH:0.448611
G1 X86.792 Y91.918 E.0331
G1 X86.547 Y91.449 E.02876
;WIDTH:0.427251
G1 X86.358 Y90.843 E.03253
;WIDTH:0.424541
G1 X86.263 Y90.215 E.03229
G1 X86.266 Y89.713 E.02553
;WIDTH:0.446933
G1 X86.365 Y89.131 E.03194
G1 X86.51 Y88.658 E.02677
;WIDTH:0.432701
G1 X86.81 Y88.042 E.03565
G1 X87.258 Y87.449 E.03867
;WIDTH:0.447041
G1 X87.656 Y87.088 E.02908
G1 X88.106 Y86.775 E.02967
;WIDTH:0.427313
G1 X88.615 Y86.517 E.02925
G1 X89.128 Y86.362 E.02747
;WIDTH:0.447833
G1 X89.704 Y86.274 E.0316
G1 X90.261 Y86.268 E.03021
;WIDTH:0.430319
G1 X90.866 Y86.355 E.03159
G1 X91.489 Y86.57 E.03406
;WIDTH:0.424559
G1 X92.051 Y86.867 E.03232
G1 X92.482 Y87.202 E.02776
;WIDTH:0.417949
G1 X92.846 Y87.571 E.02586
;WIDTH:0.447617
G1 X93.161 Y88.003 E.02898
G1 X93.454 Y88.552 E.03373
;WIDTH:0.427831
G1 X93.651 Y89.156 E.03261
;WIDTH:0.428419
G1 X93.735 Y89.663 E.02642
G1 X93.737 Y90.214 E.02833
;WIDTH:0.447845
G1 X93.654 Y90.795 E.03183
G1 X93.493 Y91.342 E.03093
;WIDTH:0.427305
G1 X93.266 Y91.841 E.02809
M73 P28 R1
G1 X92.976 Y92.271 E.02658
;WIDTH:0.424391
G1 X92.551 Y92.741 E.03221
;WIDTH:0.447361
G1 X92.045 Y93.13 E.03457
G1 X91.55 Y93.404 E.03065
;WIDTH:0.439623
G1 X91.033 Y93.597 E.02927
G1 X90.714 Y93.676 E.01743
;WIDTH:0.427461
G1 X90.168 Y93.743 E.0282
;LAYER_CHANGE
;Z:0.65
;HEIGHT:0.3
;BEFORE_LAYER_CHANGE
G92 E0.0
;0.65


G1 E-2.24 F4200
;WIPE_START
G1 F6240
G1 X89.625 Y93.723 E-.34744
G1 X89.078 Y93.622 E-.35568
G1 X88.699 Y93.49 E-.25688
;WIPE_END
G1 Z.55 F7800
G1 Z.65
;AFTER_LAYER_CHANGE
;0.65
M104 S230 ; set temperature
G1 X90.087 Y93.963
G1 E3.2 F2400
;WIDTH:0.508764
G1 F900
G1 X90.054 Y93.967 E.00184
;WIDTH:0.51085
G1 X89.344 Y93.912 E.03966
;WIDTH:0.51673
G1 X88.787 Y93.778 E.03232
G1 X88.321 Y93.596 E.02823
;WIDTH:0.513309
G1 X87.822 Y93.316 E.03204
;WIDTH:0.510609
G1 X87.266 Y92.872 E.0396
;WIDTH:0.516263
G1 X86.87 Y92.438 E.03311
G1 X86.601 Y92.048 E.0267
;WIDTH:0.51355
G1 X86.368 Y91.603 E.02814
;WIDTH:0.509837
G1 X86.189 Y91.089 E.03024
;WIDTH:0.510977
G1 X86.061 Y90.476 E.03488
;WIDTH:0.514331
G1 X86.032 Y90.013 E.02603
G1 X86.061 Y89.513 E.02811
;WIDTH:0.511979
M73 P29 R1
G1 X86.217 Y88.84 E.03857
;WIDTH:0.517892
G1 X86.391 Y88.358 E.02899
G1 X86.626 Y87.914 E.02842
;WIDTH:0.511908
G1 X87.163 Y87.223 E.04885
;WIDTH:0.520007
G1 X87.539 Y86.891 E.0285
G1 X88.021 Y86.563 E.03313
;WIDTH:0.50878
G1 X88.62 Y86.282 E.03667
;WIDTH:0.510391
G1 X89.234 Y86.103 E.03558
G1 X89.743 Y86.042 E.02852
;WIDTH:0.509118
G1 X90.377 Y86.051 E.03517
;WIDTH:0.51921
G1 X90.897 Y86.136 E.02989
G1 X91.582 Y86.371 E.04108
;WIDTH:0.507911
G1 X92.173 Y86.682 E.03694
G1 X92.629 Y87.039 E.03204
;WIDTH:0.504602
G1 X93.02 Y87.436 E.03059
;WIDTH:0.519408
G1 X93.36 Y87.892 E.03228
G1 X93.659 Y88.468 E.03683
;WIDTH:0.512886
G1 X93.881 Y89.162 E.04076
G1 X93.958 Y89.657 E.02802
;WIDTH:0.509837
G1 X93.956 Y90.241 E.03245
;WIDTH:0.511956
G1 X93.883 Y90.823 E.03274
;WIDTH:0.516453
G1 X93.754 Y91.284 E.02699
M73 P30 R1
G1 X93.406 Y92.035 E.04667
;WIDTH:0.508826
G1 X93.046 Y92.53 E.03393
;WIDTH:0.507827
G1 X92.69 Y92.914 E.02896
;WIDTH:0.519281
G1 X92.187 Y93.308 E.03625
G1 X91.789 Y93.546 E.02631
;WIDTH:0.52004
G1 X91.326 Y93.738 E.02849
G1 X90.718 Y93.895 E.03569
;WIDTH:0.508764
G1 X90.147 Y93.957 E.03183
G1 X90.18 Y94.384 F7800
;WIDTH:0.45
G1 F900
G1 X89.674 Y94.376 E.02434
G1 X89.153 Y94.306 E.02528
G1 X88.645 Y94.173 E.02526
G1 X88.157 Y93.982 E.0252
G1 X87.694 Y93.733 E.02528
G1 X87.265 Y93.431 E.02523
G1 X86.875 Y93.08 E.02524
G1 X86.529 Y92.684 E.02529
G1 X86.234 Y92.251 E.0252
G1 X85.992 Y91.785 E.02526
G1 X85.811 Y91.301 E.02485
G1 X85.644 Y90.515 E.03865
G1 X85.613 Y90 E.02481
G1 X85.644 Y89.476 E.02525
G1 X85.736 Y88.968 E.02483
M73 P31 R1
G1 X85.996 Y88.207 E.03868
G1 X86.234 Y87.749 E.02482
G1 X86.529 Y87.316 E.0252
G1 X86.875 Y86.92 E.02529
G1 X87.265 Y86.569 E.02524
G1 X87.694 Y86.267 E.02523
G1 X88.157 Y86.018 E.02528
G1 X88.645 Y85.827 E.0252
G1 X89.153 Y85.694 E.02526
G1 X89.665 Y85.625 E.02485
G1 X90.468 Y85.637 E.03863
G1 X90.978 Y85.722 E.02487
G1 X91.473 Y85.867 E.02481
G1 X92.203 Y86.204 E.03867
G1 X92.626 Y86.484 E.0244
G1 X93.174 Y86.978 E.03549
G1 X93.727 Y87.688 E.04328
G1 X93.969 Y88.131 E.02428
G1 X94.164 Y88.619 E.02528
G1 X94.299 Y89.126 E.02523
G1 X94.373 Y89.644 E.02517
G1 X94.387 Y90.123 E.02305
G1 X94.291 Y90.921 E.03866
G1 X94.156 Y91.41 E.0244
M73 P32 R1
G1 X93.829 Y92.144 E.03865
G1 X93.556 Y92.572 E.02442
G1 X93.033 Y93.171 E.03825
G1 X92.411 Y93.667 E.03826
G1 X91.964 Y93.925 E.02482
G1 X91.481 Y94.131 E.02526
G1 X90.986 Y94.276 E.02481
G1 X90.24 Y94.377 E.03621
G1 X90.174 Y94.769 F7800
;TYPE:External perimeter
G1 F900
G1 X89.645 Y94.761 E.02545
G1 X89.078 Y94.685 E.02751
G1 X88.525 Y94.541 E.02748
G1 X87.995 Y94.333 E.02738
G1 X87.491 Y94.062 E.02752
G1 X87.024 Y93.733 E.02748
G1 X86.6 Y93.351 E.02745
G1 X86.224 Y92.92 E.02751
G1 X85.903 Y92.449 E.02741
G1 X85.639 Y91.942 E.02749
G1 X85.44 Y91.41 E.02732
G1 X85.261 Y90.567 E.04145
G1 X85.227 Y90 E.02732
M73 P33 R1
G1 X85.261 Y89.43 E.02746
G1 X85.362 Y88.87 E.02737
G1 X85.641 Y88.055 E.04143
G1 X85.903 Y87.551 E.02732
G1 X86.224 Y87.08 E.02741
G1 X86.6 Y86.649 E.02751
G1 X87.024 Y86.267 E.02745
G1 X87.491 Y85.938 E.02748
M73 P33 R0
G1 X87.995 Y85.667 E.02752
G1 X88.525 Y85.459 E.02738
G1 X89.078 Y85.315 E.02748
G1 X89.642 Y85.239 E.02737
G1 X90.503 Y85.252 E.04142
G1 X91.064 Y85.345 E.02735
G1 X91.609 Y85.505 E.02732
G1 X92.391 Y85.867 E.04145
G1 X92.863 Y86.178 E.02719
G1 X93.433 Y86.691 E.03688
G1 X93.73 Y87.049 E.02237
G1 X94.064 Y87.5 E.02699
G1 X94.326 Y87.985 E.02651
M73 P34 R0
G1 X94.536 Y88.516 E.02746
G1 X94.681 Y89.069 E.0275
G1 X94.758 Y89.633 E.02738
G1 X94.774 Y90.14 E.0244
G1 X94.671 Y90.995 E.04142
G1 X94.52 Y91.541 E.02725
G1 X94.17 Y92.328 E.04143
G1 X93.865 Y92.804 E.02719
G1 X93.3 Y93.451 E.04131
G1 X92.629 Y93.986 E.04128
G1 X92.137 Y94.27 E.02732
G1 X91.612 Y94.495 E.02747
G1 X91.066 Y94.654 E.02735
